ACESLooks/ACEScct_LUT/T-ARRI_Classic_Tone.spi1d
Version 1
From 0 1.4679964
Length 4096
Components 1
{
		 0
		 0.0003201780446
		 0.000640356089
		 0.0009605341333
		 0.001280712178
		 0.001600890222
		 0.001921068266
		 0.002241246312
		 0.002561424364
		 0.002881602418
		 0.00320178047
		 0.003521958515
		 0.003842136551
		 0.004162314572
		 0.004482492585
		 0.004802670598
		 0.005122848612
		 0.00544302663
		 0.005763204656
		 0.006083382691
		 0.006403560744
		 0.006723738819
		 0.007043916905
		 0.007364094992
		 0.007684273067
		 0.008004451121
		 0.008324629164
		 0.008644807395
		 0.008964985733
		 0.009285164021
		 0.009605342103
		 0.009925519819
		 0.01024569701
		 0.01056587343
		 0.01088604911
		 0.01120622438
		 0.01152639958
		 0.01184657504
		 0.0121667511
		 0.01248692801
		 0.01280710557
		 0.0131272836
		 0.01344746192
		 0.01376764036
		 0.01408781876
		 0.01440799695
		 0.01472817502
		 0.01504835309
		 0.01536853115
		 0.01568870922
		 0.01600888729
		 0.01632906536
		 0.01664924343
		 0.01696942153
		 0.01728959962
		 0.01760977771
		 0.01792995577
		 0.01825013381
		 0.01857031181
		 0.01889048983
		 0.01921066784
		 0.01953084581
		 0.0198510237
		 0.02017120147
		 0.02049137907
		 0.02081155636
		 0.02113173328
		 0.02145191003
		 0.02177208681
		 0.02209226383
		 0.02241244129
		 0.02273261938
		 0.02305279821
		 0.02337297752
		 0.02369315703
		 0.02401333645
		 0.0243335155
		 0.02465369391
		 0.02497387159
		 0.02529404875
		 0.0256142256
		 0.02593440235
		 0.02625457918
		 0.02657475629
		 0.02689493384
		 0.02721511168
		 0.02753528969
		 0.02785546775
		 0.02817564576
		 0.02849582361
		 0.02881600117
		 0.02913617841
		 0.02945635543
		 0.02977653235
		 0.03009670927
		 0.03041688632
		 0.0307370636
		 0.03105724118
		 0.03137741895
		 0.03169759685
		 0.03201777483
		 0.03233795284
		 0.0326581308
		 0.0329783087
		 0.03329848667
		 0.03361866467
		 0.03393884265
		 0.03425902057
		 0.03457919835
		 0.03489937594
		 0.03521955333
		 0.03553973057
		 0.03585990768
		 0.03618008469
		 0.03650026164
		 0.03682043856
		 0.03714061538
		 0.03746079187
		 0.03778096821
		 0.03810114459
		 0.0384213212
		 0.03874149825
		 0.03906167594
		 0.03938185444
		 0.03970203356
		 0.04002221302
		 0.04034239253
		 0.04066257181
		 0.04098275055
		 0.0413029287
		 0.04162310652
		 0.04194328408
		 0.04226346144
		 0.04258363866
		 0.04290381578
		 0.04322399282
		 0.04354416946
		 0.04386434583
		 0.04418452215
		 0.04450469864
		 0.04482487552
		 0.04514505302
		 0.04546523132
		 0.04578541026
		 0.04610558961
		 0.0464257691
		 0.04674594846
		 0.04706612746
		 0.0473863059
		 0.04770648401
		 0.0480266619
		 0.04834683965
		 0.04866701734
		 0.04898719506
		 0.04930737288
		 0.04962755079
		 0.04994772873
		 0.05026790668
		 0.05058808459
		 0.05090826244
		 0.05122844019
		 0.05154861781
		 0.05186879529
		 0.0521889727
		 0.05250915009
		 0.05282932751
		 0.05314950501
		 0.05346968267
		 0.05378986056
		 0.05411003861
		 0.0544302167
		 0.0547503947
		 0.05507057251
		 0.05539075001
		 0.05571092707
		 0.05603110375
		 0.05635128024
		 0.05667145668
		 0.05699163325
		 0.05731181011
		 0.05763198739
		 0.05795216493
		 0.05827234267
		 0.05859252058
		 0.05891269863
		 0.05923287678
		 0.05955305501
		 0.05987323357
		 0.06019341245
		 0.06051359144
		 0.06083377035
		 0.06115394898
		 0.06147412713
		 0.06179430462
		 0.06211448151
		 0.06243465801
		 0.06275483435
		 0.06307501075
		 0.06339518744
		 0.06371536462
		 0.06403554218
		 0.06435572
		 0.06467589798
		 0.06499607605
		 0.0653162541
		 0.06563643206
		 0.06595660993
		 0.06627678781
		 0.06659696569
		 0.06691714357
		 0.06723732145
		 0.06755749933
		 0.06787767721
		 0.06819785513
		 0.06851803308
		 0.06883821102
		 0.06915838891
		 0.06947856673
		 0.06979874445
		 0.07011892202
		 0.07043909947
		 0.07075927687
		 0.07107945425
		 0.07139963169
		 0.07171980924
		 0.07203998693
		 0.07236016473
		 0.07268034262
		 0.07300052055
		 0.0733206985
		 0.07364087643
		 0.07396105431
		 0.07428123219
		 0.07460141007
		 0.07492158795
		 0.07524176583
		 0.07556194371
		 0.07588212158
		 0.07620229947
		 0.07652247741
		 0.07684265536
		 0.07716283328
		 0.07748301115
		 0.07780318894
		 0.07812336662
		 0.07844354422
		 0.07876372177
		 0.07908389926
		 0.0794040767
		 0.07972425407
		 0.08004443138
		 0.08036460859
		 0.08068478569
		 0.08100496273
		 0.08132513976
		 0.08164531684
		 0.08196549401
		 0.08228567128
		 0.08260584854
		 0.08292602583
		 0.08324620321
		 0.08356638074
		 0.08388655846
		 0.08420673644
		 0.08452691489
		 0.08484709369
		 0.08516727265
		 0.08548745158
		 0.08580763027
		 0.08612780853
		 0.08644798617
		 0.0867681633
		 0.08708834013
		 0.08740851688
		 0.08772869377
		 0.08804887102
		 0.08836904885
		 0.08868922729
		 0.08900940613
		 0.08932958513
		 0.08964976409
		 0.08996994277
		 0.09029012094
		 0.09061029856
		 0.09093047579
		 0.09125065277
		 0.09157082964
		 0.09189100653
		 0.09221118357
		 0.09253136086
		 0.09285153826
		 0.09317171573
		 0.09349189324
		 0.09381207078
		 0.09413224832
		 0.09445242582
		 0.09477260334
		 0.09509278088
		 0.09541295841
		 0.09573313591
		 0.09605331336
		 0.09637349072
		 0.09669366791
		 0.09701384487
		 0.09733402173
		 0.09765419863
		 0.0979743757
		 0.09829455308
		 0.09861473091
		 0.09893490933
		 0.09925508815
		 0.09957526715
		 0.09989544612
		 0.1002156248
		 0.100535803
		 0.1008559806
		 0.1011761576
		 0.1014963345
		 0.1018165112
		 0.1021366881
		 0.1024568655
		 0.1027770434
		 0.103097222
		 0.103417401
		 0.1037375801
		 0.1040577591
		 0.1043779376
		 0.1046981153
		 0.1050182922
		 0.1053384684
		 0.1056586443
		 0.1059788201
		 0.1062989962
		 0.1066191728
		 0.1069393503
		 0.1072595284
		 0.1075797068
		 0.1078998854
		 0.108220064
		 0.1085402424
		 0.1088604203
		 0.1091805978
		 0.1095007749
		 0.109820952
		 0.1101411292
		 0.1104613068
		 0.110781485
		 0.1111016642
		 0.1114218443
		 0.1117420248
		 0.1120622053
		 0.1123823854
		 0.1127025645
		 0.1130227424
		 0.113342919
		 0.1136630948
		 0.1139832701
		 0.1143034454
		 0.114623621
		 0.1149437973
		 0.1152639743
		 0.1155841515
		 0.1159043289
		 0.1162245066
		 0.1165446843
		 0.1168648622
		 0.1171850402
		 0.1175052184
		 0.1178253968
		 0.1181455753
		 0.1184657537
		 0.1187859319
		 0.1191061099
		 0.1194262873
		 0.1197464645
		 0.1200666416
		 0.1203868188
		 0.1207069964
		 0.1210271745
		 0.1213473537
		 0.1216675339
		 0.1219877146
		 0.1223078953
		 0.1226280753
		 0.1229482543
		 0.1232684315
		 0.123588607
		 0.1239087813
		 0.1242289551
		 0.1245491289
		 0.1248693035
		 0.1251894795
		 0.1255096569
		 0.1258298354
		 0.1261500145
		 0.1264701939
		 0.126790373
		 0.1271105517
		 0.1274307294
		 0.1277509066
		 0.1280710835
		 0.1283912602
		 0.1287114371
		 0.1290316143
		 0.129351792
		 0.1296719702
		 0.1299921487
		 0.1303123275
		 0.1306325064
		 0.1309526853
		 0.131272864
		 0.1315930427
		 0.1319132216
		 0.1322334005
		 0.1325535793
		 0.1328737579
		 0.1331939362
		 0.1335141141
		 0.1338342917
		 0.134154469
		 0.1344746461
		 0.134794823
		 0.1351149998
		 0.1354351765
		 0.135755353
		 0.1360755293
		 0.1363957054
		 0.1367158816
		 0.1370360578
		 0.1373562342
		 0.1376764109
		 0.1379965877
		 0.1383167645
		 0.1386369416
		 0.1389571188
		 0.1392772963
		 0.139597474
		 0.1399176522
		 0.1402378308
		 0.1405580095
		 0.1408781884
		 0.1411983673
		 0.141518546
		 0.1418381501
		 0.1421565693
		 0.1424746936
		 0.1427934468
		 0.1431137529
		 0.1434365358
		 0.1437624277
		 0.1440896844
		 0.1444184062
		 0.1447492919
		 0.1450830403
		 0.1454203504
		 0.1457619208
		 0.1461076795
		 0.1464570203
		 0.1468098414
		 0.1471660411
		 0.1475255174
		 0.1478881686
		 0.1482540245
		 0.1486234719
		 0.1489963128
		 0.1493722817
		 0.1497511134
		 0.1501325423
		 0.1505163175
		 0.1509027613
		 0.1512920129
		 0.1516839404
		 0.1520784118
		 0.1524752951
		 0.1528744584
		 0.1532761828
		 0.1536810377
		 0.154088497
		 0.1544979958
		 0.1549089695
		 0.1553208532
		 0.1557332189
		 0.1561470501
		 0.1565623657
		 0.1569787883
		 0.1573959404
		 0.1578134444
		 0.158230923
		 0.1586484314
		 0.1590663374
		 0.1594846324
		 0.1599033073
		 0.1603223531
		 0.1607417604
		 0.1611615452
		 0.1615817956
		 0.1620024571
		 0.1624234562
		 0.1628447193
		 0.1632661728
		 0.163687752
		 0.1641098669
		 0.1645325316
		 0.1649554056
		 0.1653781483
		 0.165800419
		 0.1662218773
		 0.1666424318
		 0.1670625276
		 0.1674821321
		 0.1679011826
		 0.1683196162
		 0.1687373702
		 0.1691543897
		 0.1695707342
		 0.16998643
		 0.1704014747
		 0.1708158658
		 0.1712296008
		 0.1716426774
		 0.1720524755
		 0.1724574764
		 0.1728610681
		 0.1732666649
		 0.1736776812
		 0.1740975313
		 0.1745285421
		 0.1749666036
		 0.1754111139
		 0.1758623734
		 0.176320682
		 0.17678634
		 0.1772596851
		 0.1777447272
		 0.1782412022
		 0.1787451067
		 0.1792524368
		 0.1797591891
		 0.18026136
		 0.1807571974
		 0.1812513571
		 0.181744239
		 0.1822358534
		 0.1827262107
		 0.1832153213
		 0.1837031942
		 0.1841898161
		 0.1846751835
		 0.1851593004
		 0.1856421709
		 0.1861237991
		 0.186604189
		 0.1870833374
		 0.1875612371
		 0.188037893
		 0.1885133104
		 0.1889874942
		 0.1894604496
		 0.1899321785
		 0.1904026654
		 0.1908719148
		 0.1913399357
		 0.1918067371
		 0.1922723281
		 0.1927367174
		 0.1931998949
		 0.1936618527
		 0.1941225976
		 0.1945821367
		 0.195040477
		 0.1954976254
		 0.195953567
		 0.1964082505
		 0.1968617143
		 0.1973140042
		 0.1977651657
		 0.1982152446
		 0.1986642698
		 0.1991119395
		 0.1995583006
		 0.2000035859
		 0.2004480282
		 0.2008918602
		 0.2013353147
		 0.2017784132
		 0.2022208816
		 0.2026627392
		 0.203104013
		 0.2035447299
		 0.2039849169
		 0.2044245978
		 0.2048637601
		 0.2053023869
		 0.2057404649
		 0.2061779808
		 0.2066149214
		 0.2070512733
		 0.207487048
		 0.2079222587
		 0.2083568971
		 0.2087909548
		 0.2092244232
		 0.2096572941
		 0.2100895672
		 0.2105212655
		 0.2109523793
		 0.2113828957
		 0.2118128014
		 0.2122420834
		 0.2126707294
		 0.2130987546
		 0.2135261658
		 0.2139529573
		 0.2143791234
		 0.2148046585
		 0.215229557
		 0.2156538215
		 0.2160774634
		 0.2165004763
		 0.2169228532
		 0.217344587
		 0.2177656706
		 0.2181860993
		 0.2186058883
		 0.2190250363
		 0.219443536
		 0.2198613803
		 0.220278562
		 0.220695074
		 0.2211096793
		 0.2215219396
		 0.2219333005
		 0.2223452084
		 0.2227591102
		 0.2231764524
		 0.2235981428
		 0.2240225125
		 0.2244493007
		 0.2248785248
		 0.2253102023
		 0.2257443506
		 0.226181026
		 0.226621933
		 0.2270668456
		 0.2275141945
		 0.2279624105
		 0.2284099244
		 0.2288551668
		 0.2292976119
		 0.2297390689
		 0.23017964
		 0.230619324
		 0.2310581197
		 0.2314960259
		 0.2319330412
		 0.2323691642
		 0.2328043966
		 0.2332387405
		 0.2336721981
		 0.2341047715
		 0.2345364628
		 0.234967272
		 0.2353971967
		 0.2358262371
		 0.2362543932
		 0.2366816651
		 0.2371080529
		 0.2375335558
		 0.23795817
		 0.2383818981
		 0.2388047433
		 0.2392267089
		 0.2396477985
		 0.2400680151
		 0.2404873555
		 0.2409058172
		 0.2413234019
		 0.2417401113
		 0.2421559469
		 0.2425709104
		 0.2429850012
		 0.2433982149
		 0.2438105539
		 0.2442220211
		 0.2446326192
		 0.245042351
		 0.2454512189
		 0.2458592154
		 0.2462663409
		 0.2466725997
		 0.2470779959
		 0.2474825337
		 0.2478862174
		 0.2482890357
		 0.2486909761
		 0.2490920541
		 0.2494922855
		 0.2498916859
		 0.2502902712
		 0.2506880431
		 0.251084937
		 0.2514809778
		 0.2518762084
		 0.2522706716
		 0.2526644101
		 0.2530574663
		 0.2534498185
		 0.2538414324
		 0.2542323126
		 0.2546224633
		 0.2550118889
		 0.2554005938
		 0.2557885795
		 0.2561758396
		 0.2565623748
		 0.2569481866
		 0.2573332761
		 0.2577176449
		 0.258101294
		 0.2584842188
		 0.2588664197
		 0.2592478996
		 0.2596286615
		 0.2600087084
		 0.2603880433
		 0.2607648707
		 0.2611375529
		 0.2615087307
		 0.2618811162
		 0.2622574215
		 0.2626403588
		 0.2630324812
		 0.2634335432
		 0.2638412724
		 0.2642533975
		 0.2646676472
		 0.26508175
		 0.265493437
		 0.265903912
		 0.2663152052
		 0.2667267824
		 0.2671381097
		 0.2675486528
		 0.2679578779
		 0.2683654886
		 0.2687720988
		 0.2691777913
		 0.2695825723
		 0.269986448
		 0.2703894248
		 0.2707915082
		 0.2711926865
		 0.2715929577
		 0.2719923283
		 0.2723908046
		 0.272788393
		 0.2731850999
		 0.2735809204
		 0.2739758402
		 0.274369869
		 0.2747630173
		 0.2751552955
		 0.2755467141
		 0.2759372814
		 0.2763269839
		 0.2767158193
		 0.2771037903
		 0.2774908992
		 0.2778771487
		 0.2782625412
		 0.278647068
		 0.2790307241
		 0.279413519
		 0.2797954623
		 0.2801765632
		 0.2805568312
		 0.2809362695
		 0.2813148588
		 0.281692604
		 0.2820695131
		 0.2824455944
		 0.282820856
		 0.2831953057
		 0.2835689343
		 0.2839417371
		 0.2843137179
		 0.2846848803
		 0.285055228
		 0.2854247645
		 0.2857934857
		 0.2861613801
		 0.2865284564
		 0.2868947244
		 0.2872601937
		 0.2876248741
		 0.2879887728
		 0.2883518727
		 0.2887141734
		 0.2890756819
		 0.2894364052
		 0.2897963505
		 0.2901555247
		 0.2905139223
		 0.2908715342
		 0.2912283663
		 0.2915844246
		 0.2919397151
		 0.2922942438
		 0.292647313
		 0.2929962297
		 0.2933428762
		 0.2936897559
		 0.294039372
		 0.2943942277
		 0.2947567915
		 0.2951262794
		 0.2955008905
		 0.295880088
		 0.2962633351
		 0.2966500949
		 0.2970398306
		 0.297433363
		 0.2978330812
		 0.2982371124
		 0.2986433544
		 0.2990497049
		 0.299454062
		 0.2998545474
		 0.3002529997
		 0.300650381
		 0.3010467094
		 0.3014420031
		 0.3018362802
		 0.3022295589
		 0.3026217643
		 0.3030128297
		 0.3034028542
		 0.3037919383
		 0.3041801826
		 0.3045676876
		 0.3049545159
		 0.3053405126
		 0.3057256808
		 0.3061100608
		 0.306493693
		 0.3068766176
		 0.3072588748
		 0.3076404422
		 0.3080212887
		 0.3084014186
		 0.3087808361
		 0.3091595454
		 0.3095375508
		 0.3099148509
		 0.3102914342
		 0.3106673067
		 0.3110424759
		 0.3114169491
		 0.3117907337
		 0.312163836
		 0.3125362426
		 0.3129079521
		 0.3132789708
		 0.3136493052
		 0.3140189618
		 0.3143879471
		 0.3147562585
		 0.3151238864
		 0.3154908352
		 0.3158571097
		 0.3162227144
		 0.316587654
		 0.3169519305
		 0.3173155294
		 0.3176784548
		 0.318040715
		 0.3184023183
		 0.3187632731
		 0.3191235876
		 0.3194832562
		 0.3198422715
		 0.3202006366
		 0.3205583543
		 0.3209154277
		 0.3212718596
		 0.321627406
		 0.32198145
		 0.322334531
		 0.3226872847
		 0.3230403471
		 0.3233943539
		 0.3237496941
		 0.324101296
		 0.3244499374
		 0.3247996533
		 0.3251544788
		 0.3255184489
		 0.3258955986
		 0.3262897107
		 0.3266994636
		 0.3271200853
		 0.3275467671
		 0.3279747004
		 0.3283990765
		 0.3288159957
		 0.3292303253
		 0.3296437054
		 0.3300561514
		 0.3304676785
		 0.330878302
		 0.3312880369
		 0.3316968718
		 0.3321047907
		 0.3325118026
		 0.3329179165
		 0.3333231413
		 0.3337274859
		 0.3341309514
		 0.3345335148
		 0.3349351848
		 0.3353359738
		 0.3357358944
		 0.336134959
		 0.3365331794
		 0.3369305351
		 0.3373270206
		 0.3377226466
		 0.3381174241
		 0.3385113639
		 0.338904477
		 0.3392967621
		 0.3396882014
		 0.3400788013
		 0.3404685693
		 0.3408575127
		 0.3412456389
		 0.3416329528
		 0.3420194343
		 0.3424050864
		 0.3427899202
		 0.3431739466
		 0.3435571766
		 0.3439396214
		 0.3443212707
		 0.3447021104
		 0.3450821508
		 0.3454614025
		 0.3458398759
		 0.3462175814
		 0.3465945236
		 0.3469706825
		 0.3473460617
		 0.3477206692
		 0.3480945125
		 0.3484675995
		 0.3488399375
		 0.3492115127
		 0.3495823208
		 0.3499523704
		 0.3503216702
		 0.3506902289
		 0.351058055
		 0.3514247341
		 0.3517895841
		 0.3521533618
		 0.3525168902
		 0.3528809924
		 0.3532464915
		 0.3536139594
		 0.3539809633
		 0.35434781
		 0.3547159466
		 0.3550868202
		 0.3554618778
		 0.3558425666
		 0.3562306778
		 0.3566257934
		 0.3570255432
		 0.3574275491
		 0.3578294334
		 0.3582288181
		 0.3586240315
		 0.359017713
		 0.3594104281
		 0.359802171
		 0.3601929357
		 0.3605827166
		 0.3609715075
		 0.3613592985
		 0.361746094
		 0.3621319064
		 0.3625167483
		 0.3629006322
		 0.3632835705
		 0.363665564
		 0.364046589
		 0.3644266535
		 0.3648057678
		 0.3651839423
		 0.3655611874
		 0.365937511
		 0.3663128849
		 0.3666873106
		 0.367060805
		 0.367433385
		 0.3678050675
		 0.3681758694
		 0.3685457858
		 0.3689147937
		 0.3692829017
		 0.3696501186
		 0.3700164531
		 0.3703819142
		 0.3707465057
		 0.3711102046
		 0.3714730165
		 0.3718349536
		 0.3721960282
		 0.3725562525
		 0.3729156386
		 0.3732741697
		 0.3736318348
		 0.3739886462
		 0.3743446163
		 0.3746997576
		 0.3750540823
		 0.3754075945
		 0.3757602741
		 0.3761121246
		 0.3764631518
		 0.3768133616
		 0.3771627598
		 0.3775113507
		 0.3778591086
		 0.3782060362
		 0.3785521519
		 0.3788974742
		 0.3792420217
		 0.3795858127
		 0.3799281335
		 0.3802682582
		 0.3806072679
		 0.3809462792
		 0.3812864088
		 0.3816287732
		 0.3819744158
		 0.3823231739
		 0.3826741582
		 0.3830265066
		 0.3833793569
		 0.3837318468
		 0.3840831145
		 0.3844336459
		 0.3847842521
		 0.3851346609
		 0.3854845997
		 0.3858337961
		 0.3861819776
		 0.3865289846
		 0.3868751207
		 0.3872204379
		 0.3875649478
		 0.3879086619
		 0.3882515918
		 0.3885937482
		 0.3889351146
		 0.3892756858
		 0.3896154694
		 0.3899544729
		 0.3902927041
		 0.3906301704
		 0.3909668662
		 0.3913027737
		 0.3916379048
		 0.3919722725
		 0.3923058898
		 0.3926387698
		 0.3929709223
		 0.3933023279
		 0.3936329849
		 0.3939628993
		 0.394292077
		 0.3946205238
		 0.3949482457
		 0.3952752335
		 0.3956014788
		 0.3959269911
		 0.3962517798
		 0.3965758545
		 0.3968992247
		 0.3972218928
		 0.3975438359
		 0.3978650613
		 0.3981855804
		 0.3985054048
		 0.3988245461
		 0.3991430154
		 0.3994608006
		 0.3997778946
		 0.4000943022
		 0.4004100282
		 0.4007250772
		 0.4010394542
		 0.4013531549
		 0.4016661651
		 0.4019784946
		 0.4022901546
		 0.4026011558
		 0.4029115094
		 0.4032212101
		 0.4035300999
		 0.4038382355
		 0.4041457437
		 0.4044527515
		 0.4047593858
		 0.4050657733
		 0.4053719399
		 0.4056777754
		 0.4059832375
		 0.4062882847
		 0.4065928752
		 0.4068969673
		 0.4072005515
		 0.4075037517
		 0.4078065248
		 0.4081087995
		 0.4084105044
		 0.4087115682
		 0.4090119204
		 0.409311587
		 0.4096106203
		 0.4099090299
		 0.4102068258
		 0.4105040178
		 0.4108006158
		 0.4110966077
		 0.4113919523
		 0.4116866798
		 0.4119808245
		 0.4122744207
		 0.4125675027
		 0.4128600892
		 0.413151991
		 0.4134432484
		 0.4137339987
		 0.4140243792
		 0.414314527
		 0.4146045795
		 0.4148945271
		 0.4151842146
		 0.415473661
		 0.4157628874
		 0.416051915
		 0.4163407649
		 0.4166294523
		 0.4169179529
		 0.4172062621
		 0.4174943809
		 0.4177823106
		 0.4180700525
		 0.4183576078
		 0.4186449711
		 0.4189321412
		 0.4192191229
		 0.4195059211
		 0.4197925404
		 0.4200789859
		 0.4203652588
		 0.4206513518
		 0.420937266
		 0.4212230035
		 0.4215085663
		 0.4217939565
		 0.4220791757
		 0.4223642184
		 0.4226490847
		 0.422933778
		 0.4232183015
		 0.4235026589
		 0.4237868534
		 0.4240710147
		 0.4243552565
		 0.4246393888
		 0.4249232168
		 0.4252065453
		 0.4254891794
		 0.4257709496
		 0.4260519579
		 0.426332321
		 0.4266121282
		 0.4268914689
		 0.4271704324
		 0.4274491079
		 0.4277273586
		 0.4280050895
		 0.428282416
		 0.4285594537
		 0.4288363182
		 0.4291131249
		 0.4293899366
		 0.4296666164
		 0.4299431499
		 0.4302195395
		 0.4304957881
		 0.4307718981
		 0.431047872
		 0.4313237051
		 0.4315993966
		 0.4318749488
		 0.4321503642
		 0.4324256452
		 0.4327007943
		 0.4329758104
		 0.4332506894
		 0.4335254333
		 0.4338000445
		 0.4340745255
		 0.4343488786
		 0.4346231053
		 0.4348972001
		 0.4351711637
		 0.4354449988
		 0.4357187082
		 0.4359922945
		 0.4362657605
		 0.4365391045
		 0.4368123236
		 0.4370854191
		 0.4373583924
		 0.4376312448
		 0.4379039777
		 0.4381765908
		 0.4384490785
		 0.4387214436
		 0.43899369
		 0.4392658213
		 0.4395378414
		 0.4398097539
		 0.4400815553
		 0.4403532434
		 0.4406248191
		 0.4408962834
		 0.4411676373
		 0.4414388816
		 0.4417100157
		 0.4419810372
		 0.4422519476
		 0.4425227488
		 0.4427934424
		 0.4430640301
		 0.4433345405
		 0.4436052234
		 0.4438759686
		 0.4441465606
		 0.4444167836
		 0.444686422
		 0.4449552599
		 0.4452231828
		 0.4454903409
		 0.4457568996
		 0.4460230245
		 0.4462888809
		 0.4465546343
		 0.4468203788
		 0.4470858651
		 0.4473511021
		 0.4476161484
		 0.4478810628
		 0.4481459042
		 0.4484107302
		 0.4486755076
		 0.448940195
		 0.4492047939
		 0.4494693056
		 0.4497337315
		 0.4499980729
		 0.4502623289
		 0.4505264952
		 0.4507905746
		 0.4510545702
		 0.4513184851
		 0.4515823222
		 0.4518460844
		 0.4521097673
		 0.45237337
		 0.4526368939
		 0.4529003403
		 0.4531637105
		 0.4534270058
		 0.4536902234
		 0.4539533601
		 0.4542164197
		 0.454479406
		 0.4547423226
		 0.4550051734
		 0.4552679601
		 0.4555306746
		 0.4557933185
		 0.4560558954
		 0.4563184093
		 0.4565808637
		 0.4568432624
		 0.4571056009
		 0.4573678764
		 0.4576300914
		 0.4578922489
		 0.4581543513
		 0.4584164016
		 0.4586784003
		 0.4589403431
		 0.4592022308
		 0.4594640648
		 0.4597258465
		 0.4599875772
		 0.460249259
		 0.4605109046
		 0.460772509
		 0.4610340603
		 0.4612955467
		 0.4615569562
		 0.4618182771
		 0.4620796475
		 0.462341197
		 0.4626027263
		 0.4628640311
		 0.4631249071
		 0.4633851501
		 0.4636445583
		 0.4639030946
		 0.4641609647
		 0.4644183919
		 0.4646756
		 0.4649328124
		 0.4651902522
		 0.4654478431
		 0.4657053988
		 0.465962919
		 0.4662204033
		 0.4664778514
		 0.466735263
		 0.4669926364
		 0.4672499684
		 0.4675072622
		 0.4677645217
		 0.4680217504
		 0.4682789522
		 0.4685361305
		 0.4687932823
		 0.4690504054
		 0.4693075003
		 0.4695645672
		 0.4698216065
		 0.4700786186
		 0.4703356025
		 0.4705925566
		 0.4708494826
		 0.4711063822
		 0.471363257
		 0.4716201088
		 0.4718769385
		 0.4721337407
		 0.4723905168
		 0.4726472698
		 0.4729040027
		 0.4731607186
		 0.4734174207
		 0.4736741082
		 0.4739307783
		 0.4741874311
		 0.4744440664
		 0.4747006844
		 0.4749572848
		 0.4752138666
		 0.4754704263
		 0.4757269667
		 0.4759834911
		 0.4762400032
		 0.4764965061
		 0.4767530032
		 0.477009492
		 0.4772659702
		 0.4775224383
		 0.4777788966
		 0.4780353454
		 0.4782917851
		 0.478548259
		 0.4788048237
		 0.4790614068
		 0.4793179314
		 0.4795743207
		 0.4798304981
		 0.4800864033
		 0.4803421535
		 0.4805977587
		 0.480853182
		 0.4811083863
		 0.4813633346
