ACESLooks/ACEScct_LUT/T-ARRI_ALF4_Tone.spi1d
Version 1
From 0 1.4679964
Length 4096
Components 1
{
		 0
		 0.0003123222221
		 0.000624644267
		 0.0009369659656
		 0.001249287149
		 0.001561607648
		 0.001873927295
		 0.002186245818
		 0.002498562907
		 0.002810879
		 0.003123194601
		 0.003435510216
		 0.00374782635
		 0.00406014349
		 0.004372461301
		 0.00468477947
		 0.004997097999
		 0.005309416892
		 0.005621736151
		 0.005934055778
		 0.006246375975
		 0.006558697002
		 0.00687101853
		 0.007183340208
		 0.007495661687
		 0.007807982616
		 0.008120302672
		 0.008432621972
		 0.008744940747
		 0.009057259184
		 0.00936957747
		 0.009681895791
		 0.009994214333
		 0.01030653308
		 0.01061885184
		 0.01093117061
		 0.01124348939
		 0.01155580818
		 0.01186812695
		 0.01218044571
		 0.01249276448
		 0.01280508325
		 0.01311740203
		 0.0134297208
		 0.01374203957
		 0.01405435833
		 0.0143666771
		 0.01467899587
		 0.01499131464
		 0.01530363341
		 0.01561595219
		 0.01592827095
		 0.01624058963
		 0.01655290812
		 0.01686522654
		 0.01717754505
		 0.01748986382
		 0.01780218299
		 0.01811450273
		 0.01842682326
		 0.01873914436
		 0.01905146575
		 0.01936378711
		 0.01967610814
		 0.01998842856
		 0.02030074828
		 0.02061306755
		 0.02092538649
		 0.02123770522
		 0.02155002385
		 0.02186234249
		 0.02217466121
		 0.02248697984
		 0.02279929837
		 0.02311161687
		 0.02342393538
		 0.02373625396
		 0.02404857266
		 0.02436089134
		 0.02467320996
		 0.02498552864
		 0.02529784748
		 0.02561016661
		 0.02592248614
		 0.02623480624
		 0.02654712705
		 0.02685944829
		 0.02717176968
		 0.02748409093
		 0.02779641175
		 0.02810873189
		 0.02842105165
		 0.02873337116
		 0.02904569036
		 0.02935800919
		 0.02967032759
		 0.02998264552
		 0.03029496258
		 0.03060727856
		 0.03091959398
		 0.03123190938
		 0.03154422529
		 0.03185654225
		 0.03216886076
		 0.0324811808
		 0.03279350189
		 0.03310582354
		 0.03341814527
		 0.03373046661
		 0.03404278706
		 0.0343551067
		 0.03466742592
		 0.03497974483
		 0.03529206354
		 0.03560438216
		 0.03591670082
		 0.03622901954
		 0.0365413382
		 0.03685365678
		 0.03716597532
		 0.03747829384
		 0.03779061238
		 0.03810293095
		 0.03841524946
		 0.03872756793
		 0.0390398864
		 0.03935220493
		 0.03966452357
		 0.03997684239
		 0.04028916146
		 0.04060148078
		 0.04091380024
		 0.04122611974
		 0.04153843918
		 0.04185075845
		 0.04216307743
		 0.04247539607
		 0.04278771449
		 0.04310003284
		 0.04341235125
		 0.04372466986
		 0.04403698881
		 0.04434930815
		 0.04466162776
		 0.04497394757
		 0.04528626748
		 0.04559858741
		 0.04591090728
		 0.04622322708
		 0.04653554697
		 0.0468478669
		 0.0471601868
		 0.04747250657
		 0.04778482613
		 0.0480971454
		 0.04840946427
		 0.04872178282
		 0.04903410121
		 0.04934641956
		 0.04965873801
		 0.04997105672
		 0.05028337572
		 0.05059569487
		 0.05090801414
		 0.05122033351
		 0.05153265296
		 0.05184497247
		 0.05215729203
		 0.0524696118
		 0.05278193171
		 0.05309425166
		 0.05340657153
		 0.05371889121
		 0.05403121058
		 0.05434352959
		 0.05465584831
		 0.05496816684
		 0.05528048526
		 0.05559280365
		 0.05590512211
		 0.05621744064
		 0.05652975899
		 0.05684207725
		 0.05715439558
		 0.05746671411
		 0.05777903298
		 0.05809135234
		 0.05840367239
		 0.05871599301
		 0.05902831392
		 0.05934063484
		 0.0596529555
		 0.05996527562
		 0.06027759504
		 0.06058991395
		 0.06090223251
		 0.06121455085
		 0.06152686912
		 0.06183918745
		 0.06215150597
		 0.06246382444
		 0.06277614283
		 0.06308846125
		 0.06340077976
		 0.06371309846
		 0.06402541744
		 0.06433773675
		 0.06465005635
		 0.06496237614
		 0.06527469604
		 0.06558701597
		 0.06589933586
		 0.06621165568
		 0.06652397575
		 0.06683629594
		 0.06714861605
		 0.06746093589
		 0.06777325525
		 0.06808557394
		 0.06839789162
		 0.06871020846
		 0.06902252486
		 0.06933484122
		 0.06964715795
		 0.06995947545
		 0.07027179397
		 0.07058411323
		 0.07089643299
		 0.07120875307
		 0.07152107326
		 0.07183339337
		 0.07214571322
		 0.07245803308
		 0.07277035301
		 0.07308267293
		 0.07339499275
		 0.07370731238
		 0.07401963175
		 0.07433195075
		 0.07464426939
		 0.07495658781
		 0.07526890615
		 0.07558122456
		 0.07589354318
		 0.07620586212
		 0.07651818131
		 0.07683050067
		 0.07714282012
		 0.07745513957
		 0.07776745896
		 0.07807977821
		 0.0783920973
		 0.07870441629
		 0.07901673522
		 0.07932905414
		 0.07964137311
		 0.07995369217
		 0.08026601135
		 0.08057833062
		 0.08089064995
		 0.08120296932
		 0.0815152887
		 0.08182760806
		 0.08213992739
		 0.08245224674
		 0.08276456612
		 0.08307688549
		 0.08338920485
		 0.08370152415
		 0.08401384338
		 0.0843261625
		 0.08463848151
		 0.08495080045
		 0.08526311937
		 0.08557543832
		 0.08588775735
		 0.08620007651
		 0.0865123958
		 0.08682471516
		 0.08713703457
		 0.08744935396
		 0.08776167329
		 0.08807399253
		 0.08838631162
		 0.08869863061
		 0.08901094954
		 0.08932326847
		 0.08963558743
		 0.08994790648
		 0.09026022569
		 0.09057254511
		 0.09088486463
		 0.09119718414
		 0.09150950354
		 0.09182182272
		 0.09213414156
		 0.09244645989
		 0.09275877782
		 0.0930710956
		 0.09338341344
		 0.09369573159
		 0.09400805026
		 0.09432036969
		 0.09463268981
		 0.09494501035
		 0.095257331
		 0.09556965147
		 0.09588197148
		 0.09619429076
		 0.09650660934
		 0.09681892745
		 0.09713124531
		 0.09744356311
		 0.09775588107
		 0.0980681994
		 0.09838051808
		 0.09869283693
		 0.09900515592
		 0.09931747501
		 0.09962979416
		 0.09994211334
		 0.1002544325
		 0.1005667518
		 0.1008790711
		 0.1011913905
		 0.1015037099
		 0.1018160292
		 0.1021283486
		 0.1024406679
		 0.1027529873
		 0.1030653067
		 0.103377626
		 0.1036899453
		 0.1040022646
		 0.1043145837
		 0.1046269027
		 0.1049392216
		 0.1052515406
		 0.1055638595
		 0.1058761785
		 0.1061884977
		 0.1065008168
		 0.1068131359
		 0.1071254551
		 0.1074377744
		 0.1077500939
		 0.1080624137
		 0.1083747339
		 0.1086870546
		 0.1089993756
		 0.1093116965
		 0.1096240171
		 0.1099363371
		 0.1102486562
		 0.1105609744
		 0.1108732921
		 0.1111856094
		 0.1114979268
		 0.1118102445
		 0.1121225628
		 0.1124348817
		 0.1127472009
		 0.1130595204
		 0.1133718399
		 0.1136841595
		 0.1139964789
		 0.114308798
		 0.1146211172
		 0.1149334364
		 0.1152457554
		 0.1155580744
		 0.1158703932
		 0.1161827118
		 0.1164950298
		 0.1168073475
		 0.1171196651
		 0.1174319829
		 0.1177443013
		 0.1180566205
		 0.118368941
		 0.1186812627
		 0.1189935851
		 0.1193059076
		 0.1196182298
		 0.119930551
		 0.1202428708
		 0.1205551893
		 0.120867507
		 0.1211798243
		 0.1214921414
		 0.1218044589
		 0.1221167771
		 0.1224290961
		 0.1227414155
		 0.1230537351
		 0.1233660548
		 0.1236783743
		 0.1239906933
		 0.1243030118
		 0.1246153297
		 0.1249276473
		 0.1252399648
		 0.1255522824
		 0.1258646003
		 0.1261769187
		 0.1264892374
		 0.1268015563
		 0.1271138754
		 0.1274261948
		 0.1277385145
		 0.1280508347
		 0.1283631557
		 0.1286754779
		 0.1289878006
		 0.1293001233
		 0.1296124452
		 0.1299247658
		 0.1302370844
		 0.1305494007
		 0.1308617155
		 0.1311740295
		 0.1314863438
		 0.1317986591
		 0.1321109766
		 0.1324232964
		 0.1327356179
		 0.1330479405
		 0.1333602634
		 0.1336725858
		 0.1339849072
		 0.1342972268
		 0.1346095452
		 0.1349218628
		 0.13523418
		 0.1355464972
		 0.1358588147
		 0.136171133
		 0.1364834519
		 0.1367957712
		 0.1371080906
		 0.1374204102
		 0.1377327297
		 0.1380450492
		 0.1383573686
		 0.1386696881
		 0.1389820076
		 0.1392943271
		 0.1396066465
		 0.1399189655
		 0.1402312841
		 0.1405436021
		 0.1408559198
		 0.1411682373
		 0.1414805548
		 0.1417928726
		 0.1421051909
		 0.1424175096
		 0.1427298287
		 0.1430421479
		 0.1433544674
		 0.143666787
		 0.1439791067
		 0.1442914265
		 0.1446037466
		 0.1449160669
		 0.1452283872
		 0.1455407076
		 0.1458530277
		 0.1461653476
		 0.1464776672
		 0.1467899866
		 0.1471023058
		 0.147414625
		 0.1477269442
		 0.1480392635
		 0.1483515829
		 0.1486639024
		 0.1489762219
		 0.1492885414
		 0.1496008608
		 0.1499131798
		 0.1502254984
		 0.1505378165
		 0.1508501342
		 0.1511624517
		 0.1514747692
		 0.151787087
		 0.1520994052
		 0.1524117239
		 0.1527240427
		 0.1530363617
		 0.153348681
		 0.1536610006
		 0.1539733207
		 0.1542856413
		 0.1545979629
		 0.1549102851
		 0.1552226076
		 0.1555349297
		 0.1558472511
		 0.1561595714
		 0.1564718905
		 0.1567842086
		 0.1570965262
		 0.1574088435
		 0.1577211607
		 0.1580334782
		 0.158345796
		 0.1586581137
		 0.1589704315
		 0.1592827492
		 0.1595950671
		 0.159907385
		 0.1602197032
		 0.1605320213
		 0.1608443395
		 0.1611566578
		 0.1614689763
		 0.161781295
		 0.1620936141
		 0.1624059338
		 0.1627182541
		 0.1630305747
		 0.1633428953
		 0.1636552157
		 0.1639675355
		 0.1642776339
		 0.1645758797
		 0.1648686003
		 0.1651645778
		 0.165472594
		 0.1658014308
		 0.1661598628
		 0.1665523196
		 0.1669721683
		 0.167411089
		 0.1678607619
		 0.1683128674
		 0.1687590855
		 0.1691960659
		 0.16963405
		 0.1700732974
		 0.1705131894
		 0.1709531074
		 0.1713924326
		 0.1718306021
		 0.1722681466
		 0.172705365
		 0.1731422478
		 0.1735787856
		 0.1740149687
		 0.1744507876
		 0.1748862484
		 0.1753213667
		 0.175756133
		 0.1761905374
		 0.1766245704
		 0.1770582219
		 0.1774914869
		 0.1779243864
		 0.1783569169
		 0.1787890688
		 0.1792208326
		 0.1796521986
		 0.1800831575
		 0.1805137183
		 0.1809438894
		 0.181373665
		 0.1818030396
		 0.1822320075
		 0.1826605633
		 0.1830887088
		 0.1835164622
		 0.1839438136
		 0.184370751
		 0.1847972623
		 0.1852233354
		 0.1856489592
		 0.1860741487
		 0.1864989091
		 0.1869232352
		 0.1873471221
		 0.1877705648
		 0.1881935583
		 0.1886161093
		 0.1890382307
		 0.1894599113
		 0.1898811394
		 0.1903019032
		 0.1907221909
		 0.1911419939
		 0.1915613292
		 0.1919801981
		 0.1923985963
		 0.1928165194
		 0.1932339632
		 0.1936509234
		 0.1940674064
		 0.194483417
		 0.1948989496
		 0.1953139985
		 0.1957285581
		 0.1961426226
		 0.1965561747
		 0.1969691809
		 0.197381675
		 0.1977936972
		 0.1982052873
		 0.1986164855
		 0.1990273226
		 0.1994375614
		 0.1998472199
		 0.2002564844
		 0.2006655415
		 0.2010745776
		 0.201483779
		 0.2018931914
		 0.2023026013
		 0.202712003
		 0.2031213998
		 0.2035307949
		 0.2039401913
		 0.2043495943
		 0.2047590212
		 0.2051684611
		 0.2055778964
		 0.2059873097
		 0.2063966833
		 0.2068059998
		 0.2072136507
		 0.2076190735
		 0.2080241491
		 0.2084307604
		 0.20884079
		 0.2092561204
		 0.2096774018
		 0.2101006643
		 0.2105269134
		 0.2109578903
		 0.2113953365
		 0.2118409932
		 0.2122966513
		 0.2127654197
		 0.2132456255
		 0.2137334638
		 0.2142251294
		 0.2147168175
		 0.215204723
		 0.2156875765
		 0.2161697724
		 0.2166515493
		 0.217132894
		 0.2176137932
		 0.2180942336
		 0.2185742055
		 0.2190537385
		 0.219532831
		 0.2200114681
		 0.2204896347
		 0.2209673159
		 0.2214444968
		 0.2219211872
		 0.2223974071
		 0.2228731449
		 0.2233483891
		 0.2238231283
		 0.2242973508
		 0.2247710519
		 0.2252442569
		 0.22571696
		 0.2261891496
		 0.2266608142
		 0.2271319421
		 0.2276025223
		 0.228072575
		 0.228542108
		 0.2290111077
		 0.2294795602
		 0.2299474517
		 0.2304147685
		 0.2308815066
		 0.2313476853
		 0.2318133024
		 0.2322783542
		 0.2327428371
		 0.2332067473
		 0.2336700825
		 0.2341328603
		 0.2345950773
		 0.2350567213
		 0.23551778
		 0.2359782412
		 0.2364380926
		 0.2368973365
		 0.2373559876
		 0.2378140425
		 0.2382714972
		 0.2387283482
		 0.2391845916
		 0.2396402264
		 0.2400952656
		 0.2405497048
		 0.241003536
		 0.2414567512
		 0.2419093426
		 0.2423613023
		 0.2428126384
		 0.2432633577
		 0.2437134551
		 0.2441629256
		 0.2446117643
		 0.2450599663
		 0.2455075302
		 0.2459544642
		 0.2464007667
		 0.246846435
		 0.2472914666
		 0.247735859
		 0.2481793762
		 0.2486179393
		 0.2490527379
		 0.2494873139
		 0.2499252094
		 0.2503699663
		 0.2508251266
		 0.251293305
		 0.2517725695
		 0.2522596988
		 0.2527514752
		 0.2532446813
		 0.2537360997
		 0.2542232872
		 0.2547100572
		 0.2551971568
		 0.2556841937
		 0.2561707755
		 0.2566565097
		 0.2571410045
		 0.2576243837
		 0.2581069837
		 0.2585888011
		 0.2590698324
		 0.2595500743
		 0.2600295233
		 0.2605081782
		 0.2609860446
		 0.2614631217
		 0.2619394076
		 0.2624149007
		 0.2628895993
		 0.2633635019
		 0.2638366093
		 0.2643089224
		 0.2647804418
		 0.2652511676
		 0.2657211002
		 0.26619024
		 0.2666585858
		 0.2671261358
		 0.267592892
		 0.2680588564
		 0.268524031
		 0.2689884178
		 0.2694520191
		 0.2699148371
		 0.2703768689
		 0.270838111
		 0.2712985596
		 0.2717582109
		 0.2722170613
		 0.2726751057
		 0.2731323454
		 0.2735887875
		 0.2740444385
		 0.2744993053
		 0.2749533946
		 0.2754067119
		 0.2758592532
		 0.2763110143
		 0.2767619914
		 0.2772121809
		 0.277661579
		 0.2781101819
		 0.2785579865
		 0.2790049958
		 0.2794512151
		 0.2798966494
		 0.2803413036
		 0.280785183
		 0.2812274864
		 0.2816670766
		 0.2821053336
		 0.2825437317
		 0.2829837448
		 0.2834268471
		 0.2838743915
		 0.284325773
		 0.2847800547
		 0.2852365595
		 0.2856946105
		 0.2861535304
		 0.2866126423
		 0.2870727141
		 0.287534742
		 0.2879978606
		 0.2884611991
		 0.2889238869
		 0.2893850532
		 0.2898441146
		 0.2903020457
		 0.2907590369
		 0.2912150933
		 0.2916702199
		 0.2921244219
		 0.2925777043
		 0.2930300575
		 0.2934814782
		 0.293931973
		 0.2943815483
		 0.2948302104
		 0.2952779659
		 0.2957248138
		 0.2961707411
		 0.2966157535
		 0.2970598575
		 0.2975030602
		 0.2979453681
		 0.2983867868
		 0.2988273053
		 0.2992669223
		 0.2997056423
		 0.3001434699
		 0.3005804094
		 0.3010164655
		 0.3014515833
		 0.3018857233
		 0.302318958
		 0.3027513606
		 0.3031830046
		 0.3036139632
		 0.3040442676
		 0.3044737375
		 0.3049024178
		 0.3053303989
		 0.305757771
		 0.3061846245
		 0.306611049
		 0.3070370035
		 0.3074624186
		 0.3078872952
		 0.3083116339
		 0.3087354355
		 0.3091587009
		 0.3095811453
		 0.310002177
		 0.3104223716
		 0.3108423817
		 0.3112628596
		 0.3116844582
		 0.3121078074
		 0.3125328433
		 0.3129590883
		 0.313386137
		 0.3138135841
		 0.3142410245
		 0.3146680527
		 0.3150948092
		 0.3155218856
		 0.3159490276
		 0.3163759668
		 0.3168024348
		 0.3172281633
		 0.3176529453
		 0.3180770615
		 0.3185005932
		 0.3189235439
		 0.3193459171
		 0.3197677163
		 0.3201889449
		 0.3206095986
		 0.3210296739
		 0.3214491743
		 0.3218681031
		 0.3222864637
		 0.3227042594
		 0.3231214934
		 0.3235381655
		 0.323954272
		 0.3243698092
		 0.3247847732
		 0.3251991602
		 0.3256129662
		 0.3260261818
		 0.3264388122
		 0.3268508679
		 0.3272623596
		 0.3276732979
		 0.3280836935
		 0.3284935519
		 0.3289028649
		 0.3293116268
		 0.3297198321
		 0.3301274753
		 0.330534551
		 0.3309410533
		 0.3313469785
		 0.3317523332
		 0.3321571255
		 0.3325613636
		 0.3329650554
		 0.3333682093
		 0.3337705232
		 0.3341719118
		 0.3345727078
		 0.3349732439
		 0.3353738528
		 0.3357748673
		 0.3361765513
		 0.3365787222
		 0.3369811641
		 0.3373836794
		 0.3377860703
		 0.3381881389
		 0.3385896998
		 0.3389910419
		 0.3393922602
		 0.3397932128
		 0.3401937577
		 0.3405937528
		 0.3409930562
		 0.3413916266
		 0.3417896241
		 0.3421870584
		 0.3425839318
		 0.3429802466
		 0.3433760051
		 0.3437712088
		 0.3441658523
		 0.3445599361
		 0.3449534632
		 0.3453464362
		 0.3457388582
		 0.3461307319
		 0.3465220561
		 0.3469128279
		 0.3473030482
		 0.3476927178
		 0.3480818379
		 0.3484704092
		 0.3488584309
		 0.3492458956
		 0.3496328077
		 0.3500191727
		 0.3504049965
		 0.3507902848
		 0.351175043
		 0.3515592686
		 0.3519429575
		 0.3523261093
		 0.3527087233
		 0.3530907992
		 0.3534723363
		 0.3538532765
		 0.3542335274
		 0.3546131939
		 0.3549923901
		 0.3553712302
		 0.3557498281
		 0.3561282777
		 0.3565064013
		 0.3568841785
		 0.357261673
		 0.3576389487
		 0.3580160694
		 0.3583930987
		 0.3587702166
		 0.3591474632
		 0.3595246035
		 0.3599014014
		 0.3602776205
		 0.3606530244
		 0.3610274447
		 0.3614011331
		 0.3617741526
		 0.3621465124
		 0.3625182216
		 0.3628892892
		 0.3632597242
		 0.3636295204
		 0.3639986708
		 0.3643671775
		 0.3647350424
		 0.3651022674
		 0.3654688546
		 0.3658348011
		 0.3662000976
		 0.366564751
		 0.3669287693
		 0.3672921605
		 0.3676549326
		 0.368017093
		 0.3683786367
		 0.3687395591
		 0.3690998589
		 0.3694595346
		 0.3698185848
		 0.3701770079
		 0.3705347973
		 0.3708919493
		 0.3712484732
		 0.3716043786
		 0.371959675
		 0.372314372
		 0.372668465
		 0.3730218831
		 0.3733746597
		 0.3737268489
		 0.3740785046
		 0.3744296809
		 0.3747804315
		 0.3751307229
		 0.37548051
		 0.3758298062
		 0.3761786249
		 0.3765269794
		 0.3768748833
		 0.3772223677
		 0.3775694744
		 0.3779161496
		 0.3782623324
		 0.3786079622
		 0.3789529781
		 0.379297323
		 0.3796410379
		 0.3799841575
		 0.3803266865
		 0.38066863
		 0.3810099927
		 0.3813507797
		 0.3816909884
		 0.3820306102
		 0.3823696499
		 0.3827081126
		 0.3830460034
		 0.3833833274
		 0.3837200878
		 0.3840562739
		 0.384391887
		 0.3847269317
		 0.385061413
		 0.3853953354
		 0.3857287038
		 0.3860615151
		 0.3863937645
		 0.3867254542
		 0.3870565862
		 0.3873871625
		 0.3877171852
		 0.3880466538
		 0.388375561
		 0.3887039107
		 0.3890317074
		 0.3893589559
		 0.3896856611
		 0.39001183
		 0.390337531
		 0.3906627469
		 0.3909874139
		 0.3913114683
		 0.3916348463
		 0.3919574841
		 0.3922793246
		 0.3926003895
		 0.3929207487
		 0.3932404727
		 0.3935596319
		 0.3938782968
		 0.3941965254
		 0.3945142423
		 0.3948314243
		 0.3951480769
		 0.3954642058
		 0.3957798163
		 0.3960949142
		 0.3964094953
		 0.3967235531
		 0.3970370915
		 0.3973501141
		 0.3976626248
		 0.3979746272
		 0.3982861216
		 0.3985970966
		 0.3989075568
		 0.3992175091
		 0.3995269602
		 0.3998359169
		 0.4001443859
		 0.4004523653
		 0.4007598504
		 0.401066839
		 0.4013733292
		 0.401679319
		 0.4019848062
		 0.4022897864
		 0.4025942563
		 0.4028982227
		 0.4032016927
		 0.4035046736
		 0.4038071727
		 0.4041092127
		 0.4044109534
		 0.4047123229
		 0.4050131781
		 0.4053133764
		 0.4056127748
		 0.4059112306
		 0.4062086778
		 0.4065052211
		 0.4068009546
		 0.4070959721
		 0.4073903675
		 0.4076842346
		 0.4079776208
		 0.408270352
		 0.4085624539
		 0.4088539904
		 0.4091450254
		 0.4094356227
		 0.4097258454
		 0.4100156605
		 0.4103050216
		 0.4105939292
		 0.4108823836
		 0.4111703851
		 0.411457934
		 0.4117449965
		 0.4120315096
		 0.4123175387
		 0.412603156
		 0.412888434
		 0.413173445
		 0.413458245
		 0.4137426516
		 0.4140266731
		 0.4143104129
		 0.4145939742
		 0.4148774603
		 0.4151609744
		 0.4154445199
		 0.4157279874
		 0.4160113769
		 0.4162946899
		 0.4165779276
		 0.4168610916
		 0.417144231
		 0.417427581
		 0.4177109958
		 0.4179942633
		 0.4182771714
		 0.418559508
		 0.4188410614
		 0.4191217882
		 0.4194018482
		 0.4196813719
		 0.4199604899
		 0.4202393326
		 0.4205180306
		 0.4207966105
		 0.4210748395
		 0.4213527783
		 0.421630514
		 0.4219081335
		 0.4221857238
		 0.4224633655
		 0.4227409889
		 0.4230185487
		 0.4232960454
		 0.4235734797
		 0.4238508523
		 0.4241281639
		 0.424405413
		 0.4246825974
		 0.4249597195
		 0.4252367816
		 0.425513786
		 0.4257907352
		 0.4260676308
		 0.4263444687
		 0.426621249
		 0.4268979731
		 0.4271746424
		 0.4274512583
		 0.427727822
		 0.4280043331
		 0.4282807905
		 0.4285571942
		 0.4288335442
		 0.4291098406
		 0.4293860834
		 0.429662385
		 0.429939043
		 0.430215804
		 0.4304923648
		 0.4307684223
		 0.4310436734
		 0.4313178176
		 0.4315907726
		 0.431862782
		 0.4321341102
		 0.4324050215
		 0.4326757803
		 0.4329466508
		 0.433217666
		 0.4334884978
		 0.4337591784
		 0.4340297523
		 0.4343002639
		 0.4345707577
		 0.4348412705
		 0.4351117582
		 0.4353822048
		 0.4356526099
		 0.4359229732
		 0.4361932944
		 0.4364635731
		 0.4367338073
		 0.4370039967
		 0.4372741437
		 0.4375442506
		 0.4378143198
		 0.4380843536
		 0.4383543534
		 0.4386243157
		 0.4388942405
		 0.4391641286
		 0.4394339808
		 0.4397037977
		 0.439973582
		 0.4402434089
		 0.4405132663
		 0.4407830861
		 0.4410527997
		 0.4413223389
		 0.4415916353
		 0.4418607921
		 0.4421300629
		 0.4423992379
		 0.4426680889
		 0.4429363876
		 0.4432039057
		 0.4434704093
		 0.4437357635
		 0.4440002126
		 0.4442640576
		 0.4445275996
		 0.4447911395
		 0.4450549783
		 0.4453190877
		 0.4455831707
		 0.4458472274
		 0.4461112589
		 0.446375266
		 0.4466392499
		 0.4469032109
		 0.4471671462
		 0.4474310568
		 0.447694944
		 0.4479588091
		 0.4482226536
		 0.4484864787
		 0.4487502833
		 0.4490140666
		 0.4492778288
		 0.4495415703
		 0.4498052914
		 0.4500689925
		 0.4503326727
		 0.4505963299
		 0.4508599659
		 0.4511235827
		 0.4513871825
		 0.4516507673
		 0.4519143641
		 0.4521782712
		 0.4524423752
		 0.4527064185
		 0.4529701437
		 0.453233293
		 0.453495609
		 0.4537570116
		 0.4540177182
		 0.4542778342
		 0.4545374638
		 0.4547967109
		 0.4550556794
		 0.4553144054
		 0.4555725955
		 0.4558303374
		 0.4560877931
		 0.4563451248
		 0.4566024944
		 0.4568600627
		 0.4571177579
		 0.4573754556
		 0.4576331555
		 0.4578908572
		 0.4581485605
		 0.458406265
		 0.45866397
		 0.4589216751
		 0.4591793811
		 0.4594370892
		 0.4596948002
		 0.4599525154
		 0.4602102353
		 0.4604679559
		 0.4607256779
		 0.4609834038
		 0.4612411364
		 0.4614988785
		 0.4617566328
		 0.4620144478
		 0.4622723612
		 0.4625303035
		 0.4627882043
		 0.4630459927
		 0.463303598
		 0.4635610318
		 0.4638187377
		 0.4640765252
		 0.4643340687
		 0.4645910428
		 0.4648471222
		 0.4651019813
		 0.4653553468
		 0.4656074398
		 0.4658586586
		 0.4661094019
		 0.466360068
		 0.4666110554
		 0.4668625741
		 0.4671141588
		 0.4673657572
		 0.467617371
		 0.4678690018
		 0.4681206513
		 0.4683723212
		 0.4686240089
		 0.4688757139
		 0.4691274371
		 0.4693791795
		 0.4696309422
		 0.4698827263
		 0.470134532
		 0.4703863585
		 0.4706382054
		 0.4708900724
		 0.4711419592
		 0.4713938653
		 0.4716457899
		 0.4718977281
		 0.4721496827
		 0.4724016581
		 0.4726536587
		 0.4729056889
		 0.4731577532
		 0.4734102276
		 0.4736632061
		 0.4739162707
		 0.474169003
		 0.4744209848
		 0.474671798
		 0.4749210985
		 0.4751690791
		 0.4754160404
		 0.4756622671
		 0.4759080439
		 0.4761536554
		 0.4763993711
		 0.4766448539
		 0.476889953
		 0.4771348021
		 0.4773795353
		 0.4776242862
		 0.4778691889
		 0.4781142795
		 0.4783594038
		 0.478604557
		 0.4788497414
		 0.4790949595
		 0.4793402137
		 0.4795855058
		 0.4798308332
		 0.4800761952
		 0.4803215921
		 0.4805670243
