ACESLooks/ACEScct_LUT/T-ARRI_ALF4_Tone.cube
# This file is automagically generated by clfutil 0.2.0 from T-ARRI_ALF4_Tone.clf
LUT_1D_SIZE 4096
LUT_1D_INPUT_RANGE 0.0 1.4679964
  
   0    0    0
   0.0003123222221    0.0003123222221    0.0003123222221
   0.000624644267    0.000624644267    0.000624644267
   0.0009369659656    0.0009369659656    0.0009369659656
   0.001249287149    0.001249287149    0.001249287149
   0.001561607648    0.001561607648    0.001561607648
   0.001873927295    0.001873927295    0.001873927295
   0.002186245818    0.002186245818    0.002186245818
   0.002498562907    0.002498562907    0.002498562907
   0.002810879    0.002810879    0.002810879
   0.003123194601    0.003123194601    0.003123194601
   0.003435510216    0.003435510216    0.003435510216
   0.00374782635    0.00374782635    0.00374782635
   0.00406014349    0.00406014349    0.00406014349
   0.004372461301    0.004372461301    0.004372461301
   0.00468477947    0.00468477947    0.00468477947
   0.004997097999    0.004997097999    0.004997097999
   0.005309416892    0.005309416892    0.005309416892
   0.005621736151    0.005621736151    0.005621736151
   0.005934055778    0.005934055778    0.005934055778
   0.006246375975    0.006246375975    0.006246375975
   0.006558697002    0.006558697002    0.006558697002
   0.00687101853    0.00687101853    0.00687101853
   0.007183340208    0.007183340208    0.007183340208
   0.007495661687    0.007495661687    0.007495661687
   0.007807982616    0.007807982616    0.007807982616
   0.008120302672    0.008120302672    0.008120302672
   0.008432621972    0.008432621972    0.008432621972
   0.008744940747    0.008744940747    0.008744940747
   0.009057259184    0.009057259184    0.009057259184
   0.00936957747    0.00936957747    0.00936957747
   0.009681895791    0.009681895791    0.009681895791
   0.009994214333    0.009994214333    0.009994214333
   0.01030653308    0.01030653308    0.01030653308
   0.01061885184    0.01061885184    0.01061885184
   0.01093117061    0.01093117061    0.01093117061
   0.01124348939    0.01124348939    0.01124348939
   0.01155580818    0.01155580818    0.01155580818
   0.01186812695    0.01186812695    0.01186812695
   0.01218044571    0.01218044571    0.01218044571
   0.01249276448    0.01249276448    0.01249276448
   0.01280508325    0.01280508325    0.01280508325
   0.01311740203    0.01311740203    0.01311740203
   0.0134297208    0.0134297208    0.0134297208
   0.01374203957    0.01374203957    0.01374203957
   0.01405435833    0.01405435833    0.01405435833
   0.0143666771    0.0143666771    0.0143666771
   0.01467899587    0.01467899587    0.01467899587
   0.01499131464    0.01499131464    0.01499131464
   0.01530363341    0.01530363341    0.01530363341
   0.01561595219    0.01561595219    0.01561595219
   0.01592827095    0.01592827095    0.01592827095
   0.01624058963    0.01624058963    0.01624058963
   0.01655290812    0.01655290812    0.01655290812
   0.01686522654    0.01686522654    0.01686522654
   0.01717754505    0.01717754505    0.01717754505
   0.01748986382    0.01748986382    0.01748986382
   0.01780218299    0.01780218299    0.01780218299
   0.01811450273    0.01811450273    0.01811450273
   0.01842682326    0.01842682326    0.01842682326
   0.01873914436    0.01873914436    0.01873914436
   0.01905146575    0.01905146575    0.01905146575
   0.01936378711    0.01936378711    0.01936378711
   0.01967610814    0.01967610814    0.01967610814
   0.01998842856    0.01998842856    0.01998842856
   0.02030074828    0.02030074828    0.02030074828
   0.02061306755    0.02061306755    0.02061306755
   0.02092538649    0.02092538649    0.02092538649
   0.02123770522    0.02123770522    0.02123770522
   0.02155002385    0.02155002385    0.02155002385
   0.02186234249    0.02186234249    0.02186234249
   0.02217466121    0.02217466121    0.02217466121
   0.02248697984    0.02248697984    0.02248697984
   0.02279929837    0.02279929837    0.02279929837
   0.02311161687    0.02311161687    0.02311161687
   0.02342393538    0.02342393538    0.02342393538
   0.02373625396    0.02373625396    0.02373625396
   0.02404857266    0.02404857266    0.02404857266
   0.02436089134    0.02436089134    0.02436089134
   0.02467320996    0.02467320996    0.02467320996
   0.02498552864    0.02498552864    0.02498552864
   0.02529784748    0.02529784748    0.02529784748
   0.02561016661    0.02561016661    0.02561016661
   0.02592248614    0.02592248614    0.02592248614
   0.02623480624    0.02623480624    0.02623480624
   0.02654712705    0.02654712705    0.02654712705
   0.02685944829    0.02685944829    0.02685944829
   0.02717176968    0.02717176968    0.02717176968
   0.02748409093    0.02748409093    0.02748409093
   0.02779641175    0.02779641175    0.02779641175
   0.02810873189    0.02810873189    0.02810873189
   0.02842105165    0.02842105165    0.02842105165
   0.02873337116    0.02873337116    0.02873337116
   0.02904569036    0.02904569036    0.02904569036
   0.02935800919    0.02935800919    0.02935800919
   0.02967032759    0.02967032759    0.02967032759
   0.02998264552    0.02998264552    0.02998264552
   0.03029496258    0.03029496258    0.03029496258
   0.03060727856    0.03060727856    0.03060727856
   0.03091959398    0.03091959398    0.03091959398
   0.03123190938    0.03123190938    0.03123190938
   0.03154422529    0.03154422529    0.03154422529
   0.03185654225    0.03185654225    0.03185654225
   0.03216886076    0.03216886076    0.03216886076
   0.0324811808    0.0324811808    0.0324811808
   0.03279350189    0.03279350189    0.03279350189
   0.03310582354    0.03310582354    0.03310582354
   0.03341814527    0.03341814527    0.03341814527
   0.03373046661    0.03373046661    0.03373046661
   0.03404278706    0.03404278706    0.03404278706
   0.0343551067    0.0343551067    0.0343551067
   0.03466742592    0.03466742592    0.03466742592
   0.03497974483    0.03497974483    0.03497974483
   0.03529206354    0.03529206354    0.03529206354
   0.03560438216    0.03560438216    0.03560438216
   0.03591670082    0.03591670082    0.03591670082
   0.03622901954    0.03622901954    0.03622901954
   0.0365413382    0.0365413382    0.0365413382
   0.03685365678    0.03685365678    0.03685365678
   0.03716597532    0.03716597532    0.03716597532
   0.03747829384    0.03747829384    0.03747829384
   0.03779061238    0.03779061238    0.03779061238
   0.03810293095    0.03810293095    0.03810293095
   0.03841524946    0.03841524946    0.03841524946
   0.03872756793    0.03872756793    0.03872756793
   0.0390398864    0.0390398864    0.0390398864
   0.03935220493    0.03935220493    0.03935220493
   0.03966452357    0.03966452357    0.03966452357
   0.03997684239    0.03997684239    0.03997684239
   0.04028916146    0.04028916146    0.04028916146
   0.04060148078    0.04060148078    0.04060148078
   0.04091380024    0.04091380024    0.04091380024
   0.04122611974    0.04122611974    0.04122611974
   0.04153843918    0.04153843918    0.04153843918
   0.04185075845    0.04185075845    0.04185075845
   0.04216307743    0.04216307743    0.04216307743
   0.04247539607    0.04247539607    0.04247539607
   0.04278771449    0.04278771449    0.04278771449
   0.04310003284    0.04310003284    0.04310003284
   0.04341235125    0.04341235125    0.04341235125
   0.04372466986    0.04372466986    0.04372466986
   0.04403698881    0.04403698881    0.04403698881
   0.04434930815    0.04434930815    0.04434930815
   0.04466162776    0.04466162776    0.04466162776
   0.04497394757    0.04497394757    0.04497394757
   0.04528626748    0.04528626748    0.04528626748
   0.04559858741    0.04559858741    0.04559858741
   0.04591090728    0.04591090728    0.04591090728
   0.04622322708    0.04622322708    0.04622322708
   0.04653554697    0.04653554697    0.04653554697
   0.0468478669    0.0468478669    0.0468478669
   0.0471601868    0.0471601868    0.0471601868
   0.04747250657    0.04747250657    0.04747250657
   0.04778482613    0.04778482613    0.04778482613
   0.0480971454    0.0480971454    0.0480971454
   0.04840946427    0.04840946427    0.04840946427
   0.04872178282    0.04872178282    0.04872178282
   0.04903410121    0.04903410121    0.04903410121
   0.04934641956    0.04934641956    0.04934641956
   0.04965873801    0.04965873801    0.04965873801
   0.04997105672    0.04997105672    0.04997105672
   0.05028337572    0.05028337572    0.05028337572
   0.05059569487    0.05059569487    0.05059569487
   0.05090801414    0.05090801414    0.05090801414
   0.05122033351    0.05122033351    0.05122033351
   0.05153265296    0.05153265296    0.05153265296
   0.05184497247    0.05184497247    0.05184497247
   0.05215729203    0.05215729203    0.05215729203
   0.0524696118    0.0524696118    0.0524696118
   0.05278193171    0.05278193171    0.05278193171
   0.05309425166    0.05309425166    0.05309425166
   0.05340657153    0.05340657153    0.05340657153
   0.05371889121    0.05371889121    0.05371889121
   0.05403121058    0.05403121058    0.05403121058
   0.05434352959    0.05434352959    0.05434352959
   0.05465584831    0.05465584831    0.05465584831
   0.05496816684    0.05496816684    0.05496816684
   0.05528048526    0.05528048526    0.05528048526
   0.05559280365    0.05559280365    0.05559280365
   0.05590512211    0.05590512211    0.05590512211
   0.05621744064    0.05621744064    0.05621744064
   0.05652975899    0.05652975899    0.05652975899
   0.05684207725    0.05684207725    0.05684207725
   0.05715439558    0.05715439558    0.05715439558
   0.05746671411    0.05746671411    0.05746671411
   0.05777903298    0.05777903298    0.05777903298
   0.05809135234    0.05809135234    0.05809135234
   0.05840367239    0.05840367239    0.05840367239
   0.05871599301    0.05871599301    0.05871599301
   0.05902831392    0.05902831392    0.05902831392
   0.05934063484    0.05934063484    0.05934063484
   0.0596529555    0.0596529555    0.0596529555
   0.05996527562    0.05996527562    0.05996527562
   0.06027759504    0.06027759504    0.06027759504
   0.06058991395    0.06058991395    0.06058991395
   0.06090223251    0.06090223251    0.06090223251
   0.06121455085    0.06121455085    0.06121455085
   0.06152686912    0.06152686912    0.06152686912
   0.06183918745    0.06183918745    0.06183918745
   0.06215150597    0.06215150597    0.06215150597
   0.06246382444    0.06246382444    0.06246382444
   0.06277614283    0.06277614283    0.06277614283
   0.06308846125    0.06308846125    0.06308846125
   0.06340077976    0.06340077976    0.06340077976
   0.06371309846    0.06371309846    0.06371309846
   0.06402541744    0.06402541744    0.06402541744
   0.06433773675    0.06433773675    0.06433773675
   0.06465005635    0.06465005635    0.06465005635
   0.06496237614    0.06496237614    0.06496237614
   0.06527469604    0.06527469604    0.06527469604
   0.06558701597    0.06558701597    0.06558701597
   0.06589933586    0.06589933586    0.06589933586
   0.06621165568    0.06621165568    0.06621165568
   0.06652397575    0.06652397575    0.06652397575
   0.06683629594    0.06683629594    0.06683629594
   0.06714861605    0.06714861605    0.06714861605
   0.06746093589    0.06746093589    0.06746093589
   0.06777325525    0.06777325525    0.06777325525
   0.06808557394    0.06808557394    0.06808557394
   0.06839789162    0.06839789162    0.06839789162
   0.06871020846    0.06871020846    0.06871020846
   0.06902252486    0.06902252486    0.06902252486
   0.06933484122    0.06933484122    0.06933484122
   0.06964715795    0.06964715795    0.06964715795
   0.06995947545    0.06995947545    0.06995947545
   0.07027179397    0.07027179397    0.07027179397
   0.07058411323    0.07058411323    0.07058411323
   0.07089643299    0.07089643299    0.07089643299
   0.07120875307    0.07120875307    0.07120875307
   0.07152107326    0.07152107326    0.07152107326
   0.07183339337    0.07183339337    0.07183339337
   0.07214571322    0.07214571322    0.07214571322
   0.07245803308    0.07245803308    0.07245803308
   0.07277035301    0.07277035301    0.07277035301
   0.07308267293    0.07308267293    0.07308267293
   0.07339499275    0.07339499275    0.07339499275
   0.07370731238    0.07370731238    0.07370731238
   0.07401963175    0.07401963175    0.07401963175
   0.07433195075    0.07433195075    0.07433195075
   0.07464426939    0.07464426939    0.07464426939
   0.07495658781    0.07495658781    0.07495658781
   0.07526890615    0.07526890615    0.07526890615
   0.07558122456    0.07558122456    0.07558122456
   0.07589354318    0.07589354318    0.07589354318
   0.07620586212    0.07620586212    0.07620586212
   0.07651818131    0.07651818131    0.07651818131
   0.07683050067    0.07683050067    0.07683050067
   0.07714282012    0.07714282012    0.07714282012
   0.07745513957    0.07745513957    0.07745513957
   0.07776745896    0.07776745896    0.07776745896
   0.07807977821    0.07807977821    0.07807977821
   0.0783920973    0.0783920973    0.0783920973
   0.07870441629    0.07870441629    0.07870441629
   0.07901673522    0.07901673522    0.07901673522
   0.07932905414    0.07932905414    0.07932905414
   0.07964137311    0.07964137311    0.07964137311
   0.07995369217    0.07995369217    0.07995369217
   0.08026601135    0.08026601135    0.08026601135
   0.08057833062    0.08057833062    0.08057833062
   0.08089064995    0.08089064995    0.08089064995
   0.08120296932    0.08120296932    0.08120296932
   0.0815152887    0.0815152887    0.0815152887
   0.08182760806    0.08182760806    0.08182760806
   0.08213992739    0.08213992739    0.08213992739
   0.08245224674    0.08245224674    0.08245224674
   0.08276456612    0.08276456612    0.08276456612
   0.08307688549    0.08307688549    0.08307688549
   0.08338920485    0.08338920485    0.08338920485
   0.08370152415    0.08370152415    0.08370152415
   0.08401384338    0.08401384338    0.08401384338
   0.0843261625    0.0843261625    0.0843261625
   0.08463848151    0.08463848151    0.08463848151
   0.08495080045    0.08495080045    0.08495080045
   0.08526311937    0.08526311937    0.08526311937
   0.08557543832    0.08557543832    0.08557543832
   0.08588775735    0.08588775735    0.08588775735
   0.08620007651    0.08620007651    0.08620007651
   0.0865123958    0.0865123958    0.0865123958
   0.08682471516    0.08682471516    0.08682471516
   0.08713703457    0.08713703457    0.08713703457
   0.08744935396    0.08744935396    0.08744935396
   0.08776167329    0.08776167329    0.08776167329
   0.08807399253    0.08807399253    0.08807399253
   0.08838631162    0.08838631162    0.08838631162
   0.08869863061    0.08869863061    0.08869863061
   0.08901094954    0.08901094954    0.08901094954
   0.08932326847    0.08932326847    0.08932326847
   0.08963558743    0.08963558743    0.08963558743
   0.08994790648    0.08994790648    0.08994790648
   0.09026022569    0.09026022569    0.09026022569
   0.09057254511    0.09057254511    0.09057254511
   0.09088486463    0.09088486463    0.09088486463
   0.09119718414    0.09119718414    0.09119718414
   0.09150950354    0.09150950354    0.09150950354
   0.09182182272    0.09182182272    0.09182182272
   0.09213414156    0.09213414156    0.09213414156
   0.09244645989    0.09244645989    0.09244645989
   0.09275877782    0.09275877782    0.09275877782
   0.0930710956    0.0930710956    0.0930710956
   0.09338341344    0.09338341344    0.09338341344
   0.09369573159    0.09369573159    0.09369573159
   0.09400805026    0.09400805026    0.09400805026
   0.09432036969    0.09432036969    0.09432036969
   0.09463268981    0.09463268981    0.09463268981
   0.09494501035    0.09494501035    0.09494501035
   0.095257331    0.095257331    0.095257331
   0.09556965147    0.09556965147    0.09556965147
   0.09588197148    0.09588197148    0.09588197148
   0.09619429076    0.09619429076    0.09619429076
   0.09650660934    0.09650660934    0.09650660934
   0.09681892745    0.09681892745    0.09681892745
   0.09713124531    0.09713124531    0.09713124531
   0.09744356311    0.09744356311    0.09744356311
   0.09775588107    0.09775588107    0.09775588107
   0.0980681994    0.0980681994    0.0980681994
   0.09838051808    0.09838051808    0.09838051808
   0.09869283693    0.09869283693    0.09869283693
   0.09900515592    0.09900515592    0.09900515592
   0.09931747501    0.09931747501    0.09931747501
   0.09962979416    0.09962979416    0.09962979416
   0.09994211334    0.09994211334    0.09994211334
   0.1002544325    0.1002544325    0.1002544325
   0.1005667518    0.1005667518    0.1005667518
   0.1008790711    0.1008790711    0.1008790711
   0.1011913905    0.1011913905    0.1011913905
   0.1015037099    0.1015037099    0.1015037099
   0.1018160292    0.1018160292    0.1018160292
   0.1021283486    0.1021283486    0.1021283486
   0.1024406679    0.1024406679    0.1024406679
   0.1027529873    0.1027529873    0.1027529873
   0.1030653067    0.1030653067    0.1030653067
   0.103377626    0.103377626    0.103377626
   0.1036899453    0.1036899453    0.1036899453
   0.1040022646    0.1040022646    0.1040022646
   0.1043145837    0.1043145837    0.1043145837
   0.1046269027    0.1046269027    0.1046269027
   0.1049392216    0.1049392216    0.1049392216
   0.1052515406    0.1052515406    0.1052515406
   0.1055638595    0.1055638595    0.1055638595
   0.1058761785    0.1058761785    0.1058761785
   0.1061884977    0.1061884977    0.1061884977
   0.1065008168    0.1065008168    0.1065008168
   0.1068131359    0.1068131359    0.1068131359
   0.1071254551    0.1071254551    0.1071254551
   0.1074377744    0.1074377744    0.1074377744
   0.1077500939    0.1077500939    0.1077500939
   0.1080624137    0.1080624137    0.1080624137
   0.1083747339    0.1083747339    0.1083747339
   0.1086870546    0.1086870546    0.1086870546
   0.1089993756    0.1089993756    0.1089993756
   0.1093116965    0.1093116965    0.1093116965
   0.1096240171    0.1096240171    0.1096240171
   0.1099363371    0.1099363371    0.1099363371
   0.1102486562    0.1102486562    0.1102486562
   0.1105609744    0.1105609744    0.1105609744
   0.1108732921    0.1108732921    0.1108732921
   0.1111856094    0.1111856094    0.1111856094
   0.1114979268    0.1114979268    0.1114979268
   0.1118102445    0.1118102445    0.1118102445
   0.1121225628    0.1121225628    0.1121225628
   0.1124348817    0.1124348817    0.1124348817
   0.1127472009    0.1127472009    0.1127472009
   0.1130595204    0.1130595204    0.1130595204
   0.1133718399    0.1133718399    0.1133718399
   0.1136841595    0.1136841595    0.1136841595
   0.1139964789    0.1139964789    0.1139964789
   0.114308798    0.114308798    0.114308798
   0.1146211172    0.1146211172    0.1146211172
   0.1149334364    0.1149334364    0.1149334364
   0.1152457554    0.1152457554    0.1152457554
   0.1155580744    0.1155580744    0.1155580744
   0.1158703932    0.1158703932    0.1158703932
   0.1161827118    0.1161827118    0.1161827118
   0.1164950298    0.1164950298    0.1164950298
   0.1168073475    0.1168073475    0.1168073475
   0.1171196651    0.1171196651    0.1171196651
   0.1174319829    0.1174319829    0.1174319829
   0.1177443013    0.1177443013    0.1177443013
   0.1180566205    0.1180566205    0.1180566205
   0.118368941    0.118368941    0.118368941
   0.1186812627    0.1186812627    0.1186812627
   0.1189935851    0.1189935851    0.1189935851
   0.1193059076    0.1193059076    0.1193059076
   0.1196182298    0.1196182298    0.1196182298
   0.119930551    0.119930551    0.119930551
   0.1202428708    0.1202428708    0.1202428708
   0.1205551893    0.1205551893    0.1205551893
   0.120867507    0.120867507    0.120867507
   0.1211798243    0.1211798243    0.1211798243
   0.1214921414    0.1214921414    0.1214921414
   0.1218044589    0.1218044589    0.1218044589
   0.1221167771    0.1221167771    0.1221167771
   0.1224290961    0.1224290961    0.1224290961
   0.1227414155    0.1227414155    0.1227414155
   0.1230537351    0.1230537351    0.1230537351
   0.1233660548    0.1233660548    0.1233660548
   0.1236783743    0.1236783743    0.1236783743
   0.1239906933    0.1239906933    0.1239906933
   0.1243030118    0.1243030118    0.1243030118
   0.1246153297    0.1246153297    0.1246153297
   0.1249276473    0.1249276473    0.1249276473
   0.1252399648    0.1252399648    0.1252399648
   0.1255522824    0.1255522824    0.1255522824
   0.1258646003    0.1258646003    0.1258646003
   0.1261769187    0.1261769187    0.1261769187
   0.1264892374    0.1264892374    0.1264892374
   0.1268015563    0.1268015563    0.1268015563
   0.1271138754    0.1271138754    0.1271138754
   0.1274261948    0.1274261948    0.1274261948
   0.1277385145    0.1277385145    0.1277385145
   0.1280508347    0.1280508347    0.1280508347
   0.1283631557    0.1283631557    0.1283631557
   0.1286754779    0.1286754779    0.1286754779
   0.1289878006    0.1289878006    0.1289878006
   0.1293001233    0.1293001233    0.1293001233
   0.1296124452    0.1296124452    0.1296124452
   0.1299247658    0.1299247658    0.1299247658
   0.1302370844    0.1302370844    0.1302370844
   0.1305494007    0.1305494007    0.1305494007
   0.1308617155    0.1308617155    0.1308617155
   0.1311740295    0.1311740295    0.1311740295
   0.1314863438    0.1314863438    0.1314863438
   0.1317986591    0.1317986591    0.1317986591
   0.1321109766    0.1321109766    0.1321109766
   0.1324232964    0.1324232964    0.1324232964
   0.1327356179    0.1327356179    0.1327356179
   0.1330479405    0.1330479405    0.1330479405
   0.1333602634    0.1333602634    0.1333602634
   0.1336725858    0.1336725858    0.1336725858
   0.1339849072    0.1339849072    0.1339849072
   0.1342972268    0.1342972268    0.1342972268
   0.1346095452    0.1346095452    0.1346095452
   0.1349218628    0.1349218628    0.1349218628
   0.13523418    0.13523418    0.13523418
   0.1355464972    0.1355464972    0.1355464972
   0.1358588147    0.1358588147    0.1358588147
   0.136171133    0.136171133    0.136171133
   0.1364834519    0.1364834519    0.1364834519
   0.1367957712    0.1367957712    0.1367957712
   0.1371080906    0.1371080906    0.1371080906
   0.1374204102    0.1374204102    0.1374204102
   0.1377327297    0.1377327297    0.1377327297
   0.1380450492    0.1380450492    0.1380450492
   0.1383573686    0.1383573686    0.1383573686
   0.1386696881    0.1386696881    0.1386696881
   0.1389820076    0.1389820076    0.1389820076
   0.1392943271    0.1392943271    0.1392943271
   0.1396066465    0.1396066465    0.1396066465
   0.1399189655    0.1399189655    0.1399189655
   0.1402312841    0.1402312841    0.1402312841
   0.1405436021    0.1405436021    0.1405436021
   0.1408559198    0.1408559198    0.1408559198
   0.1411682373    0.1411682373    0.1411682373
   0.1414805548    0.1414805548    0.1414805548
   0.1417928726    0.1417928726    0.1417928726
   0.1421051909    0.1421051909    0.1421051909
   0.1424175096    0.1424175096    0.1424175096
   0.1427298287    0.1427298287    0.1427298287
   0.1430421479    0.1430421479    0.1430421479
   0.1433544674    0.1433544674    0.1433544674
   0.143666787    0.143666787    0.143666787
   0.1439791067    0.1439791067    0.1439791067
   0.1442914265    0.1442914265    0.1442914265
   0.1446037466    0.1446037466    0.1446037466
   0.1449160669    0.1449160669    0.1449160669
   0.1452283872    0.1452283872    0.1452283872
   0.1455407076    0.1455407076    0.1455407076
   0.1458530277    0.1458530277    0.1458530277
   0.1461653476    0.1461653476    0.1461653476
   0.1464776672    0.1464776672    0.1464776672
   0.1467899866    0.1467899866    0.1467899866
   0.1471023058    0.1471023058    0.1471023058
   0.147414625    0.147414625    0.147414625
   0.1477269442    0.1477269442    0.1477269442
   0.1480392635    0.1480392635    0.1480392635
   0.1483515829    0.1483515829    0.1483515829
   0.1486639024    0.1486639024    0.1486639024
   0.1489762219    0.1489762219    0.1489762219
