ACESLooks/ACEScct_LUT/T-ARRI_Tone.cube
# This file is automagically generated by clfutil 0.1.0 from T-ARRI_Tone.clf
LUT_1D_SIZE 4096
LUT_1D_INPUT_RANGE 0.0 1.4679964
  
   0    0    0
   0.0003123733485    0.0003123733485    0.0003123733485
   0.0006247465335    0.0006247465335    0.0006247465335
   0.000937119384    0.000937119384    0.000937119384
   0.001249491729    0.001249491729    0.001249491729
   0.001561863397    0.001561863397    0.001561863397
   0.001874234217    0.001874234217    0.001874234217
   0.002186603858    0.002186603858    0.002186603858
   0.002498971825    0.002498971825    0.002498971825
   0.002811338694    0.002811338694    0.002811338694
   0.003123705144    0.003123705144    0.003123705144
   0.003436071852    0.003436071852    0.003436071852
   0.003748439495    0.003748439495    0.003748439495
   0.004060808738    0.004060808738    0.004060808738
   0.004373179509    0.004373179509    0.004373179509
   0.004685551324    0.004685551324    0.004685551324
   0.004997923848    0.004997923848    0.004997923848
   0.005310296748    0.005310296748    0.005310296748
   0.005622669688    0.005622669688    0.005622669688
   0.005935042334    0.005935042334    0.005935042334
   0.006247414691    0.006247414691    0.006247414691
   0.006559787266    0.006559787266    0.006559787266
   0.006872159909    0.006872159909    0.006872159909
   0.007184532442    0.007184532442    0.007184532442
   0.007496904688    0.007496904688    0.007496904688
   0.007809276468    0.007809276468    0.007809276468
   0.008121647606    0.008121647606    0.008121647606
   0.008434018058    0.008434018058    0.008434018058
   0.008746387991    0.008746387991    0.008746387991
   0.009058757587    0.009058757587    0.009058757587
   0.009371127031    0.009371127031    0.009371127031
   0.009683496507    0.009683496507    0.009683496507
   0.0099958662    0.0099958662    0.0099958662
   0.01030823595    0.01030823595    0.01030823595
   0.01062060553    0.01062060553    0.01062060553
   0.01093297509    0.01093297509    0.01093297509
   0.0112453448    0.0112453448    0.0112453448
   0.01155771481    0.01155771481    0.01155771481
   0.0118700853    0.0118700853    0.0118700853
   0.01218245646    0.01218245646    0.01218245646
   0.01249482848    0.01249482848    0.01249482848
   0.01280720108    0.01280720108    0.01280720108
   0.0131195739    0.0131195739    0.0131195739
   0.0134319466    0.0134319466    0.0134319466
   0.01374431884    0.01374431884    0.01374431884
   0.01405669027    0.01405669027    0.01405669027
   0.01436906093    0.01436906093    0.01436906093
   0.01468143105    0.01468143105    0.01468143105
   0.01499380082    0.01499380082    0.01499380082
   0.0153061704    0.0153061704    0.0153061704
   0.01561853996    0.01561853996    0.01561853996
   0.01593090968    0.01593090968    0.01593090968
   0.01624327952    0.01624327952    0.01624327952
   0.01655564917    0.01655564917    0.01655564917
   0.01686801874    0.01686801874    0.01686801874
   0.01718038841    0.01718038841    0.01718038841
   0.01749275832    0.01749275832    0.01749275832
   0.01780512864    0.01780512864    0.01780512864
   0.01811749953    0.01811749953    0.01811749953
   0.01842987121    0.01842987121    0.01842987121
   0.01874224347    0.01874224347    0.01874224347
   0.01905461602    0.01905461602    0.01905461602
   0.01936698853    0.01936698853    0.01936698853
   0.01967936073    0.01967936073    0.01967936073
   0.0199917323    0.0199917323    0.0199917323
   0.02030410303    0.02030410303    0.02030410303
   0.02061647312    0.02061647312    0.02061647312
   0.02092884285    0.02092884285    0.02092884285
   0.0212412125    0.0212412125    0.0212412125
   0.02155358234    0.02155358234    0.02155358234
   0.02186595267    0.02186595267    0.02186595267
   0.02217832376    0.02217832376    0.02217832376
   0.0224906956    0.0224906956    0.0224906956
   0.02280306794    0.02280306794    0.02280306794
   0.02311544049    0.02311544049    0.02311544049
   0.02342781294    0.02342781294    0.02342781294
   0.02374018502    0.02374018502    0.02374018502
   0.02405255643    0.02405255643    0.02405255643
   0.0243649272    0.0243649272    0.0243649272
   0.02467729755    0.02467729755    0.02467729755
   0.0249896676    0.0249896676    0.0249896676
   0.02530203745    0.02530203745    0.02530203745
   0.02561440724    0.02561440724    0.02561440724
   0.02592677706    0.02592677706    0.02592677706
   0.02623914687    0.02623914687    0.02623914687
   0.02655151634    0.02655151634    0.02655151634
   0.02686388564    0.02686388564    0.02686388564
   0.027176255    0.027176255    0.027176255
   0.02748862465    0.02748862465    0.02748862465
   0.0278009948    0.0278009948    0.0278009948
   0.02811336571    0.02811336571    0.02811336571
   0.02842573764    0.02842573764    0.02842573764
   0.02873811034    0.02873811034    0.02873811034
   0.0290504834    0.0290504834    0.0290504834
   0.02936285644    0.02936285644    0.02936285644
   0.02967522904    0.02967522904    0.02967522904
   0.02998760082    0.02998760082    0.02998760082
   0.03029997161    0.03029997161    0.03029997161
   0.03061234173    0.03061234173    0.03061234173
   0.03092471139    0.03092471139    0.03092471139
   0.03123708077    0.03123708077    0.03123708077
   0.03154945007    0.03154945007    0.03154945007
   0.03186181949    0.03186181949    0.03186181949
   0.03217418913    0.03217418913    0.03217418913
   0.03248655856    0.03248655856    0.03248655856
   0.03279892787    0.03279892787    0.03279892787
   0.03311129724    0.03311129724    0.03311129724
   0.03342366687    0.03342366687    0.03342366687
   0.03373603695    0.03373603695    0.03373603695
   0.03404840768    0.03404840768    0.03404840768
   0.03436077939    0.03436077939    0.03436077939
   0.03467315195    0.03467315195    0.03467315195
   0.03498552496    0.03498552496    0.03498552496
   0.03529789804    0.03529789804    0.03529789804
   0.03561027077    0.03561027077    0.03561027077
   0.03592264277    0.03592264277    0.03592264277
   0.03623501376    0.03623501376    0.03623501376
   0.03654738401    0.03654738401    0.03654738401
   0.03685975376    0.03685975376    0.03685975376
   0.03717212318    0.03717212318    0.03717212318
   0.03748449249    0.03748449249    0.03748449249
   0.03779686186    0.03779686186    0.03779686186
   0.03810923148    0.03810923148    0.03810923148
   0.03842160104    0.03842160104    0.03842160104
   0.03873397048    0.03873397048    0.03873397048
   0.03904633993    0.03904633993    0.03904633993
   0.03935870954    0.03935870954    0.03935870954
   0.03967107944    0.03967107944    0.03967107944
   0.03998344977    0.03998344977    0.03998344977
   0.04029582074    0.04029582074    0.04029582074
   0.04060819236    0.04060819236    0.04060819236
   0.04092056436    0.04092056436    0.04092056436
   0.04123293647    0.04123293647    0.04123293647
   0.0415453084    0.0415453084    0.0415453084
   0.04185767988    0.04185767988    0.04185767988
   0.04217005063    0.04217005063    0.04217005063
   0.04248242059    0.04248242059    0.04248242059
   0.04279479002    0.04279479002    0.04279479002
   0.04310715925    0.04310715925    0.04310715925
   0.04341952857    0.04341952857    0.04341952857
   0.04373189831    0.04373189831    0.04373189831
   0.04404426876    0.04404426876    0.04404426876
   0.04435664008    0.04435664008    0.04435664008
   0.04466901205    0.04466901205    0.04466901205
   0.04498138442    0.04498138442    0.04498138442
   0.04529375693    0.04529375693    0.04529375693
   0.04560612932    0.04560612932    0.04560612932
   0.04591850133    0.04591850133    0.04591850133
   0.04623087284    0.04623087284    0.04623087284
   0.04654324412    0.04654324412    0.04654324412
   0.04685561522    0.04685561522    0.04685561522
   0.04716798614    0.04716798614    0.04716798614
   0.04748035688    0.04748035688    0.04748035688
   0.04779272743    0.04779272743    0.04779272743
   0.0481050978    0.0481050978    0.0481050978
   0.04841746772    0.04841746772    0.04841746772
   0.04872983725    0.04872983725    0.04872983725
   0.04904220661    0.04904220661    0.04904220661
   0.04935457603    0.04935457603    0.04935457603
   0.04966694574    0.04966694574    0.04966694574
   0.04997931594    0.04997931594    0.04997931594
   0.05029168683    0.05029168683    0.05029168683
   0.05060405827    0.05060405827    0.05060405827
   0.05091643007    0.05091643007    0.05091643007
   0.05122880204    0.05122880204    0.05122880204
   0.05154117399    0.05154117399    0.05154117399
   0.05185354573    0.05185354573    0.05185354573
   0.0521659171    0.0521659171    0.0521659171
   0.05247828831    0.05247828831    0.05247828831
   0.05279065944    0.05279065944    0.05279065944
   0.05310303044    0.05310303044    0.05310303044
   0.05341540128    0.05341540128    0.05341540128
   0.05372777194    0.05372777194    0.05372777194
   0.05404014238    0.05404014238    0.05404014238
   0.05435251254    0.05435251254    0.05435251254
   0.05466488242    0.05466488242    0.05466488242
   0.05497725211    0.05497725211    0.05497725211
   0.05528962169    0.05528962169    0.05528962169
   0.05560199124    0.05560199124    0.05560199124
   0.05591436085    0.05591436085    0.05591436085
   0.0562267305    0.0562267305    0.0562267305
   0.05653909986    0.05653909986    0.05653909986
   0.0568514691    0.0568514691    0.0568514691
   0.05716383843    0.05716383843    0.05716383843
   0.05747620808    0.05747620808    0.05747620808
   0.05778857828    0.05778857828    0.05778857828
   0.05810094926    0.05810094926    0.05810094926
   0.05841332136    0.05841332136    0.05841332136
   0.05872569438    0.05872569438    0.05872569438
   0.05903806786    0.05903806786    0.05903806786
   0.05935044137    0.05935044137    0.05935044137
   0.05966281445    0.05966281445    0.05966281445
   0.05997518667    0.05997518667    0.05997518667
   0.06028755774    0.06028755774    0.06028755774
   0.060599928    0.060599928    0.060599928
   0.0609122977    0.0609122977    0.0609122977
   0.06122466705    0.06122466705    0.06122466705
   0.06153703629    0.06153703629    0.06153703629
   0.06184940563    0.06184940563    0.06184940563
   0.06216177525    0.06216177525    0.06216177525
   0.06247414475    0.06247414475    0.06247414475
   0.06278651412    0.06278651412    0.06278651412
   0.06309888352    0.06309888352    0.06309888352
   0.06341125312    0.06341125312    0.06341125312
   0.0637236231    0.0637236231    0.0637236231
   0.06403599362    0.06403599362    0.06403599362
   0.06434836488    0.06434836488    0.06434836488
   0.06466073681    0.06466073681    0.06466073681
   0.06497310915    0.06497310915    0.06497310915
   0.06528548165    0.06528548165    0.06528548165
   0.06559785406    0.06559785406    0.06559785406
   0.06591022612    0.06591022612    0.06591022612
   0.06622259767    0.06622259767    0.06622259767
   0.06653496901    0.06653496901    0.06653496901
   0.0668473402    0.0668473402    0.0668473402
   0.06715971119    0.06715971119    0.06715971119
   0.06747208195    0.06747208195    0.06747208195
   0.06778445247    0.06778445247    0.06778445247
   0.06809682269    0.06809682269    0.06809682269
   0.06840919231    0.06840919231    0.06840919231
   0.06872156136    0.06872156136    0.06872156136
   0.06903393015    0.06903393015    0.06903393015
   0.06934629901    0.06934629901    0.06934629901
   0.06965866824    0.06965866824    0.06965866824
   0.06997103817    0.06997103817    0.06997103817
   0.07028340906    0.07028340906    0.07028340906
   0.07059578078    0.07059578078    0.07059578078
   0.07090815306    0.07090815306    0.07090815306
   0.0712205256    0.0712205256    0.0712205256
   0.07153289812    0.07153289812    0.07153289812
   0.07184527033    0.07184527033    0.07184527033
   0.07215764198    0.07215764198    0.07215764198
   0.07247001332    0.07247001332    0.07247001332
   0.07278238448    0.07278238448    0.07278238448
   0.07309475546    0.07309475546    0.07309475546
   0.07340712625    0.07340712625    0.07340712625
   0.07371949686    0.07371949686    0.07371949686
   0.07403186729    0.07403186729    0.07403186729
   0.07434423738    0.07434423738    0.07434423738
   0.07465660701    0.07465660701    0.07465660701
   0.0749689764    0.0749689764    0.0749689764
   0.07528134578    0.07528134578    0.07528134578
   0.07559371537    0.07559371537    0.07559371537
   0.07590608539    0.07590608539    0.07590608539
   0.07621845608    0.07621845608    0.07621845608
   0.07653082745    0.07653082745    0.07653082745
   0.07684319929    0.07684319929    0.07684319929
   0.07715557133    0.07715557133    0.07715557133
   0.07746794334    0.07746794334    0.07746794334
   0.07778031507    0.07778031507    0.07778031507
   0.07809268626    0.07809268626    0.07809268626
   0.07840505689    0.07840505689    0.07840505689
   0.07871742716    0.07871742716    0.07871742716
   0.07902979718    0.07902979718    0.07902979718
   0.07934216709    0.07934216709    0.07934216709
   0.07965453703    0.07965453703    0.07965453703
   0.07996690712    0.07996690712    0.07996690712
   0.0802792774    0.0802792774    0.0802792774
   0.08059164767    0.08059164767    0.08059164767
   0.08090401796    0.08090401796    0.08090401796
   0.08121638833    0.08121638833    0.08121638833
   0.08152875885    0.08152875885    0.08152875885
   0.08184112958    0.08184112958    0.08184112958
   0.08215350059    0.08215350059    0.08215350059
   0.08246587204    0.08246587204    0.08246587204
   0.08277824385    0.08277824385    0.08277824385
   0.08309061581    0.08309061581    0.08309061581
   0.08340298773    0.08340298773    0.08340298773
   0.08371535942    0.08371535942    0.08371535942
   0.08402773069    0.08402773069    0.08402773069
   0.08434010143    0.08434010143    0.08434010143
   0.08465247176    0.08465247176    0.08465247176
   0.08496484183    0.08496484183    0.08496484183
   0.08527721176    0.08527721176    0.08527721176
   0.08558958168    0.08558958168    0.08558958168
   0.08590195172    0.08590195172    0.08590195172
   0.08621432199    0.08621432199    0.08621432199
   0.0865266923    0.0865266923    0.0865266923
   0.08683906263    0.08683906263    0.08683906263
   0.08715143303    0.08715143303    0.08715143303
   0.08746380353    0.08746380353    0.08746380353
   0.08777617416    0.08777617416    0.08777617416
   0.08808854497    0.08808854497    0.08808854497
   0.08840091605    0.08840091605    0.08840091605
   0.08871328741    0.08871328741    0.08871328741
   0.0890256589    0.0890256589    0.0890256589
   0.08933803042    0.08933803042    0.08933803042
   0.08965040184    0.08965040184    0.08965040184
   0.08996277303    0.08996277303    0.08996277303
   0.09027514391    0.09027514391    0.09027514391
   0.09058751456    0.09058751456    0.09058751456
   0.09089988504    0.09089988504    0.09089988504
   0.09121225543    0.09121225543    0.09121225543
   0.09152462577    0.09152462577    0.09152462577
   0.09183699614    0.09183699614    0.09183699614
   0.09214936659    0.09214936659    0.09214936659
   0.09246173701    0.09246173701    0.09246173701
   0.09277410736    0.09277410736    0.09277410736
   0.09308647772    0.09308647772    0.09308647772
   0.09339884813    0.09339884813    0.09339884813
   0.09371121868    0.09371121868    0.09371121868
   0.09402358941    0.09402358941    0.09402358941
   0.09433596042    0.09433596042    0.09433596042
   0.09464833173    0.09464833173    0.09464833173
   0.0949607032    0.0949607032    0.0949607032
   0.09527307473    0.09527307473    0.09527307473
   0.09558544618    0.09558544618    0.09558544618
   0.09589781743    0.09589781743    0.09589781743
   0.09621018838    0.09621018838    0.09621018838
   0.09652255911    0.09652255911    0.09652255911
   0.09683492968    0.09683492968    0.09683492968
   0.09714730014    0.09714730014    0.09714730014
   0.0974596705    0.0974596705    0.0974596705
   0.09777204082    0.09777204082    0.09777204082
   0.09808441113    0.09808441113    0.09808441113
   0.09839678131    0.09839678131    0.09839678131
   0.09870915129    0.09870915129    0.09870915129
   0.09902152119    0.09902152119    0.09902152119
   0.09933389116    0.09933389116    0.09933389116
   0.09964626132    0.09964626132    0.09964626132
   0.09995863181    0.09995863181    0.09995863181
   0.1002710028    0.1002710028    0.1002710028
   0.1005833744    0.1005833744    0.1005833744
   0.1008957464    0.1008957464    0.1008957464
   0.1012081185    0.1012081185    0.1012081185
   0.1015204905    0.1015204905    0.1015204905
   0.101832862    0.101832862    0.101832862
   0.1021452328    0.1021452328    0.1021452328
   0.1024576026    0.1024576026    0.1024576026
   0.1027699718    0.1027699718    0.1027699718
   0.1030823407    0.1030823407    0.1030823407
   0.1033947095    0.1033947095    0.1033947095
   0.1037070786    0.1037070786    0.1037070786
   0.1040194483    0.1040194483    0.1040194483
   0.1043318188    0.1043318188    0.1043318188
   0.1046441899    0.1046441899    0.1046441899
   0.1049565614    0.1049565614    0.1049565614
   0.105268933    0.105268933    0.105268933
   0.1055813047    0.1055813047    0.1055813047
   0.1058936761    0.1058936761    0.1058936761
   0.1062060471    0.1062060471    0.1062060471
   0.1065184175    0.1065184175    0.1065184175
   0.1068307877    0.1068307877    0.1068307877
   0.1071431577    0.1071431577    0.1071431577
   0.107455528    0.107455528    0.107455528
   0.1077678986    0.1077678986    0.1077678986
   0.1080802698    0.1080802698    0.1080802698
   0.108392642    0.108392642    0.108392642
   0.108705015    0.108705015    0.108705015
   0.1090173885    0.1090173885    0.1090173885
   0.1093297621    0.1093297621    0.1093297621
   0.1096421351    0.1096421351    0.1096421351
   0.1099545073    0.1099545073    0.1099545073
   0.1102668782    0.1102668782    0.1102668782
   0.1105792478    0.1105792478    0.1105792478
   0.1108916166    0.1108916166    0.1108916166
   0.111203985    0.111203985    0.111203985
   0.1115163534    0.1115163534    0.1115163534
   0.111828722    0.111828722    0.111828722
   0.1121410914    0.1121410914    0.1121410914
   0.1124534613    0.1124534613    0.1124534613
   0.1127658316    0.1127658316    0.1127658316
   0.113078202    0.113078202    0.113078202
   0.1133905726    0.1133905726    0.1133905726
   0.1137029434    0.1137029434    0.1137029434
   0.1140153143    0.1140153143    0.1140153143
   0.1143276853    0.1143276853    0.1143276853
   0.1146400565    0.1146400565    0.1146400565
   0.114952428    0.114952428    0.114952428
   0.1152647995    0.1152647995    0.1152647995
   0.115577171    0.115577171    0.115577171
   0.1158895423    0.1158895423    0.1158895423
   0.1162019132    0.1162019132    0.1162019132
   0.1165142837    0.1165142837    0.1165142837
   0.1168266539    0.1168266539    0.1168266539
   0.1171390239    0.1171390239    0.1171390239
   0.1174513941    0.1174513941    0.1174513941
   0.1177637647    0.1177637647    0.1177637647
   0.1180761359    0.1180761359    0.1180761359
   0.118388508    0.118388508    0.118388508
   0.1187008811    0.1187008811    0.1187008811
   0.1190132546    0.1190132546    0.1190132546
   0.1193256281    0.1193256281    0.1193256281
   0.1196380012    0.1196380012    0.1196380012
   0.1199503734    0.1199503734    0.1199503734
   0.1202627443    0.1202627443    0.1202627443
   0.120575114    0.120575114    0.120575114
   0.1208874829    0.1208874829    0.1208874829
   0.1211998513    0.1211998513    0.1211998513
   0.1215122196    0.1215122196    0.1215122196
   0.1218245883    0.1218245883    0.1218245883
   0.1221369576    0.1221369576    0.1221369576
   0.1224493275    0.1224493275    0.1224493275
   0.1227616977    0.1227616977    0.1227616977
   0.1230740682    0.1230740682    0.1230740682
   0.1233864388    0.1233864388    0.1233864388
   0.1236988096    0.1236988096    0.1236988096
   0.1240111804    0.1240111804    0.1240111804
   0.1243235514    0.1243235514    0.1243235514
   0.1246359227    0.1246359227    0.1246359227
   0.1249482941    0.1249482941    0.1249482941
   0.1252606657    0.1252606657    0.1252606657
   0.1255730371    0.1255730371    0.1255730371
   0.1258854084    0.1258854084    0.1258854084
   0.1261977794    0.1261977794    0.1261977794
   0.1265101501    0.1265101501    0.1265101501
   0.1268225207    0.1268225207    0.1268225207
   0.1271348911    0.1271348911    0.1271348911
   0.1274472614    0.1274472614    0.1274472614
   0.1277596318    0.1277596318    0.1277596318
   0.1280720022    0.1280720022    0.1280720022
   0.1283843726    0.1283843726    0.1283843726
   0.128696743    0.128696743    0.128696743
   0.1290091134    0.1290091134    0.1290091134
   0.1293214838    0.1293214838    0.1293214838
   0.1296338542    0.1296338542    0.1296338542
   0.1299462249    0.1299462249    0.1299462249
   0.1302585958    0.1302585958    0.1302585958
   0.130570967    0.130570967    0.130570967
   0.1308833384    0.1308833384    0.1308833384
   0.13119571    0.13119571    0.13119571
   0.1315080815    0.1315080815    0.1315080815
   0.1318204528    0.1318204528    0.1318204528
   0.1321328239    0.1321328239    0.1321328239
   0.1324451947    0.1324451947    0.1324451947
   0.1327575655    0.1327575655    0.1327575655
   0.1330699362    0.1330699362    0.1330699362
   0.1333823067    0.1333823067    0.1333823067
   0.133694677    0.133694677    0.133694677
   0.134007047    0.134007047    0.134007047
   0.1343194165    0.1343194165    0.1343194165
   0.1346317854    0.1346317854    0.1346317854
   0.1349441537    0.1349441537    0.1349441537
   0.1352565221    0.1352565221    0.1352565221
   0.1355688908    0.1355688908    0.1355688908
   0.1358812602    0.1358812602    0.1358812602
   0.1361936307    0.1361936307    0.1361936307
   0.1365060026    0.1365060026    0.1365060026
   0.1368183755    0.1368183755    0.1368183755
   0.1371307489    0.1371307489    0.1371307489
   0.1374431225    0.1374431225    0.1374431225
   0.1377554957    0.1377554957    0.1377554957
   0.1380678681    0.1380678681    0.1380678681
   0.1383802397    0.1383802397    0.1383802397
   0.1386926107    0.1386926107    0.1386926107
   0.1390049814    0.1390049814    0.1390049814
   0.1393173517    0.1393173517    0.1393173517
   0.1396297218    0.1396297218    0.1396297218
   0.1399420917    0.1399420917    0.1399420917
   0.1402544614    0.1402544614    0.1402544614
   0.1405668303    0.1405668303    0.1405668303
   0.1408791988    0.1408791988    0.1408791988
   0.1411915671    0.1411915671    0.1411915671
   0.1415039356    0.1415039356    0.1415039356
   0.1418163049    0.1418163049    0.1418163049
   0.1421286751    0.1421286751    0.1421286751
   0.1424410468    0.1424410468    0.1424410468
   0.1427534197    0.1427534197    0.1427534197
   0.1430657933    0.1430657933    0.1430657933
   0.1433781671    0.1433781671    0.1433781671
   0.1436905403    0.1436905403    0.1436905403
   0.1440029126    0.1440029126    0.1440029126
   0.1443152834    0.1443152834    0.1443152834
   0.144627653    0.144627653    0.144627653
   0.1449400218    0.1449400218    0.1449400218
   0.1452523902    0.1452523902    0.1452523902
   0.1455647585    0.1455647585    0.1455647585
   0.1458771272    0.1458771272    0.1458771272
   0.1461894966    0.1461894966    0.1461894966
   0.1465018664    0.1465018664    0.1465018664
   0.1468142364    0.1468142364    0.1468142364
   0.1471266067    0.1471266067    0.1471266067
   0.1474389772    0.1474389772    0.1474389772
   0.1477513481    0.1477513481    0.1477513481
   0.1480637194    0.1480637194    0.1480637194
   0.1483760914    0.1483760914    0.1483760914
   0.1486884644    0.1486884644    0.1486884644
   0.1490008378    0.1490008378    0.1490008378
   0.1493132114    0.1493132114    0.1493132114
