ACESLooks/ACEScct_LUT/T-SONY_Neutral_Tone.cube
# This file is automagically generated by clfutil 0.1.0 from T-SONY_Neutral_Tone.clf
LUT_1D_SIZE 4096
LUT_1D_INPUT_RANGE 0.0 1.4679964
  
0 0 0
0.0004046018089 0.0004046018089 0.0004046018089
0.0008092036178 0.0008092036178 0.0008092036178
0.001213805427 0.001213805427 0.001213805427
0.001618407236 0.001618407236 0.001618407236
0.002023009045 0.002023009045 0.002023009045
0.002427610854 0.002427610854 0.002427610854
0.002832212648 0.002832212648 0.002832212648
0.003236814471 0.003236814471 0.003236814471
0.003641417321 0.003641417321 0.003641417321
0.004046018291 0.004046018291 0.004046018291
0.004450612591 0.004450612591 0.004450612591
0.004855206817 0.004855206817 0.004855206817
0.005259807562 0.005259807562 0.005259807562
0.005664410231 0.005664410231 0.005664410231
0.006069012107 0.006069012107 0.006069012107
0.006473614041 0.006473614041 0.006473614041
0.006878215946 0.006878215946 0.006878215946
0.007282817852 0.007282817852 0.007282817852
0.007687419808 0.007687419808 0.007687419808
0.008092021663 0.008092021663 0.008092021663
0.008496624111 0.008496624111 0.008496624111
0.008901224723 0.008901224723 0.008901224723
0.009305819157 0.009305819157 0.009305819157
0.009710413633 0.009710413633 0.009710413633
0.01011501463 0.01011501463 0.01011501463
0.01051961742 0.01051961742 0.01051961742
0.01092421894 0.01092421894 0.01092421894
0.01132882046 0.01132882046 0.01132882046
0.01173342231 0.01173342231 0.01173342231
0.01213802427 0.01213802427 0.01213802427
0.01254262618 0.01254262618 0.01254262618
0.01294722808 0.01294722808 0.01294722808
0.01335183091 0.01335183091 0.01335183091
0.01375643192 0.01375643192 0.01375643192
0.01416102643 0.01416102643 0.01416102643
0.01456562084 0.01456562084 0.01456562084
0.01497022177 0.01497022177 0.01497022177
0.01537482461 0.01537482461 0.01537482461
0.01577942662 0.01577942662 0.01577942662
0.01618402843 0.01618402843 0.01618402843
0.01658862957 0.01658862957 0.01658862957
0.0169932307 0.0169932307 0.0169932307
0.01739783249 0.01739783249 0.01739783249
0.0178024345 0.0178024345 0.0178024345
0.01820703733 0.01820703733 0.01820703733
0.01861163835 0.01861163835 0.01861163835
0.01901623287 0.01901623287 0.01901623287
0.01942082727 0.01942082727 0.01942082727
0.01982542818 0.01982542818 0.01982542818
0.02023003103 0.02023003103 0.02023003103
0.02063463294 0.02063463294 0.02063463294
0.02103923484 0.02103923484 0.02103923484
0.02144383685 0.02144383685 0.02144383685
0.02184843866 0.02184843866 0.02184843866
0.0222530398 0.0222530398 0.0222530398
0.02265764093 0.02265764093 0.02265764093
0.02306224272 0.02306224272 0.02306224272
0.02346684473 0.02346684473 0.02346684473
0.02387144664 0.02387144664 0.02387144664
0.02427604854 0.02427604854 0.02427604854
0.02468065045 0.02468065045 0.02468065045
0.02508525235 0.02508525235 0.02508525235
0.02548985426 0.02548985426 0.02548985426
0.02589445616 0.02589445616 0.02589445616
0.02629905899 0.02629905899 0.02629905899
0.02670366003 0.02670366003 0.02670366003
0.02710825458 0.02710825458 0.02710825458
0.02751284895 0.02751284895 0.02751284895
0.02791744984 0.02791744984 0.02791744984
0.02832205269 0.02832205269 0.02832205269
0.0287266546 0.0287266546 0.0287266546
0.02913125651 0.02913125651 0.02913125651
0.02953585841 0.02953585841 0.02953585841
0.02994046032 0.02994046032 0.02994046032
0.03034506222 0.03034506222 0.03034506222
0.03074966413 0.03074966413 0.03074966413
0.03115426695 0.03115426695 0.03115426695
0.03155886801 0.03155886801 0.03155886801
0.03196346277 0.03196346277 0.03196346277
0.03236805694 0.03236805694 0.03236805694
0.0327726563 0.0327726563 0.0327726563
0.03317725759 0.03317725759 0.03317725759
0.03358185928 0.03358185928 0.03358185928
0.03398646138 0.03398646138 0.03398646138
0.03439106329 0.03439106329 0.03439106329
0.03479566519 0.03479566519 0.03479566519
0.0352002671 0.0352002671 0.0352002671
0.035604869 0.035604869 0.035604869
0.03600947182 0.03600947182 0.03600947182
0.03641407289 0.03641407289 0.03641407289
0.03681866748 0.03681866748 0.03681866748
0.03722326181 0.03722326181 0.03722326181
0.03762786268 0.03762786268 0.03762786268
0.03803246553 0.03803246553 0.03803246553
0.03843706744 0.03843706744 0.03843706744
0.03884166935 0.03884166935 0.03884166935
0.03924627125 0.03924627125 0.03924627125
0.03965087316 0.03965087316 0.03965087316
0.04005547506 0.04005547506 0.04005547506
0.04046007697 0.04046007697 0.04046007697
0.04086467978 0.04086467978 0.04086467978
0.04126928087 0.04126928087 0.04126928087
0.04167387547 0.04167387547 0.04167387547
0.04207846978 0.04207846978 0.04207846978
0.04248307064 0.04248307064 0.04248307064
0.0428876735 0.0428876735 0.0428876735
0.0432922754 0.0432922754 0.0432922754
0.04369687731 0.04369687731 0.04369687731
0.04410147941 0.04410147941 0.04410147941
0.04450608114 0.04450608114 0.04450608114
0.04491068153 0.04491068153 0.04491068153
0.04531528187 0.04531528187 0.04531528187
0.04571988445 0.04571988445 0.04571988445
0.04612448575 0.04612448575 0.04612448575
0.04652908037 0.04652908037 0.04652908037
0.04693367467 0.04693367467 0.04693367467
0.04733827551 0.04733827551 0.04733827551
0.04774287837 0.04774287837 0.04774287837
0.04814748028 0.04814748028 0.04814748028
0.04855208218 0.04855208218 0.04855208218
0.04895668409 0.04895668409 0.04895668409
0.049361286 0.049361286 0.049361286
0.0497658879 0.0497658879 0.0497658879
0.05017048981 0.05017048981 0.05017048981
0.05057509261 0.05057509261 0.05057509261
0.05097969373 0.05097969373 0.05097969373
0.05138428836 0.05138428836 0.05138428836
0.05178888265 0.05178888265 0.05178888265
0.05219348347 0.05219348347 0.05219348347
0.05259808634 0.05259808634 0.05259808634
0.05300268824 0.05300268824 0.05300268824
0.05340729015 0.05340729015 0.05340729015
0.05381189205 0.05381189205 0.05381189205
0.05421649396 0.05421649396 0.05421649396
0.05462109676 0.05462109676 0.05462109676
0.05502569789 0.05502569789 0.05502569789
0.05543029254 0.05543029254 0.05543029254
0.05583488681 0.05583488681 0.05583488681
0.05623948762 0.05623948762 0.05623948762
0.05664409049 0.05664409049 0.05664409049
0.0570486924 0.0570486924 0.0570486924
0.0574532943 0.0574532943 0.0574532943
0.05785789621 0.05785789621 0.05785789621
0.05826249811 0.05826249811 0.05826249811
0.05866710002 0.05866710002 0.05866710002
0.05907170192 0.05907170192 0.05907170192
0.05947630472 0.05947630472 0.05947630472
0.05988090586 0.05988090586 0.05988090586
0.06028550053 0.06028550053 0.06028550053
0.06069009479 0.06069009479 0.06069009479
0.06109469558 0.06109469558 0.06109469558
0.06149929845 0.06149929845 0.06149929845
0.06190390036 0.06190390036 0.06190390036
0.06230850226 0.06230850226 0.06230850226
0.06271310417 0.06271310417 0.06271310417
0.06311770607 0.06311770607 0.06311770607
0.06352230798 0.06352230798 0.06352230798
0.06392690988 0.06392690988 0.06392690988
0.06433151305 0.06433151305 0.06433151305
0.06473611389 0.06473611389 0.06473611389
0.06514070558 0.06514070558 0.06514070558
0.06554529665 0.06554529665 0.06554529665
0.06594989697 0.06594989697 0.06594989697
0.06635450024 0.06635450024 0.06635450024
0.06675910215 0.06675910215 0.06675910215
0.06716370405 0.06716370405 0.06716370405
0.06756830596 0.06756830596 0.06756830596
0.06797290786 0.06797290786 0.06797290786
0.06837750977 0.06837750977 0.06837750977
0.06878211167 0.06878211167 0.06878211167
0.06918671447 0.06918671447 0.06918671447
0.06959131564 0.06959131564 0.06959131564
0.06999591033 0.06999591033 0.06999591033
0.07040050456 0.07040050456 0.07040050456
0.07080510533 0.07080510533 0.07080510533
0.0712097082 0.0712097082 0.0712097082
0.07161431011 0.07161431011 0.07161431011
0.07201891202 0.07201891202 0.07201891202
0.07242351392 0.07242351392 0.07242351392
0.07282811583 0.07282811583 0.07282811583
0.07323271818 0.07323271818 0.07323271818
0.07363731972 0.07363731972 0.07363731972
0.07404191803 0.07404191803 0.07404191803
0.07444651609 0.07444651609 0.07444651609
0.07485111786 0.07485111786 0.07485111786
0.07525571989 0.07525571989 0.07525571989
0.0756603182 0.0756603182 0.0756603182
0.07606491626 0.07606491626 0.07606491626
0.07646951759 0.07646951759 0.07646951759
0.07687411998 0.07687411998 0.07687411998
0.07727872233 0.07727872233 0.07727872233
0.07768332387 0.07768332387 0.07768332387
0.07808792219 0.07808792219 0.07808792219
0.07849252024 0.07849252024 0.07849252024
0.07889712157 0.07889712157 0.07889712157
0.07930172396 0.07930172396 0.07930172396
0.07970632631 0.07970632631 0.07970632631
0.08011092786 0.08011092786 0.08011092786
0.08051552618 0.08051552618 0.08051552618
0.08092012423 0.08092012423 0.08092012423
0.08132472555 0.08132472555 0.08132472555
0.08172932794 0.08172932794 0.08172932794
0.08213393029 0.08213393029 0.08213393029
0.08253853184 0.08253853184 0.08253853184
0.08294313017 0.08294313017 0.08294313017
0.08334772821 0.08334772821 0.08334772821
0.08375232953 0.08375232953 0.08375232953
0.08415693192 0.08415693192 0.08415693192
0.08456153427 0.08456153427 0.08456153427
0.08496613582 0.08496613582 0.08496613582
0.08537073415 0.08537073415 0.08537073415
0.0857753322 0.0857753322 0.0857753322
0.08617993351 0.08617993351 0.08617993351
0.0865845359 0.0865845359 0.0865845359
0.08698913825 0.08698913825 0.08698913825
0.08739373981 0.08739373981 0.08739373981
0.08779833814 0.08779833814 0.08779833814
0.08820293618 0.08820293618 0.08820293618
0.08860753749 0.08860753749 0.08860753749
0.08901213988 0.08901213988 0.08901213988
0.08941674172 0.08941674172 0.08941674172
0.08982134368 0.08982134368 0.08982134368
0.0902259462 0.0902259462 0.0902259462
0.09063054877 0.09063054877 0.09063054877
0.09103515121 0.09103515121 0.09103515121
0.09143975269 0.09143975269 0.09143975269
0.09184435104 0.09184435104 0.09184435104
0.09224894907 0.09224894907 0.09224894907
0.09265355037 0.09265355037 0.09265355037
0.09305815276 0.09305815276 0.09305815276
0.09346275511 0.09346275511 0.09346275511
0.09386735668 0.09386735668 0.09386735668
0.09427195502 0.09427195502 0.09427195502
0.09467655305 0.09467655305 0.09467655305
0.09508115435 0.09508115435 0.09508115435
0.09548575675 0.09548575675 0.09548575675
0.09589035909 0.09589035909 0.09589035909
0.09629496066 0.09629496066 0.09629496066
0.09669955901 0.09669955901 0.09669955901
0.09710415704 0.09710415704 0.09710415704
0.09750875833 0.09750875833 0.09750875833
0.09791336073 0.09791336073 0.09791336073
0.09831796307 0.09831796307 0.09831796307
0.09872256464 0.09872256464 0.09872256464
0.099127163 0.099127163 0.099127163
0.09953176102 0.09953176102 0.09953176102
0.09993636231 0.09993636231 0.09993636231
0.1003409647 0.1003409647 0.1003409647
0.1007455671 0.1007455671 0.1007455671
0.1011501686 0.1011501686 0.1011501686
0.101554767 0.101554767 0.101554767
0.101959365 0.101959365 0.101959365
0.1023639663 0.1023639663 0.1023639663
0.1027685687 0.1027685687 0.1027685687
0.103173171 0.103173171 0.103173171
0.1035777726 0.1035777726 0.1035777726
0.103982371 0.103982371 0.103982371
0.104386969 0.104386969 0.104386969
0.1047915703 0.1047915703 0.1047915703
0.1051961727 0.1051961727 0.1051961727
0.105600775 0.105600775 0.105600775
0.1060053766 0.1060053766 0.1060053766
0.106409975 0.106409975 0.106409975
0.106814573 0.106814573 0.106814573
0.1072191743 0.1072191743 0.1072191743
0.1076237767 0.1076237767 0.1076237767
0.108028379 0.108028379 0.108028379
0.1084329806 0.1084329806 0.1084329806
0.108837579 0.108837579 0.108837579
0.109242177 0.109242177 0.109242177
0.1096467782 0.1096467782 0.1096467782
0.1100513806 0.1100513806 0.1100513806
0.110455983 0.110455983 0.110455983
0.1108605846 0.1108605846 0.1108605846
0.1112651829 0.1112651829 0.1112651829
0.1116697809 0.1116697809 0.1116697809
0.1120743827 0.1120743827 0.1120743827
0.1124789847 0.1124789847 0.1124789847
0.1128835831 0.1128835831 0.1128835831
0.1132881811 0.1132881811 0.1132881811
0.1136927824 0.1136927824 0.1136927824
0.1140973848 0.1140973848 0.1140973848
0.1145019871 0.1145019871 0.1145019871
0.1149065887 0.1149065887 0.1149065887
0.1153111871 0.1153111871 0.1153111871
0.1157157851 0.1157157851 0.1157157851
0.1161203864 0.1161203864 0.1161203864
0.1165249888 0.1165249888 0.1165249888
0.1169295911 0.1169295911 0.1169295911
0.1173341927 0.1173341927 0.1173341927
0.1177387911 0.1177387911 0.1177387911
0.1181433891 0.1181433891 0.1181433891
0.1185479904 0.1185479904 0.1185479904
0.1189525927 0.1189525927 0.1189525927
0.1193571951 0.1193571951 0.1193571951
0.1197617967 0.1197617967 0.1197617967
0.1201663951 0.1201663951 0.1201663951
0.1205709931 0.1205709931 0.1205709931
0.1209755943 0.1209755943 0.1209755943
0.1213801967 0.1213801967 0.1213801967
0.1217847991 0.1217847991 0.1217847991
0.1221894007 0.1221894007 0.1221894007
0.1225939991 0.1225939991 0.1225939991
0.1229985971 0.1229985971 0.1229985971
0.1234031983 0.1234031983 0.1234031983
0.1238078007 0.1238078007 0.1238078007
0.1242124026 0.1242124026 0.1242124026
0.1246170045 0.1246170045 0.1246170045
0.1250216064 0.1250216064 0.1250216064
0.1254262083 0.1254262083 0.1254262083
0.1258308102 0.1258308102 0.1258308102
0.1262354121 0.1262354121 0.1262354121
0.1266400149 0.1266400149 0.1266400149
0.1270446162 0.1270446162 0.1270446162
0.1274492111 0.1274492111 0.1274492111
0.1278538052 0.1278538052 0.1278538052
0.1282584049 0.1282584049 0.1282584049
0.1286630084 0.1286630084 0.1286630084
0.129067618 0.129067618 0.129067618
0.1294722273 0.1294722273 0.1294722273
0.1298768247 0.1298768247 0.1298768247
0.1302814191 0.1302814191 0.1302814191
0.1306860208 0.1306860208 0.1306860208
0.1310906229 0.1310906229 0.1310906229
0.1314952179 0.1314952179 0.1314952179
0.1318998119 0.1318998119 0.1318998119
0.1323044125 0.1323044125 0.1323044125
0.1327090154 0.1327090154 0.1327090154
0.1331136181 0.1331136181 0.1331136181
0.1335182195 0.1335182195 0.1335182195
0.1339228144 0.1339228144 0.1339228144
0.1343274084 0.1343274084 0.1343274084
0.134732009 0.134732009 0.134732009
0.1351366119 0.1351366119 0.1351366119
0.1355412138 0.1355412138 0.1355412138
0.1359458157 0.1359458157 0.1359458157
0.1363504176 0.1363504176 0.1363504176
0.1367550195 0.1367550195 0.1367550195
0.1371596214 0.1371596214 0.1371596214
0.1375642233 0.1375642233 0.1375642233
0.1379688253 0.1379688253 0.1379688253
0.1383734272 0.1383734272 0.1383734272
0.1387780291 0.1387780291 0.1387780291
0.139182631 0.139182631 0.139182631
0.1395872337 0.1395872337 0.1395872337
0.1399918351 0.1399918351 0.1399918351
0.14039643 0.14039643 0.14039643
0.140801024 0.140801024 0.140801024
0.1412056246 0.1412056246 0.1412056246
0.1416102275 0.1416102275 0.1416102275
0.1420148294 0.1420148294 0.1420148294
0.1424194313 0.1424194313 0.1424194313
0.1428240341 0.1428240341 0.1428240341
0.1432286354 0.1432286354 0.1432286354
0.1436332304 0.1436332304 0.1436332304
0.1440378244 0.1440378244 0.1440378244
0.1444424249 0.1444424249 0.1444424249
0.1448470278 0.1448470278 0.1448470278
0.1452516297 0.1452516297 0.1452516297
0.1456562317 0.1456562317 0.1456562317
0.1460608336 0.1460608336 0.1460608336
0.1464654355 0.1464654355 0.1464654355
0.1468700374 0.1468700374 0.1468700374
0.1472746393 0.1472746393 0.1472746393
0.1476792412 0.1476792412 0.1476792412
0.1480838431 0.1480838431 0.1480838431
0.148488445 0.148488445 0.148488445
0.1488930469 0.1488930469 0.1488930469
0.1492976496 0.1492976496 0.1492976496
0.149702251 0.149702251 0.149702251
0.150106846 0.150106846 0.150106846
0.15051144 0.15051144 0.15051144
0.1509160405 0.1509160405 0.1509160405
0.1513206434 0.1513206434 0.1513206434
0.1517252453 0.1517252453 0.1517252453
0.1521298472 0.1521298472 0.1521298472
0.15253445 0.15253445 0.15253445
0.1529390514 0.1529390514 0.1529390514
0.1533436464 0.1533436464 0.1533436464
0.1537482404 0.1537482404 0.1537482404
0.1541528409 0.1541528409 0.1541528409
0.1545574438 0.1545574438 0.1545574438
0.1549620457 0.1549620457 0.1549620457
0.1553666476 0.1553666476 0.1553666476
0.1557712495 0.1557712495 0.1557712495
0.1561758514 0.1561758514 0.1561758514
0.1565804533 0.1565804533 0.1565804533
0.1569850552 0.1569850552 0.1569850552
0.1573896571 0.1573896571 0.1573896571
0.157794259 0.157794259 0.157794259
0.1581988618 0.1581988618 0.1581988618
0.1586034631 0.1586034631 0.1586034631
0.1590080582 0.1590080582 0.1590080582
0.1594126521 0.1594126521 0.1594126521
0.1598172526 0.1598172526 0.1598172526
0.1602218555 0.1602218555 0.1602218555
0.1606264574 0.1606264574 0.1606264574
0.1610310594 0.1610310594 0.1610310594
0.1614356613 0.1614356613 0.1614356613
0.1618402632 0.1618402632 0.1618402632
0.1622448659 0.1622448659 0.1622448659
0.1626494673 0.1626494673 0.1626494673
0.1630540623 0.1630540623 0.1630540623
0.1634586563 0.1634586563 0.1634586563
0.1638632568 0.1638632568 0.1638632568
0.1642678597 0.1642678597 0.1642678597
0.1646724616 0.1646724616 0.1646724616
0.1650770635 0.1650770635 0.1650770635
0.1654816654 0.1654816654 0.1654816654
0.1658862673 0.1658862673 0.1658862673
0.1662908692 0.1662908692 0.1662908692
0.1666954711 0.1666954711 0.1666954711
0.167100073 0.167100073 0.167100073
0.1675046749 0.1675046749 0.1675046749
0.1679092777 0.1679092777 0.1679092777
0.1683138791 0.1683138791 0.1683138791
0.1687184741 0.1687184741 0.1687184741
0.1691230681 0.1691230681 0.1691230681
0.1695276685 0.1695276685 0.1695276685
0.1699322714 0.1699322714 0.1699322714
0.1703368734 0.1703368734 0.1703368734
0.1707414753 0.1707414753 0.1707414753
0.1711460772 0.1711460772 0.1711460772
0.1715506791 0.1715506791 0.1715506791
0.1719552818 0.1719552818 0.1719552818
0.1723598832 0.1723598832 0.1723598832
0.1727644783 0.1727644783 0.1727644783
0.1731690723 0.1731690723 0.1731690723
0.1735736727 0.1735736727 0.1735736727
0.1739782756 0.1739782756 0.1739782756
0.1743828775 0.1743828775 0.1743828775
0.1747874794 0.1747874794 0.1747874794
0.1751920813 0.1751920813 0.1751920813
0.1755966832 0.1755966832 0.1755966832
0.1760012851 0.1760012851 0.1760012851
0.1764058871 0.1764058871 0.1764058871
0.176810489 0.176810489 0.176810489
0.1772150909 0.1772150909 0.1772150909
0.1776196936 0.1776196936 0.1776196936
0.178024295 0.178024295 0.178024295
0.1784288901 0.1784288901 0.1784288901
0.178833484 0.178833484 0.178833484
0.1792380845 0.1792380845 0.1792380845
0.1796426874 0.1796426874 0.1796426874
0.1800472892 0.1800472892 0.1800472892
0.1804518911 0.1804518911 0.1804518911
0.180856495 0.180856495 0.180856495
0.1812610979 0.1812610979 0.1812610979
0.1816656932 0.1816656932 0.1816656932
0.182070287 0.182070287 0.182070287
0.1824748874 0.1824748874 0.1824748874
0.1828794903 0.1828794903 0.1828794903
0.1832840922 0.1832840922 0.1832840922
0.1836886941 0.1836886941 0.1836886941
0.184093296 0.184093296 0.184093296
0.1844978979 0.1844978979 0.1844978979
0.1849024998 0.1849024998 0.1849024998
0.1853071017 0.1853071017 0.1853071017
0.1857117044 0.1857117044 0.1857117044
0.1861163059 0.1861163059 0.1861163059
0.186520901 0.186520901 0.186520901
0.1869254949 0.1869254949 0.1869254949
0.1873300953 0.1873300953 0.1873300953
0.1877346982 0.1877346982 0.1877346982
0.1881393002 0.1881393002 0.1881393002
0.1885439021 0.1885439021 0.1885439021
0.188948504 0.188948504 0.188948504
0.1893531059 0.1893531059 0.1893531059
0.1897577078 0.1897577078 0.1897577078
0.1901623097 0.1901623097 0.1901623097
0.1905669124 0.1905669124 0.1905669124
0.1909715139 0.1909715139 0.1909715139
0.191376109 0.191376109 0.191376109
0.1917807029 0.1917807029 0.1917807029
0.1921853033 0.1921853033 0.1921853033
0.1925899062 0.1925899062 0.1925899062
0.1929945081 0.1929945081 0.1929945081
0.19339911 0.19339911 0.19339911
0.1938037119 0.1938037119 0.1938037119
0.1942083138 0.1942083138 0.1942083138
0.1946129157 0.1946129157 0.1946129157
0.1950175176 0.1950175176 0.1950175176
0.1954221204 0.1954221204 0.1954221204
0.1958267218 0.1958267218 0.1958267218
0.196231317 0.196231317 0.196231317
0.1966359109 0.1966359109 0.1966359109
0.1970405112 0.1970405112 0.1970405112
0.1974451142 0.1974451142 0.1974451142
0.1978503782 0.1978503782 0.1978503782
0.1982546407 0.1982546407 0.1982546407
0.1986555386 0.1986555386 0.1986555386
0.1990526331 0.1990526331 0.1990526331
0.1994426023 0.1994426023 0.1994426023
0.1998291553 0.1998291553 0.1998291553
0.200217655 0.200217655 0.200217655
0.2006067462 0.2006067462 0.2006067462
0.2009965943 0.2009965943 0.2009965943
0.2013871451 0.2013871451 0.2013871451
0.2017783974 0.2017783974 0.2017783974
0.2021703583 0.2021703583 0.2021703583
0.2025630458 0.2025630458 0.2025630458
0.202956446 0.202956446 0.202956446
0.2033505437 0.2033505437 0.2033505437
0.2037453377 0.2037453377 0.2037453377
0.2041408224 0.2041408224 0.2041408224
0.2045369886 0.2045369886 0.2045369886
0.2049338131 0.2049338131 0.2049338131
0.2053313076 0.2053313076 0.2053313076
0.2057294818 0.2057294818 0.2057294818
0.206128335 0.206128335 0.206128335
0.2065278785 0.2065278785 0.2065278785
0.2069280916 0.2069280916 0.2069280916
0.2073289262 0.2073289262 0.2073289262
0.2077304238 0.2077304238 0.2077304238
0.2081386073 0.2081386073 0.2081386073
0.2085386305 0.2085386305 0.2085386305
0.2089017962 0.2089017962 0.2089017962
0.2092415407 0.2092415407 0.2092415407
0.209566091 0.209566091 0.209566091
0.2098804267 0.2098804267 0.2098804267
0.2101986479 0.2101986479 0.2101986479
0.210516928 0.210516928 0.210516928
0.2108351618 0.2108351618 0.2108351618
0.2111533363 0.2111533363 0.2111533363
0.211471425 0.211471425 0.211471425
0.2117894472 0.2117894472 0.2117894472
0.2121074367 0.2121074367 0.2121074367
0.212425365 0.212425365 0.212425365
0.2127431853 0.2127431853 0.2127431853
0.2130609276 0.2130609276 0.2130609276
0.2133786402 0.2133786402 0.2133786402
0.2136962823 0.2136962823 0.2136962823
0.2140137892 0.2140137892 0.2140137892
0.2143311955 0.2143311955 0.2143311955
0.2146485395 0.2146485395 0.2146485395
0.2149658059 0.2149658059 0.2149658059
0.2152829908 0.2152829908 0.2152829908
0.2156000795 0.2156000795 0.2156000795
0.215917038 0.215917038 0.215917038
0.2162338804 0.2162338804 0.2162338804
0.2165506115 0.2165506115 0.2165506115
0.216867244 0.216867244 0.216867244
0.2171838251 0.2171838251 0.2171838251
0.2175003005 0.2175003005 0.2175003005
0.2178165643 0.2178165643 0.2178165643
0.2181326899 0.2181326899 0.2181326899
0.2184487874 0.2184487874 0.2184487874
0.2187647897 0.2187647897 0.2187647897
0.219080614 0.219080614 0.219080614
0.2193962906 0.2193962906 0.2193962906
0.2197118373 0.2197118373 0.2197118373
0.2200272512 0.2200272512 0.2200272512
0.220342539 0.220342539 0.220342539
0.2206576918 0.2206576918 0.2206576918
0.2209726901 0.2209726901 0.2209726901
0.221287551 0.221287551 0.221287551
0.2216023106 0.2216023106 0.2216023106
0.2219169353 0.2219169353 0.2219169353
0.2222313759 0.2222313759 0.2222313759
0.2225456437 0.2225456437 0.2225456437
0.222859726 0.222859726 0.222859726
0.2231736468 0.2231736468 0.2231736468
0.2234874578 0.2234874578 0.2234874578
0.2238011263 0.2238011263 0.2238011263
0.2241146097 0.2241146097 0.2241146097
0.2244279259 0.2244279259 0.2244279259
0.2247411007 0.2247411007 0.2247411007
0.2250541035 0.2250541035 0.2250541035
0.2253668692 0.2253668692 0.2253668692
0.2256794473 0.2256794473 0.2256794473
0.2259919202 0.2259919202 0.2259919202
0.2263042358 0.2263042358 0.2263042358
0.2266163244 0.2266163244 0.2266163244
0.2269282143 0.2269282143 0.2269282143
0.2272399268 0.2272399268 0.2272399268
0.2275514582 0.2275514582 0.2275514582
0.2278628165 0.2278628165 0.2278628165
0.2281739895 0.2281739895 0.2281739895
0.2284849524 0.2284849524 0.2284849524
0.2287957185 0.2287957185 0.2287957185
0.229106307 0.229106307 0.229106307
0.2294167028 0.2294167028 0.2294167028
0.2297268819 0.2297268819 0.2297268819
0.2300368556 0.2300368556 0.2300368556
0.2303466396 0.2303466396 0.2303466396
0.2306562197 0.2306562197 0.2306562197
0.2309654493 0.2309654493 0.2309654493
0.2312746353 0.2312746353 0.2312746353
0.231578454 0.231578454 0.231578454
0.2318909611 0.2318909611 0.2318909611
0.232245371 0.232245371 0.232245371
0.2326200329 0.2326200329 0.2326200329
0.2329867407 0.2329867407 0.2329867407
0.2333527411 0.2333527411 0.2333527411
0.2337182753 0.2337182753 0.2337182753
0.2340833684 0.2340833684 0.2340833684
