ACESLooks/ACEScct_LUT/T-SONY_Tone.spi1d
Version 1
From 0 1.4679964
Length 4096
Components 3
{
		 0	 0	 0
		 0.0004043918461	 0.0004046018089	 0.0003926479448
		 0.0008087864854	 0.0008092036178	 0.0007852930963
		 0.001213187175	 0.001213805427	 0.001177932198
		 0.001617587872	 0.001618407236	 0.001570571291
		 0.002021982052	 0.002023009045	 0.001963216902
		 0.002426374363	 0.002427610854	 0.002355864382
		 0.002830766669	 0.002832212648	 0.002748511845
		 0.003235160843	 0.003236814471	 0.003141157484
		 0.003639561627	 0.003641417321	 0.003533796702
		 0.004043962422	 0.004046018291	 0.003926435866
		 0.004448356542	 0.004450612591	 0.004319082328
		 0.004852748726	 0.004855206817	 0.004711728776
		 0.005257141844	 0.005259807562	 0.005104367776
		 0.00566153502	 0.005664410231	 0.005497006784
		 0.006065927409	 0.006069012107	 0.005889652454
		 0.006470321685	 0.006473614041	 0.006282300052
		 0.006874722451	 0.006878215946	 0.006674947621
		 0.007279123264	 0.007282817852	 0.00706759335
		 0.007683517607	 0.007687419808	 0.007460232611
		 0.008087909962	 0.008092021663	 0.007852871733
		 0.008492301991	 0.008496624111	 0.008245517047
		 0.008896695851	 0.008901224723	 0.008638164248
		 0.009301096556	 0.009305819157	 0.009030811771
		 0.009705497429	 0.009710413633	 0.00942345755
		 0.01010989178	 0.01011501463	 0.009816096819
		 0.01051428413	 0.01051961742	 0.01020873593
		 0.01091867616	 0.01092421894	 0.01060138217
		 0.01132307002	 0.01132882046	 0.01099402847
		 0.01172747071	 0.01173342231	 0.01138666765
		 0.01213187159	 0.01213802427	 0.01177930685
		 0.0125362659	 0.01254262618	 0.01217195252
		 0.0129406583	 0.01294722808	 0.0125646001
		 0.01334505072	 0.01335183091	 0.01295724767
		 0.01374944495	 0.01375643192	 0.01334989342
		 0.01415384569	 0.01416102643	 0.01374253266
		 0.01455824653	 0.01456562084	 0.0141351718
		 0.01496264084	 0.01497022177	 0.01452781747
		 0.01536703324	 0.01537482461	 0.01492046505
		 0.01577142575	 0.01577942662	 0.01531311271
		 0.01617581989	 0.01618402843	 0.01570575837
		 0.01658021986	 0.01658862957	 0.01609839687
		 0.01698461993	 0.0169932307	 0.01649103526
		 0.01738901415	 0.01739783249	 0.01688368174
		 0.01779340664	 0.0178024345	 0.01727632853
		 0.01819779906	 0.01820703733	 0.01766896779
		 0.01860219328	 0.01861163835	 0.01806160692
		 0.019006594	 0.01901623287	 0.01845425257
		 0.01941099486	 0.01942082727	 0.01884690016
		 0.01981538918	 0.01982542818	 0.01923954772
		 0.02021978158	 0.02023003103	 0.01963219348
		 0.020624174	 0.02063463294	 0.02002483274
		 0.02102856821	 0.02103923484	 0.02041747187
		 0.0214329681	 0.02144383685	 0.02081011761
		 0.02183736975	 0.02184843866	 0.0212027651
		 0.02224177069	 0.0222530398	 0.021595411
		 0.02264616983	 0.02265764093	 0.02198805689
		 0.02305056407	 0.02306224272	 0.02238070343
		 0.02345495656	 0.02346684473	 0.02277335017
		 0.02385934898	 0.02387144664	 0.02316599772
		 0.02426374319	 0.02427604854	 0.0235586435
		 0.02466814389	 0.02468065045	 0.02395128278
		 0.02507254476	 0.02508525235	 0.02434392189
		 0.02547693911	 0.02548985426	 0.02473656844
		 0.0258813315	 0.02589445616	 0.02512921517
		 0.02628572393	 0.02629905899	 0.02552185445
		 0.02669011812	 0.02670366003	 0.02591449355
		 0.02709451882	 0.02710825458	 0.02630713918
		 0.0274989197	 0.02751284895	 0.02669978677
		 0.02790331405	 0.02791744984	 0.02709243433
		 0.02830770644	 0.02832205269	 0.02748508012
		 0.02871209887	 0.0287266546	 0.0278777194
		 0.02911649306	 0.02913125651	 0.0282703585
		 0.02952089375	 0.02953585841	 0.02866300504
		 0.02992529463	 0.02994046032	 0.02905565178
		 0.03032968899	 0.03034506222	 0.02944829108
		 0.03073408138	 0.03074966413	 0.02984093017
		 0.03113847381	 0.03115426695	 0.03023357579
		 0.03154286799	 0.03155886801	 0.03062622338
		 0.03194726886	 0.03196346277	 0.03101887112
		 0.03235166958	 0.03236805694	 0.03141151675
		 0.03275606243	 0.0327726563	 0.03180415457
		 0.03316045326	 0.03317725759	 0.03219679214
		 0.03356484547	 0.03358185928	 0.03258943754
		 0.03396923985	 0.03398646138	 0.03298208533
		 0.03437364052	 0.03439106329	 0.03337473288
		 0.03477804142	 0.03479566519	 0.03376737868
		 0.03518243579	 0.0352002671	 0.034160018
		 0.03558682818	 0.035604869	 0.03455265707
		 0.03599122061	 0.03600947182	 0.03494530359
		 0.03639561478	 0.03641407289	 0.03533795035
		 0.03680001544	 0.03681866748	 0.03573058967
		 0.03720441636	 0.03722326181	 0.03612322874
		 0.03760881073	 0.03762786268	 0.03651587434
		 0.03801320312	 0.03803246553	 0.03690852193
		 0.03841759555	 0.03843706744	 0.03730116948
		 0.03882198972	 0.03884166935	 0.0376938153
		 0.03922639037	 0.03924627125	 0.03808645462
		 0.03963079129	 0.03965087316	 0.03847909369
		 0.04003518568	 0.04005547506	 0.03887173928
		 0.04043957806	 0.04046007697	 0.03926438687
		 0.0408439705	 0.04086467978	 0.03965703442
		 0.04124836465	 0.04126928087	 0.04004968025
		 0.0416527653	 0.04167387547	 0.04044231958
		 0.04205716623	 0.04207846978	 0.04083495864
		 0.04246156062	 0.04248307064	 0.04122760513
		 0.04286595301	 0.0428876735	 0.04162025191
		 0.04327034544	 0.0432922754	 0.04201289125
		 0.04367473959	 0.04369687731	 0.0424055303
		 0.04407914041	 0.04410147941	 0.04279817607
		 0.04448354118	 0.04450608114	 0.0431908235
		 0.04488793407	 0.04491068153	 0.04358346958
		 0.04529232488	 0.04531528187	 0.04397611389
		 0.0456967171	 0.04571988445	 0.04436875302
		 0.04610111144	 0.04612448575	 0.04476139226
		 0.04650551207	 0.04652908037	 0.04515403783
		 0.04690991301	 0.04693367467	 0.04554668543
		 0.04731430742	 0.04733827551	 0.04593933298
		 0.0477186998	 0.04774287837	 0.04633197882
		 0.04812309314	 0.04814748028	 0.04672461817
		 0.04852748648	 0.04855208218	 0.04711725721
		 0.04893187892	 0.04895668409	 0.04750990368
		 0.04933627305	 0.049361286	 0.04790255048
		 0.04974067367	 0.0497658879	 0.04829518984
		 0.05014507462	 0.05017048981	 0.04868782887
		 0.05054946904	 0.05057509261	 0.04908047444
		 0.05095386142	 0.05097969373	 0.04947312203
		 0.05135825386	 0.05138428836	 0.04986576958
		 0.05176264799	 0.05178888265	 0.05025841543
		 0.0521670486	 0.05219348347	 0.0506510548
		 0.05257144956	 0.05259808634	 0.05104369382
		 0.05297584398	 0.05300268824	 0.05143634028
		 0.05338023637	 0.05340729015	 0.05182898709
		 0.0537846288	 0.05381189205	 0.05222162647
		 0.05418902293	 0.05421649396	 0.05261426549
		 0.05459342353	 0.05462109676	 0.05300691104
		 0.05499782449	 0.05502569789	 0.05339955864
		 0.05540221893	 0.05543029254	 0.05379220618
		 0.05580661131	 0.05583488681	 0.05418485205
		 0.05621100375	 0.05623948762	 0.05457749143
		 0.05661539786	 0.05664409049	 0.05497013044
		 0.05701979845	 0.0570486924	 0.05536277598
		 0.05742419943	 0.0574532943	 0.05575542358
		 0.05782859387	 0.05785789621	 0.05614807112
		 0.05823298625	 0.05826249811	 0.05654071699
		 0.05863737869	 0.05866710002	 0.05693335639
		 0.0590417728	 0.05907170192	 0.05732599539
		 0.05944617338	 0.05947630472	 0.05771864182
		 0.05985057436	 0.05988090586	 0.05811128866
		 0.06025496881	 0.06028550053	 0.05850392806
		 0.06065936119	 0.06069009479	 0.05889656705
		 0.06106375363	 0.06109469558	 0.05928921259
		 0.06146814773	 0.06149929845	 0.05968186019
		 0.06187254831	 0.06190390036	 0.06007450773
		 0.0622769493	 0.06230850226	 0.06046715361
		 0.06268134375	 0.06271310417	 0.06085979302
		 0.06308573613	 0.06311770607	 0.061252432
		 0.06349012857	 0.06352230798	 0.06164507753
		 0.06389452267	 0.06392690988	 0.06203772513
		 0.06429892361	 0.06433151305	 0.06243037303
		 0.06470332429	 0.06473611389	 0.06282301861
		 0.06510771576	 0.06514070558	 0.06321565513
		 0.06551210497	 0.06554529665	 0.06360829103
		 0.06591649695	 0.06594989697	 0.06400093699
		 0.06632089143	 0.06635450024	 0.06439358423
		 0.06672529199	 0.06675910215	 0.06478622365
		 0.067129693	 0.06716370405	 0.06517886263
		 0.06753408747	 0.06756830596	 0.06557150814
		 0.06793847984	 0.06797290786	 0.06596415575
		 0.06834287229	 0.06837750977	 0.06635680328
		 0.06874726637	 0.06878211167	 0.06674944918
		 0.06915166692	 0.06918671447	 0.06714208861
		 0.06955606794	 0.06959131564	 0.06753472758
		 0.06996046241	 0.06999591033	 0.06792737353
		 0.07036485478	 0.07040050456	 0.06832002077
		 0.07076924723	 0.07080510533	 0.06871266425
		 0.07117364131	 0.0712097082	 0.06910530669
		 0.07157804185	 0.07161431011	 0.0694979496
		 0.07198244287	 0.07201891202	 0.06989059252
		 0.07238683735	 0.07242351392	 0.07028323499
		 0.07279122973	 0.07282811583	 0.07067587827
		 0.07319562262	 0.07323271818	 0.07106852479
		 0.07360001632	 0.07363731972	 0.07146117155
		 0.07400441282	 0.07404191803	 0.07185381504
		 0.07440881036	 0.07444651609	 0.07224645747
		 0.07481320787	 0.07485111786	 0.07263910038
		 0.07521760458	 0.07525571989	 0.0730317433
		 0.07562199805	 0.0756603182	 0.07342438577
		 0.07602639126	 0.07606491626	 0.07381702905
		 0.07643078775	 0.07646951759	 0.07420967556
		 0.0768351853	 0.07687411998	 0.07460232233
		 0.07723958281	 0.07727872233	 0.07499496582
		 0.07764397951	 0.07768332387	 0.07538760825
		 0.07804837299	 0.07808792219	 0.07578025117
		 0.0784527662	 0.07849252024	 0.07617289408
		 0.07885716269	 0.07889712157	 0.07656553656
		 0.07926156023	 0.07930172396	 0.07695817983
		 0.07966595774	 0.07970632631	 0.07735082633
		 0.08007035445	 0.08011092786	 0.0777434731
		 0.08047474793	 0.08051552618	 0.0781361166
		 0.08087914114	 0.08092012423	 0.07852875904
		 0.08128353762	 0.08132472555	 0.07892140195
		 0.08168793517	 0.08172932794	 0.07931404487
		 0.08209233268	 0.08213393029	 0.07970668734
		 0.08249672939	 0.08253853184	 0.08009933061
		 0.08290112287	 0.08294313017	 0.08049197711
		 0.08330551608	 0.08334772821	 0.08088462388
		 0.08370991256	 0.08375232953	 0.08127726739
		 0.08411431011	 0.08415693192	 0.08166990982
		 0.08451870761	 0.08456153427	 0.08206255273
		 0.08492310433	 0.08496613582	 0.08245519565
		 0.08532749782	 0.08537073415	 0.08284783812
		 0.08573189102	 0.0857753322	 0.08324048139
		 0.08613628793	 0.08617993351	 0.08363312788
		 0.08654068513	 0.0865845359	 0.08402577466
		 0.08694507863	 0.08698913825	 0.08441841817
		 0.08734947183	 0.08739373981	 0.0848110606
		 0.0877538683	 0.08779833814	 0.08520370351
		 0.08815826585	 0.08820293618	 0.08559634643
		 0.08856266335	 0.08860753749	 0.08598898891
		 0.08896706007	 0.08901213988	 0.08638163217
		 0.08937145305	 0.08941674172	 0.08677427856
		 0.08977584665	 0.08982134368	 0.08716692542
		 0.09018024774	 0.0902259462	 0.08755956919
		 0.09058464948	 0.09063054877	 0.08795221272
		 0.09098904369	 0.09103515121	 0.08834485933
		 0.09139343631	 0.09143975269	 0.08873750601
		 0.09179783277	 0.09184435104	 0.08913014953
		 0.09220223032	 0.09224894907	 0.08952279196
		 0.09260662783	 0.09265355037	 0.08991543487
		 0.09301102455	 0.09305815276	 0.09030807779
		 0.09341541805	 0.09346275511	 0.09070072027
		 0.09381981125	 0.09386735668	 0.09109336352
		 0.0942242077	 0.09427195502	 0.09148601
		 0.09462860526	 0.09467655305	 0.09187865679
		 0.09503300276	 0.09508115435	 0.09227130031
		 0.09543739949	 0.09548575675	 0.09266394274
		 0.095841793	 0.09589035909	 0.09305658565
		 0.09624618618	 0.09629496066	 0.09344922857
		 0.09665058264	 0.09669955901	 0.09384187105
		 0.09705498019	 0.09710415704	 0.0942345143
		 0.0974593777	 0.09750875833	 0.09462716077
		 0.09786377443	 0.09791336073	 0.09501980757
		 0.09826816794	 0.09831796307	 0.0954124511
		 0.09867256112	 0.09872256464	 0.09580509352
		 0.09907695801	 0.099127163	 0.09619773644
		 0.09948135523	 0.09953176102	 0.09659037935
		 0.09988574875	 0.09993636231	 0.09698302183
		 0.1002901419	 0.1003409647	 0.09737566508
		 0.1006945384	 0.1007455671	 0.09776831154
		 0.1010989359	 0.1011501686	 0.09816095835
		 0.1015033334	 0.101554767	 0.09855360188
		 0.1019077302	 0.101959365	 0.09894624431
		 0.1023121237	 0.1023639663	 0.09933888722
		 0.1027165169	 0.1027685687	 0.09973153014
		 0.1031209133	 0.103173171	 0.1001241731
		 0.1035253109	 0.1035777726	 0.100516816
		 0.1039297084	 0.103982371	 0.1009094584
		 0.1043341051	 0.104386969	 0.1013021017
		 0.1047384986	 0.1047915703	 0.1016947481
		 0.1051428918	 0.1051961727	 0.102087395
		 0.1055472883	 0.105600775	 0.1024800385
		 0.1059516858	 0.1060053766	 0.1028726809
		 0.1063560833	 0.106409975	 0.1032653238
		 0.1067604801	 0.106814573	 0.1036579668
		 0.1071648736	 0.1072191743	 0.1040506092
		 0.1075692667	 0.1076237767	 0.1044432525
		 0.1079736632	 0.108028379	 0.1048358989
		 0.1083780607	 0.1084329806	 0.1052285457
		 0.1087824582	 0.108837579	 0.1056211893
		 0.109186855	 0.109242177	 0.1060138317
		 0.1095912485	 0.1096467782	 0.1064064746
		 0.1099956417	 0.1100513806	 0.1067991175
		 0.1104000381	 0.110455983	 0.10719176
		 0.1108044357	 0.1108605846	 0.1075844032
		 0.1112088332	 0.1112651829	 0.1079770497
		 0.1116132299	 0.1116697809	 0.1083696965
		 0.1120176235	 0.1120743827	 0.1087623401
		 0.1124220166	 0.1124789847	 0.1091549825
		 0.1128264131	 0.1128835831	 0.1095476254
		 0.1132308106	 0.1132881811	 0.1099402683
		 0.1136352081	 0.1136927824	 0.1103329108
		 0.1140396049	 0.1140973848	 0.110725554
		 0.1144439984	 0.1145019871	 0.1111182005
		 0.1148483916	 0.1149065887	 0.1115108473
		 0.1152527884	 0.1153111871	 0.1119034908
		 0.1156571857	 0.1157157851	 0.1122961333
		 0.1160615792	 0.1161203864	 0.1126887762
		 0.1164659724	 0.1165249888	 0.1130814191
		 0.1168703688	 0.1169295911	 0.1134740616
		 0.1172747664	 0.1173341927	 0.1138667048
		 0.1176791639	 0.1177387911	 0.1142593512
		 0.1180835606	 0.1181433891	 0.1146519981
		 0.1184879542	 0.1185479904	 0.1150446416
		 0.1188923473	 0.1189525927	 0.1154372841
		 0.1192967437	 0.1193571951	 0.115829927
		 0.1197011413	 0.1197617967	 0.1162225699
		 0.1201055388	 0.1201663951	 0.1166152124
		 0.1205099355	 0.1205709931	 0.1170078556
		 0.1209143291	 0.1209755943	 0.117400502
		 0.1213187223	 0.1213801967	 0.1177931488
		 0.1217231187	 0.1217847991	 0.1181857924
		 0.1221275162	 0.1221894007	 0.1185784348
		 0.1225319137	 0.1225939991	 0.1189710777
		 0.1229363105	 0.1229985971	 0.1193637207
		 0.123340704	 0.1234031983	 0.1197563631
		 0.1237450972	 0.1238078007	 0.1201490064
		 0.1241494936	 0.1242124026	 0.1205416528
		 0.1245538912	 0.1246170045	 0.1209342996
		 0.1249582887	 0.1250216064	 0.1213269432
		 0.1253626854	 0.1254262083	 0.1217195856
		 0.1257670794	 0.1258308102	 0.1221122285
		 0.1261714723	 0.1262354121	 0.1225048714
		 0.1265758647	 0.1266400149	 0.1228975144
		 0.1269802587	 0.1270446162	 0.1232901573
		 0.127384659	 0.1274492111	 0.1236827998
		 0.1277890602	 0.1278538052	 0.124075443
		 0.128193454	 0.1282584049	 0.1244680885
		 0.1285978469	 0.1286630084	 0.124860736
		 0.129002248	 0.129067618	 0.1252533876
		 0.1294066487	 0.1294722273	 0.1256460372
		 0.1298110367	 0.1298768247	 0.1260386718
		 0.1302154231	 0.1302814191	 0.1264313038
		 0.1306198223	 0.1306860208	 0.1268239481
		 0.1310242244	 0.1310906229	 0.1272165965
		 0.1314286182	 0.1314952179	 0.127609244
		 0.1318330111	 0.1318998119	 0.1280018901
		 0.1322374114	 0.1323044125	 0.1283945297
		 0.1326418126	 0.1327090154	 0.1287871685
		 0.1330462073	 0.1331136181	 0.1291798138
		 0.1334505997	 0.1335182195	 0.1295724614
		 0.133854993	 0.1339228144	 0.129965109
		 0.1342593863	 0.1343274084	 0.130357755
		 0.1346637788	 0.134732009	 0.1307503947
		 0.1350681727	 0.1351366119	 0.1311430335
		 0.135472573	 0.1355412138	 0.1315356796
		 0.1358769742	 0.1359458157	 0.1319283267
		 0.1362813681	 0.1363504176	 0.1323209664
		 0.136685761	 0.1367550195	 0.1327136051
		 0.1370901613	 0.1371596214	 0.1331062513
		 0.1374945625	 0.1375642233	 0.1334988983
		 0.1378989572	 0.1379688253	 0.133891538
		 0.1383033495	 0.1383734272	 0.1342841768
		 0.1387077429	 0.1387780291	 0.1346768221
		 0.1391121362	 0.139182631	 0.1350694697
		 0.1395165287	 0.1395872337	 0.1354621172
		 0.1399209226	 0.1399918351	 0.1358547633
		 0.1403253229	 0.14039643	 0.136247403
		 0.1407297241	 0.140801024	 0.1366400417
		 0.141134118	 0.1412056246	 0.137032687
		 0.1415385109	 0.1416102275	 0.1374253347
		 0.1419429111	 0.1420148294	 0.1378179822
		 0.1423473124	 0.1424194313	 0.1382106282
		 0.1427517071	 0.1428240341	 0.1386032679
		 0.1431560994	 0.1432286354	 0.1389959067
		 0.1435604927	 0.1436332304	 0.139388552
		 0.1439648861	 0.1440378244	 0.1397811996
		 0.1443692786	 0.1444424249	 0.1401738471
		 0.1447736725	 0.1448470278	 0.1405664932
		 0.1451780727	 0.1452516297	 0.1409591329
		 0.145582474	 0.1456562317	 0.1413517716
		 0.1459868687	 0.1460608336	 0.1417444169
		 0.146391261	 0.1464654355	 0.1421370645
		 0.1467956535	 0.1468700374	 0.142529712
		 0.1472000474	 0.1472746393	 0.1429223581
		 0.1476044477	 0.1476792412	 0.1433149979
		 0.1480088489	 0.1480838431	 0.1437076366
		 0.1484132436	 0.148488445	 0.1441002827
		 0.148817636	 0.1488930469	 0.1444929298
		 0.1492220285	 0.1492976496	 0.1448855695
		 0.1496264223	 0.149702251	 0.1452782083
		 0.1500308226	 0.150106846	 0.1456708544
		 0.1504352238	 0.15051144	 0.1460635015
		 0.1508396186	 0.1509160405	 0.1464561412
		 0.1512440109	 0.1513206434	 0.1468487799
		 0.1516484034	 0.1517252453	 0.1472414252
		 0.1520527973	 0.1521298472	 0.1476340728
		 0.1524571975	 0.15253445	 0.1480267203
		 0.1528615988	 0.1529390514	 0.1484193664
		 0.1532659935	 0.1533436464	 0.1488120062
		 0.1536703859	 0.1537482404	 0.1492046449
		 0.1540747792	 0.1541528409	 0.1495972901
		 0.1544791725	 0.1545574438	 0.1499899378
		 0.154883565	 0.1549620457	 0.1503825852
		 0.1552879589	 0.1553666476	 0.1507752314
		 0.1556923591	 0.1557712495	 0.1511678711
		 0.1560967604	 0.1561758514	 0.1515605098
		 0.1565011543	 0.1565804533	 0.1519531551
		 0.1569055472	 0.1569850552	 0.1523458027
		 0.1573099474	 0.1573896571	 0.1527384502
		 0.1577143486	 0.157794259	 0.1531310963
		 0.1581187434	 0.1581988618	 0.1535237361
		 0.1585231357	 0.1586034631	 0.1539163748
		 0.1589275291	 0.1590080582	 0.1543090208
		 0.1593319224	 0.1594126521	 0.154701668
		 0.1597363149	 0.1598172526	 0.1550943077
		 0.1601407088	 0.1602218555	 0.1554869465
		 0.160545109	 0.1606264574	 0.1558795925
		 0.1609495103	 0.1610310594	 0.1562722396
		 0.1613539042	 0.1614356613	 0.1566648794
		 0.161758297	 0.1618402632	 0.1570575181
		 0.1621626972	 0.1622448659	 0.1574501633
		 0.1625670985	 0.1626494673	 0.157842811
		 0.1629714933	 0.1630540623	 0.1582354585
		 0.1633758856	 0.1634586563	 0.1586281046
		 0.163780279	 0.1638632568	 0.1590207444
		 0.1641846723	 0.1642678597	 0.1594133831
		 0.1645890648	 0.1646724616	 0.1598060283
		 0.1649934586	 0.1650770635	 0.1601986759
		 0.1653978588	 0.1654816654	 0.1605913234
		 0.1658022601	 0.1658862673	 0.1609839695
		 0.1662066541	 0.1662908692	 0.1613766093
		 0.1666110469	 0.1666954711	 0.161769248
		 0.1670154471	 0.167100073	 0.1621618932
		 0.1674198484	 0.1675046749	 0.1625545409
		 0.1678242432	 0.1679092777	 0.1629471883
		 0.1682286355	 0.1683138791	 0.1633398345
		 0.1686330288	 0.1687184741	 0.1637324743
		 0.1690374222	 0.1691230681	 0.164125113
		 0.1694418147	 0.1695276685	 0.1645177582
		 0.1698462085	 0.1699322714	 0.1649104058
		 0.1702506087	 0.1703368734	 0.1653030533
		 0.17065501	 0.1707414753	 0.1656956994
		 0.1710594048	 0.1711460772	 0.1660883392
		 0.1714637971	 0.1715506791	 0.1664809779
		 0.1718681896	 0.1719552818	 0.1668736239
		 0.1722725834	 0.1723598832	 0.1672662711
		 0.1726769836	 0.1727644783	 0.1676589109
		 0.1730813849	 0.1731690723	 0.1680515496
		 0.1734857797	 0.1735736727	 0.1684441956
		 0.1738901721	 0.1739782756	 0.1688368428
		 0.1742945646	 0.1743828775	 0.1692294826
		 0.1746989584	 0.1747874794	 0.1696221213
		 0.1751033585	 0.1751920813	 0.1700147664
		 0.1755077599	 0.1755966832	 0.1704074141
		 0.1759121547	 0.1760012851	 0.1708000615
		 0.176316547	 0.1764058871	 0.1711927077
		 0.1767209395	 0.176810489	 0.1715853475
		 0.1771253333	 0.1772150909	 0.1719779862
		 0.1775297335	 0.1776196936	 0.1723706314
		 0.1779341348	 0.178024295	 0.172763279
		 0.1783385296	 0.1784288901	 0.1731559265
		 0.178742922	 0.178833484	 0.1735485727
		 0.1791473145	 0.1792380845	 0.1739412125
		 0.1795517083	 0.1796426874	 0.1743338512
		 0.1799561083	 0.1800472892	 0.174726497
		 0.1803605097	 0.1804518911	 0.1751191442
		 0.1807649057	 0.180856495	 0.1755117854
		 0.1811692994	 0.1812610979	 0.1759044257
		 0.181573693	 0.1816656932	 0.1762970711
		 0.1819780861	 0.182070287	 0.1766897185
		 0.1823824786	 0.1824748874	 0.177082366
		 0.1827868724	 0.1828794903	 0.1774750122
		 0.1831912726	 0.1832840922	 0.1778676521
		 0.1835956739	 0.1836886941	 0.1782602907
		 0.1840000687	 0.184093296	 0.1786529367
		 0.1844044611	 0.1844978979	 0.1790455838
		 0.1848088536	 0.1849024998	 0.1794382237
		 0.1852132474	 0.1853071017	 0.1798308624
		 0.1856176475	 0.1857117044	 0.1802235075
		 0.1860220488	 0.1861163059	 0.1806161551
		 0.1864264437	 0.186520901	 0.1810088026
		 0.186830836	 0.1869254949	 0.1814014488
		 0.1872352285	 0.1873300953	 0.1817940887
		 0.1876396223	 0.1877346982	 0.1821867273
		 0.1880440224	 0.1881393002	 0.1825793733
		 0.1884484238	 0.1885439021	 0.1829720205
		 0.1888528186	 0.188948504	 0.1833646604
		 0.189257211	 0.1893531059	 0.183757299
		 0.1896616035	 0.1897577078	 0.1841499441
		 0.1900659972	 0.1901623097	 0.1845425917
		 0.1904703973	 0.1905669124	 0.1849352392
		 0.1908747987	 0.1909715139	 0.1853278854
		 0.1912791936	 0.191376109	 0.1857205253
		 0.1916835859	 0.1917807029	 0.1861131639
		 0.1920879784	 0.1921853033	 0.186505809
		 0.1924923722	 0.1925899062	 0.1868984567
		 0.1928967723	 0.1929945081	 0.1872911042
		 0.1933011736	 0.19339911	 0.1876837504
		 0.1937055685	 0.1938037119	 0.1880763903
		 0.1941099609	 0.1942083138	 0.1884690289
		 0.1945143534	 0.1946129157	 0.1888616748
		 0.1949187471	 0.1950175176	 0.189254322
		 0.1953231472	 0.1954221204	 0.1896469619
		 0.1957275486	 0.1958267218	 0.1900396005
		 0.1961319435	 0.196231317	 0.1904322456
		 0.1965363358	 0.1966359109	 0.1908248933
		 0.1969407283	 0.1970405112	 0.1912175408
		 0.1973451221	 0.1974451142	 0.191610187
		 0.1977501915	 0.1978503782	 0.1920032836
		 0.1981542498	 0.1982546407	 0.1923956881
		 0.198554893	 0.1986555386	 0.1927857541
		 0.198951699	 0.1990526331	 0.1931732348
		 0.1993413654	 0.1994426023	 0.1935559734
		 0.1997275763	 0.1998291553	 0.1939364133
		 0.2001156432	 0.200217655	 0.1943181455
		 0.2005042537	 0.2006067462	 0.1947001661
		 0.2008936308	 0.2009965943	 0.1950824001
		 0.2012837013	 0.2013871451	 0.1954648609
		 0.2016744484	 0.2017783974	 0.1958475472
		 0.2020659012	 0.2021703583	 0.196230463
		 0.2024581215	 0.2025630458	 0.1966136154
		 0.2028510639	 0.202956446	 0.1969970025
		 0.2032446712	 0.2033505437	 0.1973806289
		 0.2036389607	 0.2037453377	 0.1977644827
		 0.204033937	 0.2041408224	 0.1981485428
		 0.2044295974	 0.2045369886	 0.1985328151
		 0.2048259317	 0.2049338131	 0.1989172827
		 0.205222957	 0.2053313076	 0.1993019877
		 0.205620719	 0.2057294818	 0.1996869226
		 0.206019166	 0.206128335	 0.2000722695
		 0.2064182063	 0.2065278785	 0.2004583663
		 0.2068178968	 0.2069280916	 0.200845155
		 0.2072183156	 0.2073289262	 0.2012327067
		 0.2076194098	 0.2077304238	 0.2016209855
		 0.2080270422	 0.2081386073	 0.2020157095
		 0.2084264983	 0.2085386305	 0.2024025939
		 0.2087892854	 0.2089017962	 0.2027539938
