ACES1Looks/ACEScct_LUT/T-ARRI_Tone.spi1d
Version 1
From 0 1.4679964
Length 4096
Components 1
{
		 0
		 0.0003123733485
		 0.0006247465335
		 0.000937119384
		 0.001249491729
		 0.001561863397
		 0.001874234217
		 0.002186603858
		 0.002498971825
		 0.002811338694
		 0.003123705144
		 0.003436071852
		 0.003748439495
		 0.004060808738
		 0.004373179509
		 0.004685551324
		 0.004997923848
		 0.005310296748
		 0.005622669688
		 0.005935042334
		 0.006247414691
		 0.006559787266
		 0.006872159909
		 0.007184532442
		 0.007496904688
		 0.007809276468
		 0.008121647606
		 0.008434018058
		 0.008746387991
		 0.009058757587
		 0.009371127031
		 0.009683496507
		 0.0099958662
		 0.01030823595
		 0.01062060553
		 0.01093297509
		 0.0112453448
		 0.01155771481
		 0.0118700853
		 0.01218245646
		 0.01249482848
		 0.01280720108
		 0.0131195739
		 0.0134319466
		 0.01374431884
		 0.01405669027
		 0.01436906093
		 0.01468143105
		 0.01499380082
		 0.0153061704
		 0.01561853996
		 0.01593090968
		 0.01624327952
		 0.01655564917
		 0.01686801874
		 0.01718038841
		 0.01749275832
		 0.01780512864
		 0.01811749953
		 0.01842987121
		 0.01874224347
		 0.01905461602
		 0.01936698853
		 0.01967936073
		 0.0199917323
		 0.02030410303
		 0.02061647312
		 0.02092884285
		 0.0212412125
		 0.02155358234
		 0.02186595267
		 0.02217832376
		 0.0224906956
		 0.02280306794
		 0.02311544049
		 0.02342781294
		 0.02374018502
		 0.02405255643
		 0.0243649272
		 0.02467729755
		 0.0249896676
		 0.02530203745
		 0.02561440724
		 0.02592677706
		 0.02623914687
		 0.02655151634
		 0.02686388564
		 0.027176255
		 0.02748862465
		 0.0278009948
		 0.02811336571
		 0.02842573764
		 0.02873811034
		 0.0290504834
		 0.02936285644
		 0.02967522904
		 0.02998760082
		 0.03029997161
		 0.03061234173
		 0.03092471139
		 0.03123708077
		 0.03154945007
		 0.03186181949
		 0.03217418913
		 0.03248655856
		 0.03279892787
		 0.03311129724
		 0.03342366687
		 0.03373603695
		 0.03404840768
		 0.03436077939
		 0.03467315195
		 0.03498552496
		 0.03529789804
		 0.03561027077
		 0.03592264277
		 0.03623501376
		 0.03654738401
		 0.03685975376
		 0.03717212318
		 0.03748449249
		 0.03779686186
		 0.03810923148
		 0.03842160104
		 0.03873397048
		 0.03904633993
		 0.03935870954
		 0.03967107944
		 0.03998344977
		 0.04029582074
		 0.04060819236
		 0.04092056436
		 0.04123293647
		 0.0415453084
		 0.04185767988
		 0.04217005063
		 0.04248242059
		 0.04279479002
		 0.04310715925
		 0.04341952857
		 0.04373189831
		 0.04404426876
		 0.04435664008
		 0.04466901205
		 0.04498138442
		 0.04529375693
		 0.04560612932
		 0.04591850133
		 0.04623087284
		 0.04654324412
		 0.04685561522
		 0.04716798614
		 0.04748035688
		 0.04779272743
		 0.0481050978
		 0.04841746772
		 0.04872983725
		 0.04904220661
		 0.04935457603
		 0.04966694574
		 0.04997931594
		 0.05029168683
		 0.05060405827
		 0.05091643007
		 0.05122880204
		 0.05154117399
		 0.05185354573
		 0.0521659171
		 0.05247828831
		 0.05279065944
		 0.05310303044
		 0.05341540128
		 0.05372777194
		 0.05404014238
		 0.05435251254
		 0.05466488242
		 0.05497725211
		 0.05528962169
		 0.05560199124
		 0.05591436085
		 0.0562267305
		 0.05653909986
		 0.0568514691
		 0.05716383843
		 0.05747620808
		 0.05778857828
		 0.05810094926
		 0.05841332136
		 0.05872569438
		 0.05903806786
		 0.05935044137
		 0.05966281445
		 0.05997518667
		 0.06028755774
		 0.060599928
		 0.0609122977
		 0.06122466705
		 0.06153703629
		 0.06184940563
		 0.06216177525
		 0.06247414475
		 0.06278651412
		 0.06309888352
		 0.06341125312
		 0.0637236231
		 0.06403599362
		 0.06434836488
		 0.06466073681
		 0.06497310915
		 0.06528548165
		 0.06559785406
		 0.06591022612
		 0.06622259767
		 0.06653496901
		 0.0668473402
		 0.06715971119
		 0.06747208195
		 0.06778445247
		 0.06809682269
		 0.06840919231
		 0.06872156136
		 0.06903393015
		 0.06934629901
		 0.06965866824
		 0.06997103817
		 0.07028340906
		 0.07059578078
		 0.07090815306
		 0.0712205256
		 0.07153289812
		 0.07184527033
		 0.07215764198
		 0.07247001332
		 0.07278238448
		 0.07309475546
		 0.07340712625
		 0.07371949686
		 0.07403186729
		 0.07434423738
		 0.07465660701
		 0.0749689764
		 0.07528134578
		 0.07559371537
		 0.07590608539
		 0.07621845608
		 0.07653082745
		 0.07684319929
		 0.07715557133
		 0.07746794334
		 0.07778031507
		 0.07809268626
		 0.07840505689
		 0.07871742716
		 0.07902979718
		 0.07934216709
		 0.07965453703
		 0.07996690712
		 0.0802792774
		 0.08059164767
		 0.08090401796
		 0.08121638833
		 0.08152875885
		 0.08184112958
		 0.08215350059
		 0.08246587204
		 0.08277824385
		 0.08309061581
		 0.08340298773
		 0.08371535942
		 0.08402773069
		 0.08434010143
		 0.08465247176
		 0.08496484183
		 0.08527721176
		 0.08558958168
		 0.08590195172
		 0.08621432199
		 0.0865266923
		 0.08683906263
		 0.08715143303
		 0.08746380353
		 0.08777617416
		 0.08808854497
		 0.08840091605
		 0.08871328741
		 0.0890256589
		 0.08933803042
		 0.08965040184
		 0.08996277303
		 0.09027514391
		 0.09058751456
		 0.09089988504
		 0.09121225543
		 0.09152462577
		 0.09183699614
		 0.09214936659
		 0.09246173701
		 0.09277410736
		 0.09308647772
		 0.09339884813
		 0.09371121868
		 0.09402358941
		 0.09433596042
		 0.09464833173
		 0.0949607032
		 0.09527307473
		 0.09558544618
		 0.09589781743
		 0.09621018838
		 0.09652255911
		 0.09683492968
		 0.09714730014
		 0.0974596705
		 0.09777204082
		 0.09808441113
		 0.09839678131
		 0.09870915129
		 0.09902152119
		 0.09933389116
		 0.09964626132
		 0.09995863181
		 0.1002710028
		 0.1005833744
		 0.1008957464
		 0.1012081185
		 0.1015204905
		 0.101832862
		 0.1021452328
		 0.1024576026
		 0.1027699718
		 0.1030823407
		 0.1033947095
		 0.1037070786
		 0.1040194483
		 0.1043318188
		 0.1046441899
		 0.1049565614
		 0.105268933
		 0.1055813047
		 0.1058936761
		 0.1062060471
		 0.1065184175
		 0.1068307877
		 0.1071431577
		 0.107455528
		 0.1077678986
		 0.1080802698
		 0.108392642
		 0.108705015
		 0.1090173885
		 0.1093297621
		 0.1096421351
		 0.1099545073
		 0.1102668782
		 0.1105792478
		 0.1108916166
		 0.111203985
		 0.1115163534
		 0.111828722
		 0.1121410914
		 0.1124534613
		 0.1127658316
		 0.113078202
		 0.1133905726
		 0.1137029434
		 0.1140153143
		 0.1143276853
		 0.1146400565
		 0.114952428
		 0.1152647995
		 0.115577171
		 0.1158895423
		 0.1162019132
		 0.1165142837
		 0.1168266539
		 0.1171390239
		 0.1174513941
		 0.1177637647
		 0.1180761359
		 0.118388508
		 0.1187008811
		 0.1190132546
		 0.1193256281
		 0.1196380012
		 0.1199503734
		 0.1202627443
		 0.120575114
		 0.1208874829
		 0.1211998513
		 0.1215122196
		 0.1218245883
		 0.1221369576
		 0.1224493275
		 0.1227616977
		 0.1230740682
		 0.1233864388
		 0.1236988096
		 0.1240111804
		 0.1243235514
		 0.1246359227
		 0.1249482941
		 0.1252606657
		 0.1255730371
		 0.1258854084
		 0.1261977794
		 0.1265101501
		 0.1268225207
		 0.1271348911
		 0.1274472614
		 0.1277596318
		 0.1280720022
		 0.1283843726
		 0.128696743
		 0.1290091134
		 0.1293214838
		 0.1296338542
		 0.1299462249
		 0.1302585958
		 0.130570967
		 0.1308833384
		 0.13119571
		 0.1315080815
		 0.1318204528
		 0.1321328239
		 0.1324451947
		 0.1327575655
		 0.1330699362
		 0.1333823067
		 0.133694677
		 0.134007047
		 0.1343194165
		 0.1346317854
		 0.1349441537
		 0.1352565221
		 0.1355688908
		 0.1358812602
		 0.1361936307
		 0.1365060026
		 0.1368183755
		 0.1371307489
		 0.1374431225
		 0.1377554957
		 0.1380678681
		 0.1383802397
		 0.1386926107
		 0.1390049814
		 0.1393173517
		 0.1396297218
		 0.1399420917
		 0.1402544614
		 0.1405668303
		 0.1408791988
		 0.1411915671
		 0.1415039356
		 0.1418163049
		 0.1421286751
		 0.1424410468
		 0.1427534197
		 0.1430657933
		 0.1433781671
		 0.1436905403
		 0.1440029126
		 0.1443152834
		 0.144627653
		 0.1449400218
		 0.1452523902
		 0.1455647585
		 0.1458771272
		 0.1461894966
		 0.1465018664
		 0.1468142364
		 0.1471266067
		 0.1474389772
		 0.1477513481
		 0.1480637194
		 0.1483760914
		 0.1486884644
		 0.1490008378
		 0.1493132114
		 0.1496255845
		 0.1499379569
		 0.150250328
		 0.1505626978
		 0.1508750668
		 0.1511874352
		 0.1514998035
		 0.1518121721
		 0.1521245413
		 0.1524369111
		 0.1527492811
		 0.1530616512
		 0.1533740217
		 0.1536863925
		 0.1539987637
		 0.1543111355
		 0.1546235083
		 0.1549358817
		 0.1552482552
		 0.1555606285
		 0.1558730011
		 0.1561853725
		 0.1564977425
		 0.1568101115
		 0.1571224799
		 0.1574348481
		 0.1577472167
		 0.158059586
		 0.1583719563
		 0.1586843275
		 0.1589966991
		 0.1593090709
		 0.1596214426
		 0.1599338139
		 0.1602461845
		 0.1605585545
		 0.1608709239
		 0.1611832932
		 0.1614956625
		 0.161808032
		 0.1621204021
		 0.1624327728
		 0.1627451439
		 0.1630575153
		 0.1633698868
		 0.1636822584
		 0.1639946299
		 0.1643041125
		 0.164598178
		 0.1648850567
		 0.1651761724
		 0.1654829485
		 0.1658168086
		 0.1661891699
		 0.1666061509
		 0.1670591198
		 0.167536911
		 0.1680283587
		 0.1685222974
		 0.1690075614
		 0.1694796138
		 0.1699521197
		 0.1704255075
		 0.1708990365
		 0.1713719658
		 0.1718435549
		 0.1723131283
		 0.1727813076
		 0.1732484555
		 0.1737145727
		 0.1741796599
		 0.1746437176
		 0.1751067466
		 0.1755687468
		 0.1760297173
		 0.1764896583
		 0.17694857
		 0.1774064527
		 0.1778633065
		 0.1783191305
		 0.1787739189
		 0.1792276749
		 0.1796804035
		 0.18013211
		 0.1805827993
		 0.1810324766
		 0.181481138
		 0.1819287792
		 0.1823754022
		 0.1828210088
		 0.1832656008
		 0.1837091802
		 0.1841517464
		 0.184593294
		 0.1850338257
		 0.1854733451
		 0.1859118557
		 0.1863493611
		 0.1867858643
		 0.1872213597
		 0.1876558462
		 0.1880893263
		 0.1885218027
		 0.188953278
		 0.1893837548
		 0.1898132301
		 0.1902416974
		 0.1906691619
		 0.1910956294
		 0.1915211053
		 0.1919455953
		 0.1923691034
		 0.1927916217
		 0.1932131497
		 0.1936336891
		 0.1940532417
		 0.1944718095
		 0.1948893941
		 0.1953059885
		 0.1957215898
		 0.196136205
		 0.1965498412
		 0.1969625054
		 0.1973742047
		 0.1977848913
		 0.198194411
		 0.1986028829
		 0.1990104534
		 0.1994172687
		 0.1998234748
		 0.2002292075
		 0.2006342469
		 0.2010385288
		 0.2014421594
		 0.2018452447
		 0.2022478909
		 0.202650204
		 0.2030522187
		 0.2034538241
		 0.2038550029
		 0.2042557419
		 0.204656028
		 0.2050558482
		 0.2054551921
		 0.2058540791
		 0.2062525111
		 0.2066504825
		 0.2070479879
		 0.2074450217
		 0.2078415784
		 0.208234456
		 0.208622508
		 0.2090094741
		 0.209399097
		 0.2097951194
		 0.2102012842
		 0.2106199341
		 0.211046732
		 0.2114810176
		 0.2119228545
		 0.2123723064
		 0.2128294371
		 0.2132944102
		 0.2137716343
		 0.2142605113
		 0.2147569723
		 0.2152569482
		 0.2157563701
		 0.2162511691
		 0.2167399814
		 0.2172274975
		 0.2177139831
		 0.2181994356
		 0.2186838521
		 0.21916723
		 0.2196495672
		 0.2201308691
		 0.2206111358
		 0.2210903645
		 0.2215685529
		 0.2220456983
		 0.2225217981
		 0.2229968517
		 0.2234708612
		 0.2239438277
		 0.2244157522
		 0.2248866356
		 0.2253564792
		 0.2258252836
		 0.2262930476
		 0.2267597711
		 0.227225454
		 0.2276900962
		 0.2281536979
		 0.2286162588
		 0.2290777768
		 0.229538252
		 0.2299976865
		 0.2304560825
		 0.2309134423
		 0.2313697679
		 0.231825059
		 0.2322793106
		 0.232732525
		 0.2331847051
		 0.2336358535
		 0.2340859731
		 0.234535066
		 0.2349831248
		 0.23543015
		 0.2358761459
		 0.2363211166
		 0.2367650664
		 0.2372079995
		 0.2376499132
		 0.2380908009
		 0.2385306666
		 0.2389695142
		 0.239407348
		 0.2398441718
		 0.2402799874
		 0.240714784
		 0.2411485645
		 0.2415813345
		 0.2420130998
		 0.2424438659
		 0.2428736386
		 0.2433024097
		 0.2437301744
		 0.2441569385
		 0.2445827077
		 0.2450074877
		 0.2454312844
		 0.2458540973
		 0.2462759134
		 0.246696738
		 0.2471165784
		 0.2475354416
		 0.2479533349
		 0.2483702633
		 0.2487861951
		 0.249201134
		 0.2496151028
		 0.2500281243
		 0.250440221
		 0.2508514158
		 0.2512573418
		 0.2516539967
		 0.2520478063
		 0.2524453701
		 0.252853288
		 0.2532781594
		 0.2537261984
		 0.254196813
		 0.2546844707
		 0.2551836392
		 0.2556887864
		 0.25619438
		 0.2566948937
		 0.2571932591
		 0.257694421
		 0.2581970788
		 0.2586999322
		 0.2592016808
		 0.2597010242
		 0.2601972414
		 0.260691827
		 0.2611849826
		 0.2616767231
		 0.2621670634
		 0.2626560185
		 0.2631436019
		 0.263629786
		 0.2641145658
		 0.2645979564
		 0.2650799727
		 0.2655606296
		 0.2660399421
		 0.2665179035
		 0.2669944855
		 0.2674697036
		 0.2679435743
		 0.2684161143
		 0.2688873401
		 0.2693572636
		 0.2698258535
		 0.2702931111
		 0.2707590489
		 0.2712236797
		 0.271687016
		 0.2721490704
		 0.272609824
		 0.2730692601
		 0.2735273974
		 0.2739842546
		 0.2744398502
		 0.2748942031
		 0.2753473203
		 0.2757991673
		 0.2762497509
		 0.276699084
		 0.2771471796
		 0.2775940506
		 0.278039709
		 0.2784841302
		 0.2789273085
		 0.2793692586
		 0.2798099956
		 0.2802495344
		 0.2806878898
		 0.281125059
		 0.2815610145
		 0.2819957681
		 0.2824293335
		 0.2828617243
		 0.2832929542
		 0.283723033
		 0.2841519278
		 0.2845796418
		 0.285006192
		 0.2854315953
		 0.2858558685
		 0.2862790288
		 0.2867010668
		 0.2871219623
		 0.2875417246
		 0.2879603633
		 0.2883778877
		 0.2887943074
		 0.2892087213
		 0.2896176465
		 0.2900235159
		 0.2904295655
		 0.2908390312
		 0.2912551489
		 0.2916811102
		 0.2921159332
		 0.2925572878
		 0.2930044502
		 0.293456697
		 0.2939133044
		 0.2943735488
		 0.2948384749
		 0.2953111965
		 0.2957893046
		 0.296270092
		 0.2967508516
		 0.2972288763
		 0.2977017477
		 0.2981718361
		 0.2986403794
		 0.2991073987
		 0.2995729153
		 0.3000369501
		 0.3004995242
		 0.3009605773
		 0.3014200488
		 0.3018780188
		 0.3023345683
		 0.3027897786
		 0.3032437309
		 0.3036964529
		 0.3041477139
		 0.3045975834
		 0.3050461894
		 0.3054936601
		 0.3059401235
		 0.3063857064
		 0.3068303369
		 0.3072739163
		 0.3077164593
		 0.3081579807
		 0.308598495
		 0.3090380169
		 0.3094765483
		 0.3099140614
		 0.310350565
		 0.3107860706
		 0.3112205896
		 0.3116541337
		 0.3120867122
		 0.3125182994
		 0.3129488946
		 0.3133785119
		 0.3138071658
		 0.3142348704
		 0.31466164
		 0.3150874697
		 0.3155123386
		 0.3159362557
		 0.3163592305
		 0.3167812724
		 0.3172023909
		 0.317622591
		 0.3180418497
		 0.3184601718
		 0.3188775684
		 0.3192940509
		 0.3197096306
		 0.3201243188
		 0.3205381021
		 0.3209509698
		 0.3213629319
		 0.321773998
		 0.322184178
		 0.3225934816
		 0.3230017987
		 0.3234088299
		 0.3238148273
		 0.3242200894
		 0.3246249147
		 0.3250296018
		 0.3254343363
		 0.3258367992
		 0.3262373405
		 0.3266377997
		 0.3270400165
		 0.3274458307
		 0.327857082
		 0.3282754884
		 0.3287004401
		 0.3291297719
		 0.3295613021
		 0.3299928491
		 0.3304222311
		 0.3308476785
		 0.3312713965
		 0.3316941309
		 0.3321158911
		 0.3325366866
		 0.3329565269
		 0.3333754213
		 0.3337933554
		 0.3342103174
		 0.3346263209
		 0.3350413797
		 0.3354555075
		 0.3358687179
		 0.3362810151
		 0.3366923712
		 0.3371027935
		 0.3375122939
		 0.3379208843
		 0.3383285765
		 0.3387353814
		 0.3391412788
		 0.3395462635
		 0.3399503467
		 0.3403535396
		 0.3407558534
		 0.3411572994
		 0.3415578737
		 0.3419575542
		 0.342356352
		 0.3427542798
		 0.34315135
		 0.3435475752
		 0.343942965
		 0.3443375007
		 0.3447311805
		 0.3451240102
		 0.3455159958
		 0.3459071433
		 0.3462974585
		 0.3466869305
		 0.3470755495
		 0.3474633275
		 0.3478502769
		 0.3482364096
		 0.348621738
		 0.3490062665
		 0.3493899697
		 0.3497728535
		 0.3501549292
		 0.3505362079
		 0.3509167007
		 0.3512964184
		 0.3516753463
		 0.3520534776
		 0.3524308199
		 0.352807381
		 0.3531831683
		 0.3535581896
		 0.3539322288
		 0.3543049253
		 0.354676675
		 0.3550479091
		 0.3554190585
		 0.3557905543
		 0.3561627006
		 0.3565342732
		 0.3569054132
		 0.3572768354
		 0.357649255
		 0.3580233869
		 0.3583999462
		 0.3587798585
		 0.3591629411
		 0.35954797
		 0.3599337175
		 0.3603189554
		 0.3607024559
		 0.3610833505
		 0.3614629791
		 0.3618416489
		 0.3622193778
		 0.3625961836
		 0.3629720844
		 0.3633470978
		 0.3637212048
		 0.3640943919
		 0.3644666694
		 0.3648380474
		 0.3652085359
		 0.3655781451
		 0.3659468739
		 0.3663146998
		 0.3666816327
		 0.3670476846
		 0.3674128675
		 0.3677771936
		 0.3681406727
		 0.3685032808
		 0.3688650165
		 0.3692258921
		 0.3695859197
		 0.3699451115
		 0.3703034795
		 0.3706610202
		 0.3710177171
		 0.3713735763
		 0.3717286043
		 0.3720828075
		 0.3724361924
		 0.3727887606
		 0.3731404885
		 0.3734913841
		 0.3738414624
		 0.3741907384
		 0.3745392271
		 0.3748869432
		 0.3752338726
		 0.3755800025
		 0.3759253414
		 0.376269898
		 0.376613681
		 0.3769566988
		 0.3772989529
		 0.3776404261
		 0.3779811237
		 0.3783210534
		 0.3786602226
		 0.3789986389
		 0.3793363086
		 0.3796732127
		 0.3800093507
		 0.3803447341
		 0.3806793747
		 0.3810132841
		 0.3813464742
		 0.3816784219
		 0.3820085982
		 0.3823377942
		 0.3826668275
		 0.3829965154
		 0.3833276751
		 0.3836610692
		 0.3839965718
		 0.3843335358
		 0.3846713358
		 0.3850093471
		 0.3853469443
		 0.3856835028
		 0.3860193745
		 0.3863551477
		 0.386690625
		 0.3870256089
		 0.3873599022
		 0.3876933074
		 0.3880257086
		 0.3883573249
		 0.3886881948
		 0.3890183273
		 0.3893477316
		 0.389676417
		 0.3900043918
		 0.3903316414
		 0.3906581617
		 0.3909839604
		 0.3913090452
		 0.3916334235
		 0.391957103
		 0.3922800796
		 0.3926023372
		 0.3929238855
		 0.3932447345
		 0.3935648947
		 0.3938843765
		 0.3942031871
		 0.394521307
		 0.3948387369
		 0.3951554849
		 0.3954715594
		 0.3957869687
		 0.3961017209
		 0.396415811
		 0.3967292298
		 0.3970419817
		 0.3973540711
		 0.3976655025
		 0.3979762802
		 0.3982864037
		 0.3985958565
		 0.3989046464
		 0.3992127842
		 0.3995202808
		 0.399827147
		 0.4001333933
		 0.4004390054
		 0.4007439768
		 0.401048315
		 0.4013520268
		 0.4016551196
		 0.4019576004
		 0.4022594685
		 0.4025607111
		 0.4028613331
		 0.4031613405
		 0.403460739
		 0.4037595345
		 0.4040576955
		 0.4043548475
		 0.4046511411
		 0.4049468929
		 0.4052424192
		 0.4055380365
		 0.4058340614
		 0.4061305717
		 0.4064272999
		 0.4067241235
		 0.4070209208
		 0.4073175703
		 0.4076139506
		 0.4079100287
		 0.4082061461
		 0.4085021906
		 0.4087979728
		 0.409093303
		 0.4093879918
		 0.4096818519
		 0.4099749706
		 0.4102674857
		 0.4105594061
		 0.4108507412
		 0.4111415001
		 0.411431692
		 0.4117212869
		 0.4120102122
		 0.4122985318
		 0.4125863173
		 0.4128736406
		 0.4131605732
		 0.4134471703
		 0.4137332455
		 0.4140188092
		 0.4143039683
		 0.4145888299
		 0.414873501
		 0.4151580886
		 0.4154425933
		 0.4157268996
		 0.4160110114
		 0.4162949344
		 0.416578674
		 0.4168622356
		 0.4171456229
		 0.4174288278
		 0.4177118501
		 0.4179946918
		 0.4182773547
		 0.4185598409
		 0.4188421521
		 0.4191242843
		 0.4194062356
		 0.4196880094
		 0.4199696094
		 0.4202510388
		 0.4205323011
		 0.420813397
		 0.4210943197
		 0.4213750714
		 0.4216556547
		 0.4219360723
		 0.422216327
		 0.4224964212
		 0.4227763502
		 0.4230561135
		 0.423335713
		 0.4236151508
		 0.4238944289
		 0.4241735494
		 0.4244525914
		 0.4247316247
		 0.425010533
		 0.4252891972
		 0.4255674979
		 0.425845316
		 0.4261225476
		 0.4263992543
		 0.4266755079
		 0.4269513637
		 0.4272268773
		 0.4275021038
		 0.4277770986
		 0.4280517759
		 0.4283260766
		 0.4286000733
		 0.4288738388
		 0.4291474459
		 0.4294209672
		 0.4296944413
		 0.4299677793
		 0.4302409744
		 0.430514031
		 0.4307869532
		 0.4310597455
		 0.4313324121
		 0.4316049509
		 0.4318773592
		 0.4321496359
		 0.4324217802
		 0.432693791
		 0.4329656674
		 0.4332374059
		 0.4335090038
		 0.4337804663
		 0.4340517989
		 0.4343230071
		 0.4345940962
		 0.4348650707
		 0.4351359243
		 0.4354066555
		 0.4356772649
		 0.4359477533
		 0.4362181213
		 0.4364883696
		 0.4367584966
		 0.4370285011
		 0.437298385
		 0.4375681498
		 0.4378377974
		 0.4381073292
		 0.4383767453
		 0.4386460398
		 0.4389152153
		 0.4391842756
		 0.4394532245
		 0.4397220658
		 0.4399908031
		 0.440259433
		 0.4405279532
		 0.4407963646
		 0.4410646682
		 0.441332865
		 0.4416009558
		 0.44186894
		 0.4421368147
		 0.4424045819
		 0.4426722437
		 0.442939802
		 0.4432072591
		 0.4434746414
		 0.4437421774
		 0.444009766
		 0.4442772096
		 0.4445443104
		 0.4448108708
		 0.4450766931
		 0.4453416723
		 0.4456059461
		 0.445869666
		 0.4461329836
		 0.4463960505
		 0.446659018
		 0.4469219725
		 0.4471846857
		 0.4474471657
		 0.447709466
		 0.4479716405
		 0.4482337427
		 0.4484958254
		 0.4487578569
		 0.4490197996
		 0.449281656
		 0.4495434283
		 0.4498051191
		 0.4500667306
		 0.4503282627
		 0.4505897111
		 0.4508510773
		 0.4511123634
		 0.4513735715
		 0.4516347037
		 0.4518957617
		 0.4521567434
		 0.452417648
		 0.4526784758
		 0.452939227
		 0.453199902
		 0.4534605011
		 0.4537210207
		 0.4539814581
		 0.4542418182
		 0.4545021058
		 0.4547623255
		 0.4550224821
		 0.4552825783
		 0.4555426041
		 0.4558025612
		 0.4560624538
		 0.4563222858
		 0.4565820614
		 0.4568417847
		 0.4571014526
		 0.4573610622
		 0.4576206144
		 0.4578801103
		 0.4581395508
		 0.4583989369
		 0.4586582681
		 0.4589175405
		 0.4591767565
		 0.4594359189
		 0.4596950303
		 0.4599540934
		 0.4602131116
		 0.4604720952
		 0.4607310389
		 0.4609899317
		 0.461248763
		 0.4615075218
		 0.4617661972
		 0.4620249162
		 0.462283798
		 0.4625426591
		 0.4628013122
		 0.4630595695
		 0.4633172435
		 0.4635741488
		 0.4638302511
		 0.4640857394
		 0.4643408192
		 0.464595696
		 0.4648505754
		 0.4651056625
		 0.4653608881
		 0.465616081
		 0.46587124
		 0.4661263637
		 0.4663814506
		 0.4666364995
		 0.4668915079
		 0.4671464732
		 0.4674013992
		 0.4676562904
		 0.4679111512
		 0.468165986
		 0.468420799
		 0.4686755857
		 0.4689303439
		 0.4691850745
		 0.4694397788
		 0.4696944575
		 0.4699491119
		 0.470203742
		 0.4704583467
		 0.4707129261
		 0.47096748
		 0.4712220086
		 0.4714765117
		 0.4717309888
		 0.4719854351
		 0.472239853
		 0.4724942466
		 0.4727486201
		 0.4730029774
		 0.4732573227
		 0.473511656
		 0.4737659738
		 0.4740202751
		 0.4742745588
		 0.4745288239
		 0.4747830694
		 0.475037293
		 0.4752914916
		 0.4755456689
		 0.4757998293
		 0.4760539773
		 0.4763081172
		 0.4765622534
		 0.4768163825
		 0.4770705018
		 0.4773246118
		 0.4775787126
		 0.4778328047
		 0.4780868884
		 0.4783410044
		 0.4785952057
		 0.4788494244
		 0.4791035883
		 0.4793576255
		 0.479611464
		 0.4798650472
		 0.4801184837
		 0.4803717835
		 0.4806249131
		 0.4808778387
		 0.4811305267
		 0.4813829436
