ACES1Looks/ACEScct_LUT/T-ARRI_Classic_Tone.cube
# This file is automagically generated by clfutil 0.1.0 from T-ARRI_Classic_Tone.clf
LUT_1D_SIZE 4096
LUT_1D_INPUT_RANGE 0.0 1.4679964
  
   0    0    0
   0.0003201780446    0.0003201780446    0.0003201780446
   0.000640356089    0.000640356089    0.000640356089
   0.0009605341333    0.0009605341333    0.0009605341333
   0.001280712178    0.001280712178    0.001280712178
   0.001600890222    0.001600890222    0.001600890222
   0.001921068266    0.001921068266    0.001921068266
   0.002241246312    0.002241246312    0.002241246312
   0.002561424364    0.002561424364    0.002561424364
   0.002881602418    0.002881602418    0.002881602418
   0.00320178047    0.00320178047    0.00320178047
   0.003521958515    0.003521958515    0.003521958515
   0.003842136551    0.003842136551    0.003842136551
   0.004162314572    0.004162314572    0.004162314572
   0.004482492585    0.004482492585    0.004482492585
   0.004802670598    0.004802670598    0.004802670598
   0.005122848612    0.005122848612    0.005122848612
   0.00544302663    0.00544302663    0.00544302663
   0.005763204656    0.005763204656    0.005763204656
   0.006083382691    0.006083382691    0.006083382691
   0.006403560744    0.006403560744    0.006403560744
   0.006723738819    0.006723738819    0.006723738819
   0.007043916905    0.007043916905    0.007043916905
   0.007364094992    0.007364094992    0.007364094992
   0.007684273067    0.007684273067    0.007684273067
   0.008004451121    0.008004451121    0.008004451121
   0.008324629164    0.008324629164    0.008324629164
   0.008644807395    0.008644807395    0.008644807395
   0.008964985733    0.008964985733    0.008964985733
   0.009285164021    0.009285164021    0.009285164021
   0.009605342103    0.009605342103    0.009605342103
   0.009925519819    0.009925519819    0.009925519819
   0.01024569701    0.01024569701    0.01024569701
   0.01056587343    0.01056587343    0.01056587343
   0.01088604911    0.01088604911    0.01088604911
   0.01120622438    0.01120622438    0.01120622438
   0.01152639958    0.01152639958    0.01152639958
   0.01184657504    0.01184657504    0.01184657504
   0.0121667511    0.0121667511    0.0121667511
   0.01248692801    0.01248692801    0.01248692801
   0.01280710557    0.01280710557    0.01280710557
   0.0131272836    0.0131272836    0.0131272836
   0.01344746192    0.01344746192    0.01344746192
   0.01376764036    0.01376764036    0.01376764036
   0.01408781876    0.01408781876    0.01408781876
   0.01440799695    0.01440799695    0.01440799695
   0.01472817502    0.01472817502    0.01472817502
   0.01504835309    0.01504835309    0.01504835309
   0.01536853115    0.01536853115    0.01536853115
   0.01568870922    0.01568870922    0.01568870922
   0.01600888729    0.01600888729    0.01600888729
   0.01632906536    0.01632906536    0.01632906536
   0.01664924343    0.01664924343    0.01664924343
   0.01696942153    0.01696942153    0.01696942153
   0.01728959962    0.01728959962    0.01728959962
   0.01760977771    0.01760977771    0.01760977771
   0.01792995577    0.01792995577    0.01792995577
   0.01825013381    0.01825013381    0.01825013381
   0.01857031181    0.01857031181    0.01857031181
   0.01889048983    0.01889048983    0.01889048983
   0.01921066784    0.01921066784    0.01921066784
   0.01953084581    0.01953084581    0.01953084581
   0.0198510237    0.0198510237    0.0198510237
   0.02017120147    0.02017120147    0.02017120147
   0.02049137907    0.02049137907    0.02049137907
   0.02081155636    0.02081155636    0.02081155636
   0.02113173328    0.02113173328    0.02113173328
   0.02145191003    0.02145191003    0.02145191003
   0.02177208681    0.02177208681    0.02177208681
   0.02209226383    0.02209226383    0.02209226383
   0.02241244129    0.02241244129    0.02241244129
   0.02273261938    0.02273261938    0.02273261938
   0.02305279821    0.02305279821    0.02305279821
   0.02337297752    0.02337297752    0.02337297752
   0.02369315703    0.02369315703    0.02369315703
   0.02401333645    0.02401333645    0.02401333645
   0.0243335155    0.0243335155    0.0243335155
   0.02465369391    0.02465369391    0.02465369391
   0.02497387159    0.02497387159    0.02497387159
   0.02529404875    0.02529404875    0.02529404875
   0.0256142256    0.0256142256    0.0256142256
   0.02593440235    0.02593440235    0.02593440235
   0.02625457918    0.02625457918    0.02625457918
   0.02657475629    0.02657475629    0.02657475629
   0.02689493384    0.02689493384    0.02689493384
   0.02721511168    0.02721511168    0.02721511168
   0.02753528969    0.02753528969    0.02753528969
   0.02785546775    0.02785546775    0.02785546775
   0.02817564576    0.02817564576    0.02817564576
   0.02849582361    0.02849582361    0.02849582361
   0.02881600117    0.02881600117    0.02881600117
   0.02913617841    0.02913617841    0.02913617841
   0.02945635543    0.02945635543    0.02945635543
   0.02977653235    0.02977653235    0.02977653235
   0.03009670927    0.03009670927    0.03009670927
   0.03041688632    0.03041688632    0.03041688632
   0.0307370636    0.0307370636    0.0307370636
   0.03105724118    0.03105724118    0.03105724118
   0.03137741895    0.03137741895    0.03137741895
   0.03169759685    0.03169759685    0.03169759685
   0.03201777483    0.03201777483    0.03201777483
   0.03233795284    0.03233795284    0.03233795284
   0.0326581308    0.0326581308    0.0326581308
   0.0329783087    0.0329783087    0.0329783087
   0.03329848667    0.03329848667    0.03329848667
   0.03361866467    0.03361866467    0.03361866467
   0.03393884265    0.03393884265    0.03393884265
   0.03425902057    0.03425902057    0.03425902057
   0.03457919835    0.03457919835    0.03457919835
   0.03489937594    0.03489937594    0.03489937594
   0.03521955333    0.03521955333    0.03521955333
   0.03553973057    0.03553973057    0.03553973057
   0.03585990768    0.03585990768    0.03585990768
   0.03618008469    0.03618008469    0.03618008469
   0.03650026164    0.03650026164    0.03650026164
   0.03682043856    0.03682043856    0.03682043856
   0.03714061538    0.03714061538    0.03714061538
   0.03746079187    0.03746079187    0.03746079187
   0.03778096821    0.03778096821    0.03778096821
   0.03810114459    0.03810114459    0.03810114459
   0.0384213212    0.0384213212    0.0384213212
   0.03874149825    0.03874149825    0.03874149825
   0.03906167594    0.03906167594    0.03906167594
   0.03938185444    0.03938185444    0.03938185444
   0.03970203356    0.03970203356    0.03970203356
   0.04002221302    0.04002221302    0.04002221302
   0.04034239253    0.04034239253    0.04034239253
   0.04066257181    0.04066257181    0.04066257181
   0.04098275055    0.04098275055    0.04098275055
   0.0413029287    0.0413029287    0.0413029287
   0.04162310652    0.04162310652    0.04162310652
   0.04194328408    0.04194328408    0.04194328408
   0.04226346144    0.04226346144    0.04226346144
   0.04258363866    0.04258363866    0.04258363866
   0.04290381578    0.04290381578    0.04290381578
   0.04322399282    0.04322399282    0.04322399282
   0.04354416946    0.04354416946    0.04354416946
   0.04386434583    0.04386434583    0.04386434583
   0.04418452215    0.04418452215    0.04418452215
   0.04450469864    0.04450469864    0.04450469864
   0.04482487552    0.04482487552    0.04482487552
   0.04514505302    0.04514505302    0.04514505302
   0.04546523132    0.04546523132    0.04546523132
   0.04578541026    0.04578541026    0.04578541026
   0.04610558961    0.04610558961    0.04610558961
   0.0464257691    0.0464257691    0.0464257691
   0.04674594846    0.04674594846    0.04674594846
   0.04706612746    0.04706612746    0.04706612746
   0.0473863059    0.0473863059    0.0473863059
   0.04770648401    0.04770648401    0.04770648401
   0.0480266619    0.0480266619    0.0480266619
   0.04834683965    0.04834683965    0.04834683965
   0.04866701734    0.04866701734    0.04866701734
   0.04898719506    0.04898719506    0.04898719506
   0.04930737288    0.04930737288    0.04930737288
   0.04962755079    0.04962755079    0.04962755079
   0.04994772873    0.04994772873    0.04994772873
   0.05026790668    0.05026790668    0.05026790668
   0.05058808459    0.05058808459    0.05058808459
   0.05090826244    0.05090826244    0.05090826244
   0.05122844019    0.05122844019    0.05122844019
   0.05154861781    0.05154861781    0.05154861781
   0.05186879529    0.05186879529    0.05186879529
   0.0521889727    0.0521889727    0.0521889727
   0.05250915009    0.05250915009    0.05250915009
   0.05282932751    0.05282932751    0.05282932751
   0.05314950501    0.05314950501    0.05314950501
   0.05346968267    0.05346968267    0.05346968267
   0.05378986056    0.05378986056    0.05378986056
   0.05411003861    0.05411003861    0.05411003861
   0.0544302167    0.0544302167    0.0544302167
   0.0547503947    0.0547503947    0.0547503947
   0.05507057251    0.05507057251    0.05507057251
   0.05539075001    0.05539075001    0.05539075001
   0.05571092707    0.05571092707    0.05571092707
   0.05603110375    0.05603110375    0.05603110375
   0.05635128024    0.05635128024    0.05635128024
   0.05667145668    0.05667145668    0.05667145668
   0.05699163325    0.05699163325    0.05699163325
   0.05731181011    0.05731181011    0.05731181011
   0.05763198739    0.05763198739    0.05763198739
   0.05795216493    0.05795216493    0.05795216493
   0.05827234267    0.05827234267    0.05827234267
   0.05859252058    0.05859252058    0.05859252058
   0.05891269863    0.05891269863    0.05891269863
   0.05923287678    0.05923287678    0.05923287678
   0.05955305501    0.05955305501    0.05955305501
   0.05987323357    0.05987323357    0.05987323357
   0.06019341245    0.06019341245    0.06019341245
   0.06051359144    0.06051359144    0.06051359144
   0.06083377035    0.06083377035    0.06083377035
   0.06115394898    0.06115394898    0.06115394898
   0.06147412713    0.06147412713    0.06147412713
   0.06179430462    0.06179430462    0.06179430462
   0.06211448151    0.06211448151    0.06211448151
   0.06243465801    0.06243465801    0.06243465801
   0.06275483435    0.06275483435    0.06275483435
   0.06307501075    0.06307501075    0.06307501075
   0.06339518744    0.06339518744    0.06339518744
   0.06371536462    0.06371536462    0.06371536462
   0.06403554218    0.06403554218    0.06403554218
   0.06435572    0.06435572    0.06435572
   0.06467589798    0.06467589798    0.06467589798
   0.06499607605    0.06499607605    0.06499607605
   0.0653162541    0.0653162541    0.0653162541
   0.06563643206    0.06563643206    0.06563643206
   0.06595660993    0.06595660993    0.06595660993
   0.06627678781    0.06627678781    0.06627678781
   0.06659696569    0.06659696569    0.06659696569
   0.06691714357    0.06691714357    0.06691714357
   0.06723732145    0.06723732145    0.06723732145
   0.06755749933    0.06755749933    0.06755749933
   0.06787767721    0.06787767721    0.06787767721
   0.06819785513    0.06819785513    0.06819785513
   0.06851803308    0.06851803308    0.06851803308
   0.06883821102    0.06883821102    0.06883821102
   0.06915838891    0.06915838891    0.06915838891
   0.06947856673    0.06947856673    0.06947856673
   0.06979874445    0.06979874445    0.06979874445
   0.07011892202    0.07011892202    0.07011892202
   0.07043909947    0.07043909947    0.07043909947
   0.07075927687    0.07075927687    0.07075927687
   0.07107945425    0.07107945425    0.07107945425
   0.07139963169    0.07139963169    0.07139963169
   0.07171980924    0.07171980924    0.07171980924
   0.07203998693    0.07203998693    0.07203998693
   0.07236016473    0.07236016473    0.07236016473
   0.07268034262    0.07268034262    0.07268034262
   0.07300052055    0.07300052055    0.07300052055
   0.0733206985    0.0733206985    0.0733206985
   0.07364087643    0.07364087643    0.07364087643
   0.07396105431    0.07396105431    0.07396105431
   0.07428123219    0.07428123219    0.07428123219
   0.07460141007    0.07460141007    0.07460141007
   0.07492158795    0.07492158795    0.07492158795
   0.07524176583    0.07524176583    0.07524176583
   0.07556194371    0.07556194371    0.07556194371
   0.07588212158    0.07588212158    0.07588212158
   0.07620229947    0.07620229947    0.07620229947
   0.07652247741    0.07652247741    0.07652247741
   0.07684265536    0.07684265536    0.07684265536
   0.07716283328    0.07716283328    0.07716283328
   0.07748301115    0.07748301115    0.07748301115
   0.07780318894    0.07780318894    0.07780318894
   0.07812336662    0.07812336662    0.07812336662
   0.07844354422    0.07844354422    0.07844354422
   0.07876372177    0.07876372177    0.07876372177
   0.07908389926    0.07908389926    0.07908389926
   0.0794040767    0.0794040767    0.0794040767
   0.07972425407    0.07972425407    0.07972425407
   0.08004443138    0.08004443138    0.08004443138
   0.08036460859    0.08036460859    0.08036460859
   0.08068478569    0.08068478569    0.08068478569
   0.08100496273    0.08100496273    0.08100496273
   0.08132513976    0.08132513976    0.08132513976
   0.08164531684    0.08164531684    0.08164531684
   0.08196549401    0.08196549401    0.08196549401
   0.08228567128    0.08228567128    0.08228567128
   0.08260584854    0.08260584854    0.08260584854
   0.08292602583    0.08292602583    0.08292602583
   0.08324620321    0.08324620321    0.08324620321
   0.08356638074    0.08356638074    0.08356638074
   0.08388655846    0.08388655846    0.08388655846
   0.08420673644    0.08420673644    0.08420673644
   0.08452691489    0.08452691489    0.08452691489
   0.08484709369    0.08484709369    0.08484709369
   0.08516727265    0.08516727265    0.08516727265
   0.08548745158    0.08548745158    0.08548745158
   0.08580763027    0.08580763027    0.08580763027
   0.08612780853    0.08612780853    0.08612780853
   0.08644798617    0.08644798617    0.08644798617
   0.0867681633    0.0867681633    0.0867681633
   0.08708834013    0.08708834013    0.08708834013
   0.08740851688    0.08740851688    0.08740851688
   0.08772869377    0.08772869377    0.08772869377
   0.08804887102    0.08804887102    0.08804887102
   0.08836904885    0.08836904885    0.08836904885
   0.08868922729    0.08868922729    0.08868922729
   0.08900940613    0.08900940613    0.08900940613
   0.08932958513    0.08932958513    0.08932958513
   0.08964976409    0.08964976409    0.08964976409
   0.08996994277    0.08996994277    0.08996994277
   0.09029012094    0.09029012094    0.09029012094
   0.09061029856    0.09061029856    0.09061029856
   0.09093047579    0.09093047579    0.09093047579
   0.09125065277    0.09125065277    0.09125065277
   0.09157082964    0.09157082964    0.09157082964
   0.09189100653    0.09189100653    0.09189100653
   0.09221118357    0.09221118357    0.09221118357
   0.09253136086    0.09253136086    0.09253136086
   0.09285153826    0.09285153826    0.09285153826
   0.09317171573    0.09317171573    0.09317171573
   0.09349189324    0.09349189324    0.09349189324
   0.09381207078    0.09381207078    0.09381207078
   0.09413224832    0.09413224832    0.09413224832
   0.09445242582    0.09445242582    0.09445242582
   0.09477260334    0.09477260334    0.09477260334
   0.09509278088    0.09509278088    0.09509278088
   0.09541295841    0.09541295841    0.09541295841
   0.09573313591    0.09573313591    0.09573313591
   0.09605331336    0.09605331336    0.09605331336
   0.09637349072    0.09637349072    0.09637349072
   0.09669366791    0.09669366791    0.09669366791
   0.09701384487    0.09701384487    0.09701384487
   0.09733402173    0.09733402173    0.09733402173
   0.09765419863    0.09765419863    0.09765419863
   0.0979743757    0.0979743757    0.0979743757
   0.09829455308    0.09829455308    0.09829455308
   0.09861473091    0.09861473091    0.09861473091
   0.09893490933    0.09893490933    0.09893490933
   0.09925508815    0.09925508815    0.09925508815
   0.09957526715    0.09957526715    0.09957526715
   0.09989544612    0.09989544612    0.09989544612
   0.1002156248    0.1002156248    0.1002156248
   0.100535803    0.100535803    0.100535803
   0.1008559806    0.1008559806    0.1008559806
   0.1011761576    0.1011761576    0.1011761576
   0.1014963345    0.1014963345    0.1014963345
   0.1018165112    0.1018165112    0.1018165112
   0.1021366881    0.1021366881    0.1021366881
   0.1024568655    0.1024568655    0.1024568655
   0.1027770434    0.1027770434    0.1027770434
   0.103097222    0.103097222    0.103097222
   0.103417401    0.103417401    0.103417401
   0.1037375801    0.1037375801    0.1037375801
   0.1040577591    0.1040577591    0.1040577591
   0.1043779376    0.1043779376    0.1043779376
   0.1046981153    0.1046981153    0.1046981153
   0.1050182922    0.1050182922    0.1050182922
   0.1053384684    0.1053384684    0.1053384684
   0.1056586443    0.1056586443    0.1056586443
   0.1059788201    0.1059788201    0.1059788201
   0.1062989962    0.1062989962    0.1062989962
   0.1066191728    0.1066191728    0.1066191728
   0.1069393503    0.1069393503    0.1069393503
   0.1072595284    0.1072595284    0.1072595284
   0.1075797068    0.1075797068    0.1075797068
   0.1078998854    0.1078998854    0.1078998854
   0.108220064    0.108220064    0.108220064
   0.1085402424    0.1085402424    0.1085402424
   0.1088604203    0.1088604203    0.1088604203
   0.1091805978    0.1091805978    0.1091805978
   0.1095007749    0.1095007749    0.1095007749
   0.109820952    0.109820952    0.109820952
   0.1101411292    0.1101411292    0.1101411292
   0.1104613068    0.1104613068    0.1104613068
   0.110781485    0.110781485    0.110781485
   0.1111016642    0.1111016642    0.1111016642
   0.1114218443    0.1114218443    0.1114218443
   0.1117420248    0.1117420248    0.1117420248
   0.1120622053    0.1120622053    0.1120622053
   0.1123823854    0.1123823854    0.1123823854
   0.1127025645    0.1127025645    0.1127025645
   0.1130227424    0.1130227424    0.1130227424
   0.113342919    0.113342919    0.113342919
   0.1136630948    0.1136630948    0.1136630948
   0.1139832701    0.1139832701    0.1139832701
   0.1143034454    0.1143034454    0.1143034454
   0.114623621    0.114623621    0.114623621
   0.1149437973    0.1149437973    0.1149437973
   0.1152639743    0.1152639743    0.1152639743
   0.1155841515    0.1155841515    0.1155841515
   0.1159043289    0.1159043289    0.1159043289
   0.1162245066    0.1162245066    0.1162245066
   0.1165446843    0.1165446843    0.1165446843
   0.1168648622    0.1168648622    0.1168648622
   0.1171850402    0.1171850402    0.1171850402
   0.1175052184    0.1175052184    0.1175052184
   0.1178253968    0.1178253968    0.1178253968
   0.1181455753    0.1181455753    0.1181455753
   0.1184657537    0.1184657537    0.1184657537
   0.1187859319    0.1187859319    0.1187859319
   0.1191061099    0.1191061099    0.1191061099
   0.1194262873    0.1194262873    0.1194262873
   0.1197464645    0.1197464645    0.1197464645
   0.1200666416    0.1200666416    0.1200666416
   0.1203868188    0.1203868188    0.1203868188
   0.1207069964    0.1207069964    0.1207069964
   0.1210271745    0.1210271745    0.1210271745
   0.1213473537    0.1213473537    0.1213473537
   0.1216675339    0.1216675339    0.1216675339
   0.1219877146    0.1219877146    0.1219877146
   0.1223078953    0.1223078953    0.1223078953
   0.1226280753    0.1226280753    0.1226280753
   0.1229482543    0.1229482543    0.1229482543
   0.1232684315    0.1232684315    0.1232684315
   0.123588607    0.123588607    0.123588607
   0.1239087813    0.1239087813    0.1239087813
   0.1242289551    0.1242289551    0.1242289551
   0.1245491289    0.1245491289    0.1245491289
   0.1248693035    0.1248693035    0.1248693035
   0.1251894795    0.1251894795    0.1251894795
   0.1255096569    0.1255096569    0.1255096569
   0.1258298354    0.1258298354    0.1258298354
   0.1261500145    0.1261500145    0.1261500145
   0.1264701939    0.1264701939    0.1264701939
   0.126790373    0.126790373    0.126790373
   0.1271105517    0.1271105517    0.1271105517
   0.1274307294    0.1274307294    0.1274307294
   0.1277509066    0.1277509066    0.1277509066
   0.1280710835    0.1280710835    0.1280710835
   0.1283912602    0.1283912602    0.1283912602
   0.1287114371    0.1287114371    0.1287114371
   0.1290316143    0.1290316143    0.1290316143
   0.129351792    0.129351792    0.129351792
   0.1296719702    0.1296719702    0.1296719702
   0.1299921487    0.1299921487    0.1299921487
   0.1303123275    0.1303123275    0.1303123275
   0.1306325064    0.1306325064    0.1306325064
   0.1309526853    0.1309526853    0.1309526853
   0.131272864    0.131272864    0.131272864
   0.1315930427    0.1315930427    0.1315930427
   0.1319132216    0.1319132216    0.1319132216
   0.1322334005    0.1322334005    0.1322334005
   0.1325535793    0.1325535793    0.1325535793
   0.1328737579    0.1328737579    0.1328737579
   0.1331939362    0.1331939362    0.1331939362
   0.1335141141    0.1335141141    0.1335141141
   0.1338342917    0.1338342917    0.1338342917
   0.134154469    0.134154469    0.134154469
   0.1344746461    0.1344746461    0.1344746461
   0.134794823    0.134794823    0.134794823
   0.1351149998    0.1351149998    0.1351149998
   0.1354351765    0.1354351765    0.1354351765
   0.135755353    0.135755353    0.135755353
   0.1360755293    0.1360755293    0.1360755293
   0.1363957054    0.1363957054    0.1363957054
   0.1367158816    0.1367158816    0.1367158816
   0.1370360578    0.1370360578    0.1370360578
   0.1373562342    0.1373562342    0.1373562342
   0.1376764109    0.1376764109    0.1376764109
   0.1379965877    0.1379965877    0.1379965877
   0.1383167645    0.1383167645    0.1383167645
   0.1386369416    0.1386369416    0.1386369416
   0.1389571188    0.1389571188    0.1389571188
   0.1392772963    0.1392772963    0.1392772963
   0.139597474    0.139597474    0.139597474
   0.1399176522    0.1399176522    0.1399176522
   0.1402378308    0.1402378308    0.1402378308
   0.1405580095    0.1405580095    0.1405580095
   0.1408781884    0.1408781884    0.1408781884
   0.1411983673    0.1411983673    0.1411983673
   0.141518546    0.141518546    0.141518546
   0.1418381501    0.1418381501    0.1418381501
   0.1421565693    0.1421565693    0.1421565693
   0.1424746936    0.1424746936    0.1424746936
   0.1427934468    0.1427934468    0.1427934468
   0.1431137529    0.1431137529    0.1431137529
   0.1434365358    0.1434365358    0.1434365358
   0.1437624277    0.1437624277    0.1437624277
   0.1440896844    0.1440896844    0.1440896844
   0.1444184062    0.1444184062    0.1444184062
   0.1447492919    0.1447492919    0.1447492919
   0.1450830403    0.1450830403    0.1450830403
   0.1454203504    0.1454203504    0.1454203504
   0.1457619208    0.1457619208    0.1457619208
   0.1461076795    0.1461076795    0.1461076795
   0.1464570203    0.1464570203    0.1464570203
   0.1468098414    0.1468098414    0.1468098414
   0.1471660411    0.1471660411    0.1471660411
   0.1475255174    0.1475255174    0.1475255174
   0.1478881686    0.1478881686    0.1478881686
   0.1482540245    0.1482540245    0.1482540245
   0.1486234719    0.1486234719    0.1486234719
   0.1489963128    0.1489963128    0.1489963128
   0.1493722817    0.1493722817    0.1493722817
   0.1497511134    0.1497511134    0.1497511134
   0.1501325423    0.1501325423    0.1501325423
   0.1505163175    0.1505163175    0.1505163175
   0.1509027613    0.1509027613    0.1509027613
   0.1512920129    0.1512920129    0.1512920129
   0.1516839404    0.1516839404    0.1516839404
   0.1520784118    0.1520784118    0.1520784118
   0.1524752951    0.1524752951    0.1524752951
   0.1528744584    0.1528744584    0.1528744584
   0.1532761828    0.1532761828    0.1532761828
   0.1536810377    0.1536810377    0.1536810377
   0.154088497    0.154088497    0.154088497
   0.1544979958    0.1544979958    0.1544979958
