ACES1Looks/ACEScct_LUT/T-RED_Tone.spi1d
Version 1
From 0 1.4679964
Length 4096
Components 1
{
		 0
		 0.0004459268157
		 0.0008918536321
		 0.001337780449
		 0.001783707266
		 0.002229634082
		 0.002675560898
		 0.003121487715
		 0.003567414538
		 0.004013341364
		 0.004459268189
		 0.004905195007
		 0.005351121814
		 0.005797048606
		 0.006242975385
		 0.006688902159
		 0.007134828932
		 0.007580755709
		 0.008026682496
		 0.008472609298
		 0.008918536124
		 0.009364462979
		 0.00981038985
		 0.01025631672
		 0.01070224358
		 0.01114817042
		 0.01159409723
		 0.01204002421
		 0.01248595129
		 0.01293187831
		 0.01337780512
		 0.01382373158
		 0.01426965753
		 0.01471558258
		 0.0151615067
		 0.01560743039
		 0.01605335414
		 0.01649927847
		 0.01694520385
		 0.01739113083
		 0.01783705957
		 0.01828298942
		 0.01872891973
		 0.01917484979
		 0.01962077895
		 0.0200667065
		 0.02051263212
		 0.02095855634
		 0.02140447984
		 0.0218504033
		 0.02229632739
		 0.0227422528
		 0.02318818003
		 0.02363410874
		 0.02408003838
		 0.02452596844
		 0.02497189839
		 0.02541782769
		 0.02586375588
		 0.02630968335
		 0.02675561037
		 0.02720153699
		 0.02764746327
		 0.02809338928
		 0.02853931506
		 0.0289852403
		 0.02943116473
		 0.02987708879
		 0.03032301291
		 0.03076893752
		 0.03121486304
		 0.03166078994
		 0.0321067184
		 0.03255264789
		 0.03299857779
		 0.03344450751
		 0.03389043645
		 0.034336364
		 0.03478229
		 0.03522821492
		 0.03567413918
		 0.03612006322
		 0.03656598745
		 0.03701191232
		 0.03745783806
		 0.03790376424
		 0.03834969075
		 0.03879561749
		 0.03924154436
		 0.03968747128
		 0.04013339816
		 0.04057932517
		 0.04102525234
		 0.04147117958
		 0.04191710681
		 0.04236303396
		 0.04280896095
		 0.04325488773
		 0.04370081439
		 0.04414674096
		 0.04459266748
		 0.04503859397
		 0.0454845205
		 0.04593044706
		 0.04637637358
		 0.04682230008
		 0.0472682266
		 0.04771415316
		 0.04816007981
		 0.04860600659
		 0.04905193356
		 0.0494978607
		 0.04994378793
		 0.05038971517
		 0.05083564234
		 0.05128156937
		 0.0517274962
		 0.05217342288
		 0.05261934947
		 0.05306527599
		 0.05351120249
		 0.05395712901
		 0.05440305557
		 0.05484898216
		 0.05529490876
		 0.05574083537
		 0.05618676196
		 0.05663268853
		 0.05707861508
		 0.05752454154
		 0.05797046786
		 0.05841639414
		 0.05886232047
		 0.05930824696
		 0.05975417369
		 0.0602001008
		 0.06064602849
		 0.06109195656
		 0.06153788476
		 0.06198381282
		 0.06242974048
		 0.06287566747
		 0.06332159363
		 0.06376751914
		 0.06421344426
		 0.06465936924
		 0.06510529434
		 0.06555121981
		 0.06599714582
		 0.06644307216
		 0.06688899874
		 0.06733492546
		 0.06778085223
		 0.06822677898
		 0.06867270561
		 0.0691186322
		 0.06956455881
		 0.07001048541
		 0.070456412
		 0.07090233858
		 0.07134826513
		 0.07179419164
		 0.07224011813
		 0.07268604459
		 0.07313197106
		 0.07357789753
		 0.07402382402
		 0.07446975054
		 0.07491567709
		 0.07536160367
		 0.07580753026
		 0.07625345687
		 0.07669938347
		 0.07714531006
		 0.07759123664
		 0.07803716323
		 0.07848308981
		 0.0789290164
		 0.07937494298
		 0.07982086956
		 0.08026679612
		 0.08071272258
		 0.08115864899
		 0.08160457544
		 0.082050502
		 0.08249642874
		 0.08294235574
		 0.08338828314
		 0.08383421086
		 0.08428013874
		 0.08472606663
		 0.08517199438
		 0.08561792181
		 0.08606384885
		 0.08650977561
		 0.08695570218
		 0.08740162864
		 0.08784755505
		 0.0882934815
		 0.08873940805
		 0.08918533463
		 0.08963126122
		 0.0900771878
		 0.09052311439
		 0.09096904097
		 0.09141496755
		 0.09186089414
		 0.09230682072
		 0.09275274731
		 0.09319867389
		 0.09364460047
		 0.09409052706
		 0.09453645364
		 0.09498238024
		 0.09542830684
		 0.09587423345
		 0.09632016003
		 0.0967660866
		 0.09721201314
		 0.09765793964
		 0.09810386612
		 0.09854979259
		 0.09899571905
		 0.09944164552
		 0.09988757202
		 0.1003334986
		 0.1007794251
		 0.1012253517
		 0.1016712783
		 0.1021172049
		 0.1025631315
		 0.1030090581
		 0.1034549847
		 0.1039009113
		 0.1043468378
		 0.1047927644
		 0.105238691
		 0.1056846176
		 0.1061305441
		 0.1065764706
		 0.107022397
		 0.1074683234
		 0.1079142501
		 0.1083601769
		 0.108806104
		 0.1092520316
		 0.1096979596
		 0.1101438877
		 0.1105898156
		 0.1110357431
		 0.11148167
		 0.1119275962
		 0.1123735218
		 0.112819447
		 0.1132653721
		 0.1137112974
		 0.1141572229
		 0.114603149
		 0.1150490752
		 0.1154950017
		 0.1159409283
		 0.116386855
		 0.1168327816
		 0.1172787081
		 0.1177246346
		 0.118170561
		 0.1186164875
		 0.119062414
		 0.1195083404
		 0.119954267
		 0.1204001935
		 0.1208461201
		 0.1212920466
		 0.1217379732
		 0.1221838999
		 0.1226298269
		 0.123075754
		 0.1235216817
		 0.1239676096
		 0.1244135377
		 0.1248594656
		 0.1253053931
		 0.12575132
		 0.1261972461
		 0.1266431716
		 0.1270890967
		 0.1275350217
		 0.127980947
		 0.1284268728
		 0.1288727995
		 0.129318727
		 0.129764655
		 0.1302105832
		 0.1306565112
		 0.1311024388
		 0.1315483656
		 0.1319942914
		 0.1324402165
		 0.1328861412
		 0.133332066
		 0.1337779912
		 0.1342239171
		 0.1346698439
		 0.1351157713
		 0.1355616993
		 0.1360076275
		 0.1364535557
		 0.1368994839
		 0.1373454117
		 0.1377913396
		 0.1382372676
		 0.1386831956
		 0.1391291233
		 0.1395750506
		 0.1400209775
		 0.1404669037
		 0.1409128291
		 0.1413587542
		 0.1418046792
		 0.1422506045
		 0.1426965303
		 0.143142457
		 0.1435883845
		 0.1440343125
		 0.1444802406
		 0.1449261687
		 0.1453720963
		 0.1458180231
		 0.1462639489
		 0.1467098741
		 0.1471557988
		 0.1476017236
		 0.1480476487
		 0.1484935746
		 0.1489395014
		 0.1493854292
		 0.1498313575
		 0.150277286
		 0.1507232142
		 0.1511691419
		 0.1516150686
		 0.1520609941
		 0.1525069188
		 0.1529528432
		 0.1533987679
		 0.1538446933
		 0.1542906201
		 0.1547365487
		 0.1551824791
		 0.1556284103
		 0.1560743416
		 0.1565202721
		 0.156966201
		 0.1574121275
		 0.1578580517
		 0.1583039743
		 0.1587498962
		 0.1591958181
		 0.159641741
		 0.1600876656
		 0.160533592
		 0.1609795195
		 0.1614254478
		 0.1618713763
		 0.1623173045
		 0.162763232
		 0.1632091584
		 0.163655084
		 0.1641010091
		 0.1645469341
		 0.1649928593
		 0.1654387849
		 0.1658847113
		 0.1663306384
		 0.1667765659
		 0.1672224937
		 0.1676684217
		 0.1681143497
		 0.1685602775
		 0.1690062053
		 0.1694521332
		 0.1698980612
		 0.1703439891
		 0.1707899167
		 0.1712358438
		 0.1716817704
		 0.1721276965
		 0.1725736221
		 0.1730195474
		 0.1734654726
		 0.1739113978
		 0.1743573231
		 0.1748032483
		 0.1752491733
		 0.1756950982
		 0.1761410232
		 0.1765869487
		 0.1770328747
		 0.1774791562
		 0.1779265292
		 0.1783742766
		 0.1788215855
		 0.1792676432
		 0.1797116369
		 0.18015332
		 0.1806012717
		 0.1810534303
		 0.1815029535
		 0.1819429993
		 0.1823667255
		 0.1827672899
		 0.1831390471
		 0.1834852629
		 0.1838131304
		 0.1841298574
		 0.1844426515
		 0.1847587202
		 0.1850836391
		 0.1854100022
		 0.1857355518
		 0.1860600811
		 0.1863833836
		 0.1867052524
		 0.1870254813
		 0.1873440597
		 0.1876611491
		 0.1879768338
		 0.1882911983
		 0.1886043269
		 0.188916304
		 0.189226991
		 0.1895358329
		 0.1898432204
		 0.1901496272
		 0.190455527
		 0.1907613937
		 0.1910676692
		 0.1913738888
		 0.1916798133
		 0.1919855423
		 0.1922911752
		 0.1925968114
		 0.1929025503
		 0.1932084173
		 0.1935143076
		 0.1938202088
		 0.1941261118
		 0.1944320071
		 0.1947378855
		 0.1950437404
		 0.1953495875
		 0.1956554266
		 0.1959612524
		 0.1962670595
		 0.1965728426
		 0.1968785961
		 0.1971843181
		 0.1974900125
		 0.1977956831
		 0.1981013335
		 0.1984069675
		 0.1987125886
		 0.1990181638
		 0.1993235824
		 0.1996289287
		 0.1999343071
		 0.2002398222
		 0.2005455783
		 0.2008516758
		 0.2011580318
		 0.2014645837
		 0.2017713439
		 0.2020783249
		 0.2023855392
		 0.2026929993
		 0.2030007128
		 0.203308671
		 0.2036168663
		 0.2039252912
		 0.2042339384
		 0.2045428005
		 0.2048518723
		 0.2051611714
		 0.205470696
		 0.2057804371
		 0.2060903857
		 0.2064005329
		 0.2067108698
		 0.2070214066
		 0.2073321556
		 0.2076431061
		 0.207954247
		 0.2082655673
		 0.2085770561
		 0.208888709
		 0.2092005487
		 0.2095125701
		 0.2098247634
		 0.2101371191
		 0.2104496276
		 0.2107622796
		 0.2110750899
		 0.2113880641
		 0.2117011938
		 0.2120144702
		 0.2123278849
		 0.2126414294
		 0.2129551065
		 0.2132689361
		 0.2135829077
		 0.2138970093
		 0.2142112289
		 0.2145255544
		 0.2148399103
		 0.2151535944
		 0.2154668934
		 0.2157804187
		 0.2160947817
		 0.2164105938
		 0.2167284665
		 0.2170488454
		 0.2173713733
		 0.217695451
		 0.2180204791
		 0.2183458582
		 0.2186709889
		 0.2189954609
		 0.2193199879
		 0.2196446807
		 0.2199694937
		 0.2202943816
		 0.2206192988
		 0.2209442005
		 0.2212691186
		 0.2215940869
		 0.2219190956
		 0.2222441349
		 0.222569195
		 0.2228942661
		 0.223219348
		 0.2235444597
		 0.2238695945
		 0.2241947435
		 0.224519898
		 0.2248450492
		 0.2251701898
		 0.225495338
		 0.2258204945
		 0.2261456501
		 0.2264707954
		 0.2267959211
		 0.2271210179
		 0.2274460899
		 0.2277711504
		 0.2280961931
		 0.2284212115
		 0.2287461991
		 0.2290711492
		 0.2293960589
		 0.2297209454
		 0.2300458045
		 0.2303706272
		 0.2306954042
		 0.2310201266
		 0.2313447851
		 0.2316693898
		 0.2319939486
		 0.2323184551
		 0.2326429025
		 0.2329672841
		 0.2332915935
		 0.2336158307
		 0.2339400118
		 0.2342641301
		 0.2345881767
		 0.234912143
		 0.23523602
		 0.2355598002
		 0.2358834981
		 0.2362071166
		 0.2365306484
		 0.2368540866
		 0.237177424
		 0.2375006536
		 0.237823778
		 0.238146809
		 0.2384697409
		 0.2387925675
		 0.2391152829
		 0.239437881
		 0.2397603407
		 0.2400825638
		 0.2404046079
		 0.2407265642
		 0.2410485237
		 0.2413705776
		 0.2416928167
		 0.2420140083
		 0.2423338138
		 0.2426535403
		 0.2429744953
		 0.2432979859
		 0.2436253195
		 0.2439577576
		 0.2442952378
		 0.244636361
		 0.2449796761
		 0.2453237318
		 0.245667077
		 0.2460083227
		 0.2463484718
		 0.2466883972
		 0.2470280956
		 0.2473675637
		 0.2477067982
		 0.2480457957
		 0.2483845571
		 0.2487230881
		 0.2490613862
		 0.2493994485
		 0.2497372723
		 0.2500748546
		 0.2504121892
		 0.2507492483
		 0.2510860475
		 0.2514226132
		 0.2517589717
		 0.2520951495
		 0.252431173
		 0.2527670399
		 0.2531027259
		 0.2534382287
		 0.253773546
		 0.2541086753
		 0.2544436143
		 0.2547783632
		 0.255112931
		 0.2554473135
		 0.2557815048
		 0.256115499
		 0.2564492903
		 0.256782873
		 0.2571162564
		 0.2574494437
		 0.2577824296
		 0.258115209
		 0.2584477766
		 0.2587801272
		 0.2591122611
		 0.2594441873
		 0.2597759026
		 0.2601074032
		 0.2604386851
		 0.2607697447
		 0.2611005791
		 0.2614311984
		 0.2617616016
		 0.262091783
		 0.2624217371
		 0.2627514585
		 0.2630809414
		 0.2634098854
		 0.2637381388
		 0.2640660809
		 0.2643940932
		 0.264722557
		 0.2650518537
		 0.2653818536
		 0.2657105361
		 0.2660388974
		 0.2663684065
		 0.2667005325
		 0.2670367447
		 0.2673785173
		 0.2677271158
		 0.2680813941
		 0.2684394378
		 0.2687993327
		 0.2691591643
		 0.2695170183
		 0.2698721086
		 0.2702266672
		 0.2705808596
		 0.2709346798
		 0.2712881218
		 0.2716411798
		 0.2719938484
		 0.2723461336
		 0.2726980381
		 0.2730495609
		 0.2734007013
		 0.2737514585
		 0.2741018318
		 0.2744518229
		 0.2748014338
		 0.2751506623
		 0.2754995057
		 0.2758479616
		 0.2761960276
		 0.2765437027
		 0.2768909938
		 0.2772378991
		 0.2775844146
		 0.2779305364
		 0.2782762606
		 0.2786215835
		 0.278966506
		 0.2793110312
		 0.2796551595
		 0.2799988917
		 0.2803422283
		 0.2806851698
		 0.2810277183
		 0.2813698769
		 0.2817116419
		 0.2820530093
		 0.2823939749
		 0.2827345348
		 0.2830746851
		 0.2834144287
		 0.283753768
		 0.284092703
		 0.2844312342
		 0.2847693616
		 0.2851070856
		 0.285443764
		 0.2857788121
		 0.2861131742
		 0.2864478201
		 0.2867837196
		 0.2871218423
		 0.2874629769
		 0.2878062878
		 0.288151376
		 0.288498085
		 0.288846258
		 0.2891957383
		 0.2895463701
		 0.28989902
		 0.2902539621
		 0.2906103308
		 0.2909672603
		 0.291323885
		 0.2916793392
		 0.2920331464
		 0.2923863104
		 0.2927389578
		 0.2930910895
		 0.2934427063
		 0.2937938091
		 0.2941443988
		 0.2944944743
		 0.2948440353
		 0.295193082
		 0.2955416147
		 0.2958896336
		 0.296237139
		 0.2965841297
		 0.2969306041
		 0.2972765641
		 0.2976220116
		 0.2979669486
		 0.2983113769
		 0.2986552984
		 0.2989987119
		 0.2993416165
		 0.2996840112
		 0.3000258952
		 0.3003672677
		 0.3007081279
		 0.3010484656
		 0.3013882784
		 0.301727578
		 0.3020663763
		 0.302404685
		 0.3027425159
		 0.3030798531
		 0.3034166095
		 0.3037528398
		 0.3040886154
		 0.3044240077
		 0.3047590879
		 0.3050938826
		 0.305426765
		 0.3057579282
		 0.3060888046
		 0.3064208267
		 0.306755427
		 0.3070940379
		 0.3074376419
		 0.3077853579
		 0.3081361725
		 0.308489094
		 0.3088431307
		 0.3091972908
		 0.3095507797
		 0.3099050825
		 0.310260361
		 0.3106161457
		 0.310971967
		 0.3113273553
		 0.3116818411
		 0.3120354677
		 0.3123886983
		 0.3127415334
		 0.3130939725
		 0.3134460147
		 0.3137976592
		 0.3141489053
		 0.3144997529
		 0.3148502027
		 0.3152002558
		 0.315549913
		 0.3158991751
		 0.316248043
		 0.3165965174
		 0.3169445977
		 0.3172922827
		 0.3176395713
		 0.3179864624
		 0.3183329549
		 0.3186790475
		 0.3190247403
		 0.3193700347
		 0.3197149324
		 0.3200594349
		 0.3204035439
		 0.320747261
		 0.3210905874
		 0.3214335212
		 0.3217760604
		 0.3221182028
		 0.3224599462
		 0.3228012884
		 0.3231414811
		 0.3234800465
		 0.3238179774
		 0.3241562774
		 0.3244959498
		 0.3248379979
		 0.3251832286
		 0.325530929
		 0.325880599
		 0.3262318886
		 0.3265844479
		 0.3269379268
		 0.3272919832
		 0.327647475
		 0.3280046866
		 0.3283629306
		 0.3287215196
		 0.3290797662
		 0.3294369829
		 0.3297928519
		 0.3301481719
		 0.3305030188
		 0.3308573961
		 0.331211307
		 0.3315647548
		 0.3319177425
		 0.3322702684
		 0.3326223304
		 0.3329739279
		 0.3333250601
		 0.3336757265
		 0.3340259264
		 0.334375659
		 0.3347249245
		 0.3350737239
		 0.3354220581
		 0.3357699279
		 0.3361173344
		 0.3364642774
		 0.336810751
		 0.3371567578
		 0.337502302
		 0.3378473878
		 0.3381920197
		 0.3385362018
		 0.3388799301
		 0.3392232008
		 0.3395660164
		 0.3399083796
		 0.3402502931
		 0.3405917593
		 0.3409320781
		 0.3412694961
		 0.3416055531
		 0.3419420642
		 0.3422808443
		 0.3426237084
		 0.3429724553
		 0.343327608
		 0.3436876819
		 0.3440510376
		 0.3444160352
		 0.3447810353
		 0.3451443981
		 0.3455059392
		 0.3458676319
		 0.3462293206
		 0.3465907844
		 0.3469518024
		 0.3473121536
		 0.347671658
		 0.3480305326
		 0.3483888561
		 0.348746635
		 0.3491038755
		 0.349460584
		 0.3498167669
		 0.3501724214
		 0.3505275412
		 0.3508821279
		 0.3512361832
		 0.3515897084
		 0.3519427053
		 0.3522951727
		 0.3526471031
		 0.3529985009
		 0.3533493717
		 0.3536997213
		 0.3540495553
		 0.3543988791
		 0.3547476895
		 0.3550959828
		 0.3554437587
		 0.3557910168
		 0.3561377568
		 0.3564839784
		 0.356829162
		 0.3571726241
		 0.3575152347
		 0.3578579159
		 0.3582015894
		 0.3585471771
		 0.3588954888
		 0.3592458711
		 0.3595978606
		 0.3599512547
		 0.3603058507
		 0.360661446
		 0.3610178379
		 0.3613757195
		 0.3617355611
		 0.3620965639
		 0.362457927
		 0.3628188498
		 0.3631785313
		 0.3635364495
		 0.3638935066
		 0.3642498683
		 0.3646055399
		 0.3649605267
		 0.3653148342
		 0.3656684673
		 0.3660214159
		 0.366373677
		 0.3667252572
		 0.3670761632
		 0.3674264016
		 0.3677759791
		 0.3681248953
		 0.3684731383
		 0.3688207125
		 0.3691676231
		 0.3695138756
		 0.3698594752
		 0.3702044261
		 0.3705487169
		 0.3708923478
		 0.3712353244
		 0.3715776525
		 0.3719193377
		 0.3722603858
		 0.3726001499
		 0.3729382487
		 0.3732755184
		 0.3736128016
		 0.3739509412
		 0.3742907798
		 0.3746328927
		 0.3749762706
		 0.3753207618
		 0.3756664356
		 0.3760133618
		 0.3763616097
		 0.3767112579
		 0.3770632533
		 0.3774175345
		 0.3777731567
		 0.378129175
		 0.3784846447
		 0.3788386208
		 0.3791906873
		 0.3795419381
		 0.3798924725
		 0.3802422985
		 0.3805914241
		 0.3809398573
		 0.381287605
		 0.3816346552
		 0.3819810057
		 0.3823266612
		 0.3826716262
		 0.3830159056
		 0.3833595039
		 0.3837024148
		 0.3840446282
		 0.3843861533
		 0.3847269996
		 0.3850671768
		 0.3854066941
		 0.3857455581
		 0.3860837538
		 0.3864212813
		 0.3867581448
		 0.3870943482
		 0.3874298956
		 0.3877647874
		 0.3880979106
		 0.3884291591
		 0.3887596607
		 0.3890905436
		 0.3894229356
		 0.3897579647
		 0.3900963863
		 0.390437318
		 0.3907802256
		 0.3911246523
		 0.3914701411
		 0.3918162353
		 0.3921625484
		 0.3925102387
		 0.3928593371
		 0.3932091396
		 0.3935589422
		 0.3939080407
		 0.3942557312
		 0.3946018885
		 0.3949472827
		 0.3952919461
		 0.3956358907
		 0.3959791282
		 0.3963216707
		 0.3966635271
		 0.3970046815
		 0.397345132
		 0.3976848816
		 0.3980239335
		 0.3983622906
		 0.3986999561
		 0.3990369211
		 0.3993731815
		 0.3997087456
		 0.400043622
		 0.4003778192
		 0.4007113455
		 0.4010442027
		 0.4013763712
		 0.4017078576
		 0.4020386714
		 0.4023688221
		 0.4026983193
		 0.4030271081
		 0.4033533974
		 0.4036775393
		 0.4040011213
		 0.404325731
		 0.404652956
		 0.4049843839
		 0.4053212982
		 0.4056629825
		 0.4060079266
		 0.4063546192
		 0.4067015487
		 0.407047204
		 0.4073903364
		 0.4077325542
		 0.4080743589
		 0.4084156438
		 0.4087563024
		 0.4090962281
		 0.4094353145
		 0.4097735692
		 0.4101110895
		 0.4104478865
		 0.4107839716
		 0.411119356
		 0.4114540509
		 0.4117880219
		 0.4121211169
		 0.4124534379
		 0.4127851187
		 0.4131162926
		 0.4134470932
		 0.4137776479
		 0.4141077591
		 0.4144373531
		 0.4147665369
		 0.4150954176
		 0.4154241021
		 0.4157526975
		 0.4160808186
		 0.4164077074
		 0.4167341005
		 0.4170607987
		 0.417388603
		 0.417718314
		 0.4180505815
		 0.418384177
		 0.4187189664
		 0.4190553672
		 0.4193937971
		 0.4197346736
		 0.4200784143
		 0.420425964
		 0.4207774091
		 0.4211315267
		 0.4214870896
		 0.4218428706
		 0.4221976423
		 0.4225505618
		 0.4229029962
		 0.423255226
		 0.4236072547
		 0.4239590856
		 0.4243107221
		 0.4246621676
		 0.4250134141
		 0.4253644596
		 0.4257153097
		 0.4260659702
		 0.426416447
		 0.4267667457
		 0.4271168675
		 0.4274668033
		 0.4278165551
		 0.4281661255
		 0.4285155174
		 0.4288647333
		 0.4292137753
		 0.4295626343
		 0.4299113114
		 0.4302598123
		 0.4306081429
		 0.4309563088
		 0.431304316
		 0.4316511344
		 0.4319960322
		 0.4323404115
		 0.432685694
		 0.4330333016
		 0.4333846562
		 0.4337411189
		 0.4341026919
		 0.4344680467
		 0.4348358001
		 0.4352045687
		 0.4355729692
		 0.4359396257
		 0.436305146
		 0.4366706235
		 0.4370360212
		 0.4374013017
		 0.4377664279
		 0.4381313626
		 0.4384960854
		 0.4388606343
		 0.4392250186
		 0.4395892441
		 0.4399533166
		 0.4403172419
		 0.4406810251
		 0.4410446581
		 0.4414081389
		 0.4417714706
		 0.4421346563
		 0.4424976989
		 0.4428606015
		 0.4432233615
		 0.4435859726
		 0.4439484393
		 0.4443107664
		 0.4446729588
		 0.445035021
		 0.4453970769
		 0.4457598432
		 0.4461229192
		 0.4464856723
		 0.4468474701
		 0.4472076799
		 0.4475656696
		 0.4479213618
		 0.4482752515
		 0.4486276261
		 0.4489787731
		 0.4493289802
		 0.4496785348
		 0.45002746
		 0.4503750636
		 0.4507216088
		 0.4510674608
		 0.4514129843
		 0.4517585443
		 0.4521044875
		 0.452450549
		 0.4527965168
		 0.4531423947
		 0.453488186
		 0.4538338944
		 0.4541795234
		 0.4545250675
		 0.4548705154
		 0.455215877
		 0.4555611629
		 0.4559063837
		 0.4562515498
		 0.4565966696
		 0.4569417292
		 0.4572867266
		 0.4576316645
		 0.4579765456
		 0.4583213726
		 0.4586661482
		 0.4590113574
		 0.4593571479
		 0.4597029669
		 0.4600482619
		 0.4603924801
		 0.4607350687
		 0.4610757892
		 0.4614155922
		 0.4617543316
		 0.4620917005
		 0.4624273918
		 0.4627610986
		 0.4630924976
		 0.4634208173
		 0.4637464006
		 0.4640701217
		 0.4643928549
		 0.4647154743
		 0.4650388542
		 0.4653632615
		 0.4656876895
		 0.466012092
		 0.4663364746
		 0.4666608426
		 0.4669852018
		 0.4673095566
		 0.4676338999
		 0.4679582302
		 0.4682825493
		 0.4686068588
		 0.4689311605
		 0.469255456
		 0.4695797416
		 0.469904014
		 0.4702282776
		 0.4705525368
		 0.4708767959
		 0.4712010595
		 0.4715254356
		 0.4718503218
		 0.4721754347
		 0.4725003995
		 0.4728248409
		 0.4731483841
		 0.4734706788
		 0.4737930856
		 0.4741157877
		 0.4744377003
		 0.4747577387
		 0.4750748182
		 0.4753878541
		 0.4756957074
		 0.4759984023
		 0.4762973663
		 0.4765940691
		 0.4768899802
		 0.4771865695
		 0.4774851482
		 0.4777844127
		 0.4780836972
		 0.478383005
		 0.4786823391
		 0.478981703
		 0.4792810999
		 0.4795805302
		 0.4798799908
		 0.4801794812
		 0.4804790007
		 0.4807785487
		 0.4810781247
		 0.4813777268
		 0.4816773498
		 0.4819769976
		 0.4822766756
		 0.4825763893
		 0.4828761441
		 0.483175946
		 0.4834758836
		 0.4837759548
		 0.4840760704
		 0.4843761415
		 0.4846760791
		 0.4849757943
		 0.485275705
		 0.4855768675
		 0.4858783634
		 0.4861791415
		 0.4864781503
		 0.4867743385
		 0.4870666543
		 0.4873546294
		 0.4876392123
		 0.4879215497
		 0.4882027886
		 0.4884840759
		 0.4887665585
		 0.4890503585
		 0.4893342371
		 0.4896181698
		 0.4899021556
		 0.490186194
		 0.490470284
		 0.4907544243
		 0.4910386109
		 0.4913228468
		 0.4916071362
		 0.4918914831
		 0.4921758917
		 0.4924603661
		 0.4927449036
		 0.4930295006
		 0.4933141584
		 0.4935988784
		 0.493883662
		 0.4941685104
		 0.4944534236
		 0.4947383976
		 0.4950234342
		 0.4953085359
		 0.495593705
		 0.4958789439
		 0.496164352
		 0.4964520429
		 0.4967414926
		 0.4970308458
		 0.4973182469
		 0.4976018404
		 0.4978797708
		 0.4981504713
		 0.4984147327
		 0.4986744822
		 0.4989316532
		 0.4991881795
		 0.4994459946
		 0.4997066483
		 0.4999680553
		 0.5002296217
		 0.5004914526
		 0.5007536529
		 0.5010163276
		 0.5012795818
		 0.5015433801
		 0.5018076251
		 0.5020723286
		 0.5023375025
		 0.5026031586
		 0.5028693088
		 0.5031359552
		 0.5034030701
		 0.5036706629
		 0.5039387474
		 0.5042073376
		 0.5044764475
		 0.5047460901
		 0.5050162409
		 0.505286894
		 0.505558063
		 0.5058297615
		 0.506102003
		 0.5063748011
		 0.5066491727
		 0.506926436
		 0.5072048934
		 0.5074827471
		 0.5077581994
		 0.5080294526
		 0.5082947565
		 0.5085539087
		 0.5088084839
		 0.5090601458
		 0.5093105583
		 0.5095613855
		 0.5098142911
		 0.5100689592
		 0.5103237388
		 0.5105787541
		 0.5108341323
		 0.511090001
