ACES1Looks/ACEScct_LUT/T-RED_Tone.cube
# This file is automagically generated by clfutil 0.1.0 from T-RED_Tone.clf
LUT_1D_SIZE 4096
LUT_1D_INPUT_RANGE 0.0 1.4679964
  
   0    0    0
   0.0004459268157    0.0004459268157    0.0004459268157
   0.0008918536321    0.0008918536321    0.0008918536321
   0.001337780449    0.001337780449    0.001337780449
   0.001783707266    0.001783707266    0.001783707266
   0.002229634082    0.002229634082    0.002229634082
   0.002675560898    0.002675560898    0.002675560898
   0.003121487715    0.003121487715    0.003121487715
   0.003567414538    0.003567414538    0.003567414538
   0.004013341364    0.004013341364    0.004013341364
   0.004459268189    0.004459268189    0.004459268189
   0.004905195007    0.004905195007    0.004905195007
   0.005351121814    0.005351121814    0.005351121814
   0.005797048606    0.005797048606    0.005797048606
   0.006242975385    0.006242975385    0.006242975385
   0.006688902159    0.006688902159    0.006688902159
   0.007134828932    0.007134828932    0.007134828932
   0.007580755709    0.007580755709    0.007580755709
   0.008026682496    0.008026682496    0.008026682496
   0.008472609298    0.008472609298    0.008472609298
   0.008918536124    0.008918536124    0.008918536124
   0.009364462979    0.009364462979    0.009364462979
   0.00981038985    0.00981038985    0.00981038985
   0.01025631672    0.01025631672    0.01025631672
   0.01070224358    0.01070224358    0.01070224358
   0.01114817042    0.01114817042    0.01114817042
   0.01159409723    0.01159409723    0.01159409723
   0.01204002421    0.01204002421    0.01204002421
   0.01248595129    0.01248595129    0.01248595129
   0.01293187831    0.01293187831    0.01293187831
   0.01337780512    0.01337780512    0.01337780512
   0.01382373158    0.01382373158    0.01382373158
   0.01426965753    0.01426965753    0.01426965753
   0.01471558258    0.01471558258    0.01471558258
   0.0151615067    0.0151615067    0.0151615067
   0.01560743039    0.01560743039    0.01560743039
   0.01605335414    0.01605335414    0.01605335414
   0.01649927847    0.01649927847    0.01649927847
   0.01694520385    0.01694520385    0.01694520385
   0.01739113083    0.01739113083    0.01739113083
   0.01783705957    0.01783705957    0.01783705957
   0.01828298942    0.01828298942    0.01828298942
   0.01872891973    0.01872891973    0.01872891973
   0.01917484979    0.01917484979    0.01917484979
   0.01962077895    0.01962077895    0.01962077895
   0.0200667065    0.0200667065    0.0200667065
   0.02051263212    0.02051263212    0.02051263212
   0.02095855634    0.02095855634    0.02095855634
   0.02140447984    0.02140447984    0.02140447984
   0.0218504033    0.0218504033    0.0218504033
   0.02229632739    0.02229632739    0.02229632739
   0.0227422528    0.0227422528    0.0227422528
   0.02318818003    0.02318818003    0.02318818003
   0.02363410874    0.02363410874    0.02363410874
   0.02408003838    0.02408003838    0.02408003838
   0.02452596844    0.02452596844    0.02452596844
   0.02497189839    0.02497189839    0.02497189839
   0.02541782769    0.02541782769    0.02541782769
   0.02586375588    0.02586375588    0.02586375588
   0.02630968335    0.02630968335    0.02630968335
   0.02675561037    0.02675561037    0.02675561037
   0.02720153699    0.02720153699    0.02720153699
   0.02764746327    0.02764746327    0.02764746327
   0.02809338928    0.02809338928    0.02809338928
   0.02853931506    0.02853931506    0.02853931506
   0.0289852403    0.0289852403    0.0289852403
   0.02943116473    0.02943116473    0.02943116473
   0.02987708879    0.02987708879    0.02987708879
   0.03032301291    0.03032301291    0.03032301291
   0.03076893752    0.03076893752    0.03076893752
   0.03121486304    0.03121486304    0.03121486304
   0.03166078994    0.03166078994    0.03166078994
   0.0321067184    0.0321067184    0.0321067184
   0.03255264789    0.03255264789    0.03255264789
   0.03299857779    0.03299857779    0.03299857779
   0.03344450751    0.03344450751    0.03344450751
   0.03389043645    0.03389043645    0.03389043645
   0.034336364    0.034336364    0.034336364
   0.03478229    0.03478229    0.03478229
   0.03522821492    0.03522821492    0.03522821492
   0.03567413918    0.03567413918    0.03567413918
   0.03612006322    0.03612006322    0.03612006322
   0.03656598745    0.03656598745    0.03656598745
   0.03701191232    0.03701191232    0.03701191232
   0.03745783806    0.03745783806    0.03745783806
   0.03790376424    0.03790376424    0.03790376424
   0.03834969075    0.03834969075    0.03834969075
   0.03879561749    0.03879561749    0.03879561749
   0.03924154436    0.03924154436    0.03924154436
   0.03968747128    0.03968747128    0.03968747128
   0.04013339816    0.04013339816    0.04013339816
   0.04057932517    0.04057932517    0.04057932517
   0.04102525234    0.04102525234    0.04102525234
   0.04147117958    0.04147117958    0.04147117958
   0.04191710681    0.04191710681    0.04191710681
   0.04236303396    0.04236303396    0.04236303396
   0.04280896095    0.04280896095    0.04280896095
   0.04325488773    0.04325488773    0.04325488773
   0.04370081439    0.04370081439    0.04370081439
   0.04414674096    0.04414674096    0.04414674096
   0.04459266748    0.04459266748    0.04459266748
   0.04503859397    0.04503859397    0.04503859397
   0.0454845205    0.0454845205    0.0454845205
   0.04593044706    0.04593044706    0.04593044706
   0.04637637358    0.04637637358    0.04637637358
   0.04682230008    0.04682230008    0.04682230008
   0.0472682266    0.0472682266    0.0472682266
   0.04771415316    0.04771415316    0.04771415316
   0.04816007981    0.04816007981    0.04816007981
   0.04860600659    0.04860600659    0.04860600659
   0.04905193356    0.04905193356    0.04905193356
   0.0494978607    0.0494978607    0.0494978607
   0.04994378793    0.04994378793    0.04994378793
   0.05038971517    0.05038971517    0.05038971517
   0.05083564234    0.05083564234    0.05083564234
   0.05128156937    0.05128156937    0.05128156937
   0.0517274962    0.0517274962    0.0517274962
   0.05217342288    0.05217342288    0.05217342288
   0.05261934947    0.05261934947    0.05261934947
   0.05306527599    0.05306527599    0.05306527599
   0.05351120249    0.05351120249    0.05351120249
   0.05395712901    0.05395712901    0.05395712901
   0.05440305557    0.05440305557    0.05440305557
   0.05484898216    0.05484898216    0.05484898216
   0.05529490876    0.05529490876    0.05529490876
   0.05574083537    0.05574083537    0.05574083537
   0.05618676196    0.05618676196    0.05618676196
   0.05663268853    0.05663268853    0.05663268853
   0.05707861508    0.05707861508    0.05707861508
   0.05752454154    0.05752454154    0.05752454154
   0.05797046786    0.05797046786    0.05797046786
   0.05841639414    0.05841639414    0.05841639414
   0.05886232047    0.05886232047    0.05886232047
   0.05930824696    0.05930824696    0.05930824696
   0.05975417369    0.05975417369    0.05975417369
   0.0602001008    0.0602001008    0.0602001008
   0.06064602849    0.06064602849    0.06064602849
   0.06109195656    0.06109195656    0.06109195656
   0.06153788476    0.06153788476    0.06153788476
   0.06198381282    0.06198381282    0.06198381282
   0.06242974048    0.06242974048    0.06242974048
   0.06287566747    0.06287566747    0.06287566747
   0.06332159363    0.06332159363    0.06332159363
   0.06376751914    0.06376751914    0.06376751914
   0.06421344426    0.06421344426    0.06421344426
   0.06465936924    0.06465936924    0.06465936924
   0.06510529434    0.06510529434    0.06510529434
   0.06555121981    0.06555121981    0.06555121981
   0.06599714582    0.06599714582    0.06599714582
   0.06644307216    0.06644307216    0.06644307216
   0.06688899874    0.06688899874    0.06688899874
   0.06733492546    0.06733492546    0.06733492546
   0.06778085223    0.06778085223    0.06778085223
   0.06822677898    0.06822677898    0.06822677898
   0.06867270561    0.06867270561    0.06867270561
   0.0691186322    0.0691186322    0.0691186322
   0.06956455881    0.06956455881    0.06956455881
   0.07001048541    0.07001048541    0.07001048541
   0.070456412    0.070456412    0.070456412
   0.07090233858    0.07090233858    0.07090233858
   0.07134826513    0.07134826513    0.07134826513
   0.07179419164    0.07179419164    0.07179419164
   0.07224011813    0.07224011813    0.07224011813
   0.07268604459    0.07268604459    0.07268604459
   0.07313197106    0.07313197106    0.07313197106
   0.07357789753    0.07357789753    0.07357789753
   0.07402382402    0.07402382402    0.07402382402
   0.07446975054    0.07446975054    0.07446975054
   0.07491567709    0.07491567709    0.07491567709
   0.07536160367    0.07536160367    0.07536160367
   0.07580753026    0.07580753026    0.07580753026
   0.07625345687    0.07625345687    0.07625345687
   0.07669938347    0.07669938347    0.07669938347
   0.07714531006    0.07714531006    0.07714531006
   0.07759123664    0.07759123664    0.07759123664
   0.07803716323    0.07803716323    0.07803716323
   0.07848308981    0.07848308981    0.07848308981
   0.0789290164    0.0789290164    0.0789290164
   0.07937494298    0.07937494298    0.07937494298
   0.07982086956    0.07982086956    0.07982086956
   0.08026679612    0.08026679612    0.08026679612
   0.08071272258    0.08071272258    0.08071272258
   0.08115864899    0.08115864899    0.08115864899
   0.08160457544    0.08160457544    0.08160457544
   0.082050502    0.082050502    0.082050502
   0.08249642874    0.08249642874    0.08249642874
   0.08294235574    0.08294235574    0.08294235574
   0.08338828314    0.08338828314    0.08338828314
   0.08383421086    0.08383421086    0.08383421086
   0.08428013874    0.08428013874    0.08428013874
   0.08472606663    0.08472606663    0.08472606663
   0.08517199438    0.08517199438    0.08517199438
   0.08561792181    0.08561792181    0.08561792181
   0.08606384885    0.08606384885    0.08606384885
   0.08650977561    0.08650977561    0.08650977561
   0.08695570218    0.08695570218    0.08695570218
   0.08740162864    0.08740162864    0.08740162864
   0.08784755505    0.08784755505    0.08784755505
   0.0882934815    0.0882934815    0.0882934815
   0.08873940805    0.08873940805    0.08873940805
   0.08918533463    0.08918533463    0.08918533463
   0.08963126122    0.08963126122    0.08963126122
   0.0900771878    0.0900771878    0.0900771878
   0.09052311439    0.09052311439    0.09052311439
   0.09096904097    0.09096904097    0.09096904097
   0.09141496755    0.09141496755    0.09141496755
   0.09186089414    0.09186089414    0.09186089414
   0.09230682072    0.09230682072    0.09230682072
   0.09275274731    0.09275274731    0.09275274731
   0.09319867389    0.09319867389    0.09319867389
   0.09364460047    0.09364460047    0.09364460047
   0.09409052706    0.09409052706    0.09409052706
   0.09453645364    0.09453645364    0.09453645364
   0.09498238024    0.09498238024    0.09498238024
   0.09542830684    0.09542830684    0.09542830684
   0.09587423345    0.09587423345    0.09587423345
   0.09632016003    0.09632016003    0.09632016003
   0.0967660866    0.0967660866    0.0967660866
   0.09721201314    0.09721201314    0.09721201314
   0.09765793964    0.09765793964    0.09765793964
   0.09810386612    0.09810386612    0.09810386612
   0.09854979259    0.09854979259    0.09854979259
   0.09899571905    0.09899571905    0.09899571905
   0.09944164552    0.09944164552    0.09944164552
   0.09988757202    0.09988757202    0.09988757202
   0.1003334986    0.1003334986    0.1003334986
   0.1007794251    0.1007794251    0.1007794251
   0.1012253517    0.1012253517    0.1012253517
   0.1016712783    0.1016712783    0.1016712783
   0.1021172049    0.1021172049    0.1021172049
   0.1025631315    0.1025631315    0.1025631315
   0.1030090581    0.1030090581    0.1030090581
   0.1034549847    0.1034549847    0.1034549847
   0.1039009113    0.1039009113    0.1039009113
   0.1043468378    0.1043468378    0.1043468378
   0.1047927644    0.1047927644    0.1047927644
   0.105238691    0.105238691    0.105238691
   0.1056846176    0.1056846176    0.1056846176
   0.1061305441    0.1061305441    0.1061305441
   0.1065764706    0.1065764706    0.1065764706
   0.107022397    0.107022397    0.107022397
   0.1074683234    0.1074683234    0.1074683234
   0.1079142501    0.1079142501    0.1079142501
   0.1083601769    0.1083601769    0.1083601769
   0.108806104    0.108806104    0.108806104
   0.1092520316    0.1092520316    0.1092520316
   0.1096979596    0.1096979596    0.1096979596
   0.1101438877    0.1101438877    0.1101438877
   0.1105898156    0.1105898156    0.1105898156
   0.1110357431    0.1110357431    0.1110357431
   0.11148167    0.11148167    0.11148167
   0.1119275962    0.1119275962    0.1119275962
   0.1123735218    0.1123735218    0.1123735218
   0.112819447    0.112819447    0.112819447
   0.1132653721    0.1132653721    0.1132653721
   0.1137112974    0.1137112974    0.1137112974
   0.1141572229    0.1141572229    0.1141572229
   0.114603149    0.114603149    0.114603149
   0.1150490752    0.1150490752    0.1150490752
   0.1154950017    0.1154950017    0.1154950017
   0.1159409283    0.1159409283    0.1159409283
   0.116386855    0.116386855    0.116386855
   0.1168327816    0.1168327816    0.1168327816
   0.1172787081    0.1172787081    0.1172787081
   0.1177246346    0.1177246346    0.1177246346
   0.118170561    0.118170561    0.118170561
   0.1186164875    0.1186164875    0.1186164875
   0.119062414    0.119062414    0.119062414
   0.1195083404    0.1195083404    0.1195083404
   0.119954267    0.119954267    0.119954267
   0.1204001935    0.1204001935    0.1204001935
   0.1208461201    0.1208461201    0.1208461201
   0.1212920466    0.1212920466    0.1212920466
   0.1217379732    0.1217379732    0.1217379732
   0.1221838999    0.1221838999    0.1221838999
   0.1226298269    0.1226298269    0.1226298269
   0.123075754    0.123075754    0.123075754
   0.1235216817    0.1235216817    0.1235216817
   0.1239676096    0.1239676096    0.1239676096
   0.1244135377    0.1244135377    0.1244135377
   0.1248594656    0.1248594656    0.1248594656
   0.1253053931    0.1253053931    0.1253053931
   0.12575132    0.12575132    0.12575132
   0.1261972461    0.1261972461    0.1261972461
   0.1266431716    0.1266431716    0.1266431716
   0.1270890967    0.1270890967    0.1270890967
   0.1275350217    0.1275350217    0.1275350217
   0.127980947    0.127980947    0.127980947
   0.1284268728    0.1284268728    0.1284268728
   0.1288727995    0.1288727995    0.1288727995
   0.129318727    0.129318727    0.129318727
   0.129764655    0.129764655    0.129764655
   0.1302105832    0.1302105832    0.1302105832
   0.1306565112    0.1306565112    0.1306565112
   0.1311024388    0.1311024388    0.1311024388
   0.1315483656    0.1315483656    0.1315483656
   0.1319942914    0.1319942914    0.1319942914
   0.1324402165    0.1324402165    0.1324402165
   0.1328861412    0.1328861412    0.1328861412
   0.133332066    0.133332066    0.133332066
   0.1337779912    0.1337779912    0.1337779912
   0.1342239171    0.1342239171    0.1342239171
   0.1346698439    0.1346698439    0.1346698439
   0.1351157713    0.1351157713    0.1351157713
   0.1355616993    0.1355616993    0.1355616993
   0.1360076275    0.1360076275    0.1360076275
   0.1364535557    0.1364535557    0.1364535557
   0.1368994839    0.1368994839    0.1368994839
   0.1373454117    0.1373454117    0.1373454117
   0.1377913396    0.1377913396    0.1377913396
   0.1382372676    0.1382372676    0.1382372676
   0.1386831956    0.1386831956    0.1386831956
   0.1391291233    0.1391291233    0.1391291233
   0.1395750506    0.1395750506    0.1395750506
   0.1400209775    0.1400209775    0.1400209775
   0.1404669037    0.1404669037    0.1404669037
   0.1409128291    0.1409128291    0.1409128291
   0.1413587542    0.1413587542    0.1413587542
   0.1418046792    0.1418046792    0.1418046792
   0.1422506045    0.1422506045    0.1422506045
   0.1426965303    0.1426965303    0.1426965303
   0.143142457    0.143142457    0.143142457
   0.1435883845    0.1435883845    0.1435883845
   0.1440343125    0.1440343125    0.1440343125
   0.1444802406    0.1444802406    0.1444802406
   0.1449261687    0.1449261687    0.1449261687
   0.1453720963    0.1453720963    0.1453720963
   0.1458180231    0.1458180231    0.1458180231
   0.1462639489    0.1462639489    0.1462639489
   0.1467098741    0.1467098741    0.1467098741
   0.1471557988    0.1471557988    0.1471557988
   0.1476017236    0.1476017236    0.1476017236
   0.1480476487    0.1480476487    0.1480476487
   0.1484935746    0.1484935746    0.1484935746
   0.1489395014    0.1489395014    0.1489395014
   0.1493854292    0.1493854292    0.1493854292
   0.1498313575    0.1498313575    0.1498313575
   0.150277286    0.150277286    0.150277286
   0.1507232142    0.1507232142    0.1507232142
   0.1511691419    0.1511691419    0.1511691419
   0.1516150686    0.1516150686    0.1516150686
   0.1520609941    0.1520609941    0.1520609941
   0.1525069188    0.1525069188    0.1525069188
   0.1529528432    0.1529528432    0.1529528432
   0.1533987679    0.1533987679    0.1533987679
   0.1538446933    0.1538446933    0.1538446933
   0.1542906201    0.1542906201    0.1542906201
   0.1547365487    0.1547365487    0.1547365487
   0.1551824791    0.1551824791    0.1551824791
   0.1556284103    0.1556284103    0.1556284103
   0.1560743416    0.1560743416    0.1560743416
   0.1565202721    0.1565202721    0.1565202721
   0.156966201    0.156966201    0.156966201
   0.1574121275    0.1574121275    0.1574121275
   0.1578580517    0.1578580517    0.1578580517
   0.1583039743    0.1583039743    0.1583039743
   0.1587498962    0.1587498962    0.1587498962
   0.1591958181    0.1591958181    0.1591958181
   0.159641741    0.159641741    0.159641741
   0.1600876656    0.1600876656    0.1600876656
   0.160533592    0.160533592    0.160533592
   0.1609795195    0.1609795195    0.1609795195
   0.1614254478    0.1614254478    0.1614254478
   0.1618713763    0.1618713763    0.1618713763
   0.1623173045    0.1623173045    0.1623173045
   0.162763232    0.162763232    0.162763232
   0.1632091584    0.1632091584    0.1632091584
   0.163655084    0.163655084    0.163655084
   0.1641010091    0.1641010091    0.1641010091
   0.1645469341    0.1645469341    0.1645469341
   0.1649928593    0.1649928593    0.1649928593
   0.1654387849    0.1654387849    0.1654387849
   0.1658847113    0.1658847113    0.1658847113
   0.1663306384    0.1663306384    0.1663306384
   0.1667765659    0.1667765659    0.1667765659
   0.1672224937    0.1672224937    0.1672224937
   0.1676684217    0.1676684217    0.1676684217
   0.1681143497    0.1681143497    0.1681143497
   0.1685602775    0.1685602775    0.1685602775
   0.1690062053    0.1690062053    0.1690062053
   0.1694521332    0.1694521332    0.1694521332
   0.1698980612    0.1698980612    0.1698980612
   0.1703439891    0.1703439891    0.1703439891
   0.1707899167    0.1707899167    0.1707899167
   0.1712358438    0.1712358438    0.1712358438
   0.1716817704    0.1716817704    0.1716817704
   0.1721276965    0.1721276965    0.1721276965
   0.1725736221    0.1725736221    0.1725736221
   0.1730195474    0.1730195474    0.1730195474
   0.1734654726    0.1734654726    0.1734654726
   0.1739113978    0.1739113978    0.1739113978
   0.1743573231    0.1743573231    0.1743573231
   0.1748032483    0.1748032483    0.1748032483
   0.1752491733    0.1752491733    0.1752491733
   0.1756950982    0.1756950982    0.1756950982
   0.1761410232    0.1761410232    0.1761410232
   0.1765869487    0.1765869487    0.1765869487
   0.1770328747    0.1770328747    0.1770328747
   0.1774791562    0.1774791562    0.1774791562
   0.1779265292    0.1779265292    0.1779265292
   0.1783742766    0.1783742766    0.1783742766
   0.1788215855    0.1788215855    0.1788215855
   0.1792676432    0.1792676432    0.1792676432
   0.1797116369    0.1797116369    0.1797116369
   0.18015332    0.18015332    0.18015332
   0.1806012717    0.1806012717    0.1806012717
   0.1810534303    0.1810534303    0.1810534303
   0.1815029535    0.1815029535    0.1815029535
   0.1819429993    0.1819429993    0.1819429993
   0.1823667255    0.1823667255    0.1823667255
   0.1827672899    0.1827672899    0.1827672899
   0.1831390471    0.1831390471    0.1831390471
   0.1834852629    0.1834852629    0.1834852629
   0.1838131304    0.1838131304    0.1838131304
   0.1841298574    0.1841298574    0.1841298574
   0.1844426515    0.1844426515    0.1844426515
   0.1847587202    0.1847587202    0.1847587202
   0.1850836391    0.1850836391    0.1850836391
   0.1854100022    0.1854100022    0.1854100022
   0.1857355518    0.1857355518    0.1857355518
   0.1860600811    0.1860600811    0.1860600811
   0.1863833836    0.1863833836    0.1863833836
   0.1867052524    0.1867052524    0.1867052524
   0.1870254813    0.1870254813    0.1870254813
   0.1873440597    0.1873440597    0.1873440597
   0.1876611491    0.1876611491    0.1876611491
   0.1879768338    0.1879768338    0.1879768338
   0.1882911983    0.1882911983    0.1882911983
   0.1886043269    0.1886043269    0.1886043269
   0.188916304    0.188916304    0.188916304
   0.189226991    0.189226991    0.189226991
   0.1895358329    0.1895358329    0.1895358329
   0.1898432204    0.1898432204    0.1898432204
   0.1901496272    0.1901496272    0.1901496272
   0.190455527    0.190455527    0.190455527
   0.1907613937    0.1907613937    0.1907613937
   0.1910676692    0.1910676692    0.1910676692
   0.1913738888    0.1913738888    0.1913738888
   0.1916798133    0.1916798133    0.1916798133
   0.1919855423    0.1919855423    0.1919855423
   0.1922911752    0.1922911752    0.1922911752
   0.1925968114    0.1925968114    0.1925968114
   0.1929025503    0.1929025503    0.1929025503
   0.1932084173    0.1932084173    0.1932084173
   0.1935143076    0.1935143076    0.1935143076
   0.1938202088    0.1938202088    0.1938202088
   0.1941261118    0.1941261118    0.1941261118
   0.1944320071    0.1944320071    0.1944320071
   0.1947378855    0.1947378855    0.1947378855
   0.1950437404    0.1950437404    0.1950437404
   0.1953495875    0.1953495875    0.1953495875
   0.1956554266    0.1956554266    0.1956554266
   0.1959612524    0.1959612524    0.1959612524
   0.1962670595    0.1962670595    0.1962670595
   0.1965728426    0.1965728426    0.1965728426
   0.1968785961    0.1968785961    0.1968785961
   0.1971843181    0.1971843181    0.1971843181
   0.1974900125    0.1974900125    0.1974900125
   0.1977956831    0.1977956831    0.1977956831
   0.1981013335    0.1981013335    0.1981013335
   0.1984069675    0.1984069675    0.1984069675
   0.1987125886    0.1987125886    0.1987125886
   0.1990181638    0.1990181638    0.1990181638
   0.1993235824    0.1993235824    0.1993235824
   0.1996289287    0.1996289287    0.1996289287
   0.1999343071    0.1999343071    0.1999343071
   0.2002398222    0.2002398222    0.2002398222
   0.2005455783    0.2005455783    0.2005455783
   0.2008516758    0.2008516758    0.2008516758
   0.2011580318    0.2011580318    0.2011580318
   0.2014645837    0.2014645837    0.2014645837
   0.2017713439    0.2017713439    0.2017713439
   0.2020783249    0.2020783249    0.2020783249
   0.2023855392    0.2023855392    0.2023855392
   0.2026929993    0.2026929993    0.2026929993
   0.2030007128    0.2030007128    0.2030007128
   0.203308671    0.203308671    0.203308671
   0.2036168663    0.2036168663    0.2036168663
   0.2039252912    0.2039252912    0.2039252912
   0.2042339384    0.2042339384    0.2042339384
   0.2045428005    0.2045428005    0.2045428005
   0.2048518723    0.2048518723    0.2048518723
   0.2051611714    0.2051611714    0.2051611714
   0.205470696    0.205470696    0.205470696
   0.2057804371    0.2057804371    0.2057804371
   0.2060903857    0.2060903857    0.2060903857
