ACES1Looks/ACEScct_LUT/T-SONY_Neutral_Tone.spi1d
Version 1
From 0 1.4679964
Length 4096
Components 1
{
		0
		0.0004046018089
		0.0008092036178
		0.001213805427
		0.001618407236
		0.002023009045
		0.002427610854
		0.002832212648
		0.003236814471
		0.003641417321
		0.004046018291
		0.004450612591
		0.004855206817
		0.005259807562
		0.005664410231
		0.006069012107
		0.006473614041
		0.006878215946
		0.007282817852
		0.007687419808
		0.008092021663
		0.008496624111
		0.008901224723
		0.009305819157
		0.009710413633
		0.01011501463
		0.01051961742
		0.01092421894
		0.01132882046
		0.01173342231
		0.01213802427
		0.01254262618
		0.01294722808
		0.01335183091
		0.01375643192
		0.01416102643
		0.01456562084
		0.01497022177
		0.01537482461
		0.01577942662
		0.01618402843
		0.01658862957
		0.0169932307
		0.01739783249
		0.0178024345
		0.01820703733
		0.01861163835
		0.01901623287
		0.01942082727
		0.01982542818
		0.02023003103
		0.02063463294
		0.02103923484
		0.02144383685
		0.02184843866
		0.0222530398
		0.02265764093
		0.02306224272
		0.02346684473
		0.02387144664
		0.02427604854
		0.02468065045
		0.02508525235
		0.02548985426
		0.02589445616
		0.02629905899
		0.02670366003
		0.02710825458
		0.02751284895
		0.02791744984
		0.02832205269
		0.0287266546
		0.02913125651
		0.02953585841
		0.02994046032
		0.03034506222
		0.03074966413
		0.03115426695
		0.03155886801
		0.03196346277
		0.03236805694
		0.0327726563
		0.03317725759
		0.03358185928
		0.03398646138
		0.03439106329
		0.03479566519
		0.0352002671
		0.035604869
		0.03600947182
		0.03641407289
		0.03681866748
		0.03722326181
		0.03762786268
		0.03803246553
		0.03843706744
		0.03884166935
		0.03924627125
		0.03965087316
		0.04005547506
		0.04046007697
		0.04086467978
		0.04126928087
		0.04167387547
		0.04207846978
		0.04248307064
		0.0428876735
		0.0432922754
		0.04369687731
		0.04410147941
		0.04450608114
		0.04491068153
		0.04531528187
		0.04571988445
		0.04612448575
		0.04652908037
		0.04693367467
		0.04733827551
		0.04774287837
		0.04814748028
		0.04855208218
		0.04895668409
		0.049361286
		0.0497658879
		0.05017048981
		0.05057509261
		0.05097969373
		0.05138428836
		0.05178888265
		0.05219348347
		0.05259808634
		0.05300268824
		0.05340729015
		0.05381189205
		0.05421649396
		0.05462109676
		0.05502569789
		0.05543029254
		0.05583488681
		0.05623948762
		0.05664409049
		0.0570486924
		0.0574532943
		0.05785789621
		0.05826249811
		0.05866710002
		0.05907170192
		0.05947630472
		0.05988090586
		0.06028550053
		0.06069009479
		0.06109469558
		0.06149929845
		0.06190390036
		0.06230850226
		0.06271310417
		0.06311770607
		0.06352230798
		0.06392690988
		0.06433151305
		0.06473611389
		0.06514070558
		0.06554529665
		0.06594989697
		0.06635450024
		0.06675910215
		0.06716370405
		0.06756830596
		0.06797290786
		0.06837750977
		0.06878211167
		0.06918671447
		0.06959131564
		0.06999591033
		0.07040050456
		0.07080510533
		0.0712097082
		0.07161431011
		0.07201891202
		0.07242351392
		0.07282811583
		0.07323271818
		0.07363731972
		0.07404191803
		0.07444651609
		0.07485111786
		0.07525571989
		0.0756603182
		0.07606491626
		0.07646951759
		0.07687411998
		0.07727872233
		0.07768332387
		0.07808792219
		0.07849252024
		0.07889712157
		0.07930172396
		0.07970632631
		0.08011092786
		0.08051552618
		0.08092012423
		0.08132472555
		0.08172932794
		0.08213393029
		0.08253853184
		0.08294313017
		0.08334772821
		0.08375232953
		0.08415693192
		0.08456153427
		0.08496613582
		0.08537073415
		0.0857753322
		0.08617993351
		0.0865845359
		0.08698913825
		0.08739373981
		0.08779833814
		0.08820293618
		0.08860753749
		0.08901213988
		0.08941674172
		0.08982134368
		0.0902259462
		0.09063054877
		0.09103515121
		0.09143975269
		0.09184435104
		0.09224894907
		0.09265355037
		0.09305815276
		0.09346275511
		0.09386735668
		0.09427195502
		0.09467655305
		0.09508115435
		0.09548575675
		0.09589035909
		0.09629496066
		0.09669955901
		0.09710415704
		0.09750875833
		0.09791336073
		0.09831796307
		0.09872256464
		0.099127163
		0.09953176102
		0.09993636231
		0.1003409647
		0.1007455671
		0.1011501686
		0.101554767
		0.101959365
		0.1023639663
		0.1027685687
		0.103173171
		0.1035777726
		0.103982371
		0.104386969
		0.1047915703
		0.1051961727
		0.105600775
		0.1060053766
		0.106409975
		0.106814573
		0.1072191743
		0.1076237767
		0.108028379
		0.1084329806
		0.108837579
		0.109242177
		0.1096467782
		0.1100513806
		0.110455983
		0.1108605846
		0.1112651829
		0.1116697809
		0.1120743827
		0.1124789847
		0.1128835831
		0.1132881811
		0.1136927824
		0.1140973848
		0.1145019871
		0.1149065887
		0.1153111871
		0.1157157851
		0.1161203864
		0.1165249888
		0.1169295911
		0.1173341927
		0.1177387911
		0.1181433891
		0.1185479904
		0.1189525927
		0.1193571951
		0.1197617967
		0.1201663951
		0.1205709931
		0.1209755943
		0.1213801967
		0.1217847991
		0.1221894007
		0.1225939991
		0.1229985971
		0.1234031983
		0.1238078007
		0.1242124026
		0.1246170045
		0.1250216064
		0.1254262083
		0.1258308102
		0.1262354121
		0.1266400149
		0.1270446162
		0.1274492111
		0.1278538052
		0.1282584049
		0.1286630084
		0.129067618
		0.1294722273
		0.1298768247
		0.1302814191
		0.1306860208
		0.1310906229
		0.1314952179
		0.1318998119
		0.1323044125
		0.1327090154
		0.1331136181
		0.1335182195
		0.1339228144
		0.1343274084
		0.134732009
		0.1351366119
		0.1355412138
		0.1359458157
		0.1363504176
		0.1367550195
		0.1371596214
		0.1375642233
		0.1379688253
		0.1383734272
		0.1387780291
		0.139182631
		0.1395872337
		0.1399918351
		0.14039643
		0.140801024
		0.1412056246
		0.1416102275
		0.1420148294
		0.1424194313
		0.1428240341
		0.1432286354
		0.1436332304
		0.1440378244
		0.1444424249
		0.1448470278
		0.1452516297
		0.1456562317
		0.1460608336
		0.1464654355
		0.1468700374
		0.1472746393
		0.1476792412
		0.1480838431
		0.148488445
		0.1488930469
		0.1492976496
		0.149702251
		0.150106846
		0.15051144
		0.1509160405
		0.1513206434
		0.1517252453
		0.1521298472
		0.15253445
		0.1529390514
		0.1533436464
		0.1537482404
		0.1541528409
		0.1545574438
		0.1549620457
		0.1553666476
		0.1557712495
		0.1561758514
		0.1565804533
		0.1569850552
		0.1573896571
		0.157794259
		0.1581988618
		0.1586034631
		0.1590080582
		0.1594126521
		0.1598172526
		0.1602218555
		0.1606264574
		0.1610310594
		0.1614356613
		0.1618402632
		0.1622448659
		0.1626494673
		0.1630540623
		0.1634586563
		0.1638632568
		0.1642678597
		0.1646724616
		0.1650770635
		0.1654816654
		0.1658862673
		0.1662908692
		0.1666954711
		0.167100073
		0.1675046749
		0.1679092777
		0.1683138791
		0.1687184741
		0.1691230681
		0.1695276685
		0.1699322714
		0.1703368734
		0.1707414753
		0.1711460772
		0.1715506791
		0.1719552818
		0.1723598832
		0.1727644783
		0.1731690723
		0.1735736727
		0.1739782756
		0.1743828775
		0.1747874794
		0.1751920813
		0.1755966832
		0.1760012851
		0.1764058871
		0.176810489
		0.1772150909
		0.1776196936
		0.178024295
		0.1784288901
		0.178833484
		0.1792380845
		0.1796426874
		0.1800472892
		0.1804518911
		0.180856495
		0.1812610979
		0.1816656932
		0.182070287
		0.1824748874
		0.1828794903
		0.1832840922
		0.1836886941
		0.184093296
		0.1844978979
		0.1849024998
		0.1853071017
		0.1857117044
		0.1861163059
		0.186520901
		0.1869254949
		0.1873300953
		0.1877346982
		0.1881393002
		0.1885439021
		0.188948504
		0.1893531059
		0.1897577078
		0.1901623097
		0.1905669124
		0.1909715139
		0.191376109
		0.1917807029
		0.1921853033
		0.1925899062
		0.1929945081
		0.19339911
		0.1938037119
		0.1942083138
		0.1946129157
		0.1950175176
		0.1954221204
		0.1958267218
		0.196231317
		0.1966359109
		0.1970405112
		0.1974451142
		0.1978503782
		0.1982546407
		0.1986555386
		0.1990526331
		0.1994426023
		0.1998291553
		0.200217655
		0.2006067462
		0.2009965943
		0.2013871451
		0.2017783974
		0.2021703583
		0.2025630458
		0.202956446
		0.2033505437
		0.2037453377
		0.2041408224
		0.2045369886
		0.2049338131
		0.2053313076
		0.2057294818
		0.206128335
		0.2065278785
		0.2069280916
		0.2073289262
		0.2077304238
		0.2081386073
		0.2085386305
		0.2089017962
		0.2092415407
		0.209566091
		0.2098804267
		0.2101986479
		0.210516928
		0.2108351618
		0.2111533363
		0.211471425
		0.2117894472
		0.2121074367
		0.212425365
		0.2127431853
		0.2130609276
		0.2133786402
		0.2136962823
		0.2140137892
		0.2143311955
		0.2146485395
		0.2149658059
		0.2152829908
		0.2156000795
		0.215917038
		0.2162338804
		0.2165506115
		0.216867244
		0.2171838251
		0.2175003005
		0.2178165643
		0.2181326899
		0.2184487874
		0.2187647897
		0.219080614
		0.2193962906
		0.2197118373
		0.2200272512
		0.220342539
		0.2206576918
		0.2209726901
		0.221287551
		0.2216023106
		0.2219169353
		0.2222313759
		0.2225456437
		0.222859726
		0.2231736468
		0.2234874578
		0.2238011263
		0.2241146097
		0.2244279259
		0.2247411007
		0.2250541035
		0.2253668692
		0.2256794473
		0.2259919202
		0.2263042358
		0.2266163244
		0.2269282143
		0.2272399268
		0.2275514582
		0.2278628165
		0.2281739895
		0.2284849524
		0.2287957185
		0.229106307
		0.2294167028
		0.2297268819
		0.2300368556
		0.2303466396
		0.2306562197
		0.2309654493
		0.2312746353
		0.231578454
		0.2318909611
		0.232245371
		0.2326200329
		0.2329867407
		0.2333527411
		0.2337182753
		0.2340833684
		0.2344480602
		0.2348123255
		0.23517613
		0.2355394858
		0.2359023958
		0.2362648692
		0.2366269386
		0.2369885724
		0.237349715
		0.2377103906
		0.2380706162
		0.2384303989
		0.2387897756
		0.239148712
		0.2395071465
		0.2398651097
		0.2402226357
		0.2405797141
		0.2409363457
		0.2412925202
		0.2416482091
		0.2420034345
		0.2423582431
		0.2427125936
		0.2430664063
		0.2434197311
		0.2437726431
		0.2441251039
		0.2444770612
		0.2448285445
		0.2451796
		0.2455301964
		0.245880282
		0.2462298861
		0.2465790518
		0.2469277553
		0.2472759669
		0.2476236942
		0.2479709313
		0.2483176927
		0.2486640175
		0.2490098749
		0.2493552135
		0.2497000536
		0.2500444074
		0.2503882829
		0.2507317067
		0.251074668
		0.2514171442
		0.2517591696
		0.2521008087
		0.2524420485
		0.2527828972
		0.2531233491
		0.2534634016
		0.2538030456
		0.2541422534
		0.2544810445
		0.2548194472
		0.2551574576
		0.2554950902
		0.2558323256
		0.2561691223
		0.2565055001
		0.2568414831
		0.2571770622
		0.2575122359
		0.2578469918
		0.2581812885
		0.2585151616
		0.2588486779
		0.2591818051
		0.2595145041
		0.2598467876
		0.2601786696
		0.260510134
		0.2608411438
		0.2611717238
		0.2615019144
		0.2618316993
		0.2621610678
		0.2624900132
		0.2628185044
		0.2631465678
		0.2634742511
		0.2638015363
		0.2641284216
		0.2644548795
		0.2647808223
		0.2651063152
		0.2654274705
		0.2657534556
		0.2661069409
		0.2664760809
		0.2668466202
		0.2672199579
		0.2675913732
		0.267962078
		0.2683321383
		0.268701566
		0.2690703997
		0.2694386115
		0.2698061445
		0.2701730371
		0.2705393627
		0.270905076
		0.2712701018
		0.2716344735
		0.2719982232
		0.2723613557
		0.2727239104
		0.2730858565
		0.2734471382
		0.2738077752
		0.2741677755
		0.2745271526
		0.2748859555
		0.2752441479
		0.2756016562
		0.2759585254
		0.2763148325
		0.2766705409
		0.2770256018
		0.2773800329
		0.2777338467
		0.2780870464
		0.2784396512
		0.2787916474
		0.2791430108
		0.2794937502
		0.2798438734
		0.2801933787
		0.2805422629
		0.2808905327
		0.2812381987
		0.2815852672
		0.2819317725
		0.2822776824
		0.2826229248
		0.2829675406
		0.2833115968
		0.2836550656
		0.2839979161
		0.2843401556
		0.2846817784
		0.285022798
		0.2853632458
		0.2857031114
		0.286042397
		0.2863810815
		0.2867190931
		0.2870564871
		0.2873933784
		0.2877297075
		0.2880653785
		0.2884004371
		0.2887349523
		0.2890688935
		0.289402216
		0.289734942
		0.2900671037
		0.2903986905
		0.2907296932
		0.2910601167
		0.2913899774
		0.2917192542
		0.2920478853
		0.2923759173
		0.2927034456
		0.2930304249
		0.2933567888
		0.2936825613
		0.2940077661
		0.2943323979
		0.2946564548
		0.29497994
		0.2953013209
		0.295623996
		0.2959512249
		0.296291617
		0.2966761782
		0.2970850945
		0.2974847579
		0.2978829225
		0.2982801312
		0.2986763759
		0.2990716413
		0.2994659309
		0.2998592376
		0.3002515775
		0.3006429842
		0.3010334583
		0.301423028
		0.3018116751
		0.3021993646
		0.302586113
		0.3029719421
		0.30335685
		0.303740812
		0.3041238957
		0.3045062413
		0.30488787
		0.305268934
		0.3056493778
		0.3060291442
		0.3064082487
		0.3067866968
		0.3071644931
		0.3075416541
		0.3079181733
		0.3082940356
		0.3086692582
		0.3090438925
		0.3094179017
		0.3097912006
		0.310163839
		0.310535908
		0.3109073761
		0.3112782125
		0.3116484212
		0.3120179736
		0.3123869177
		0.312755363
		0.3131232955
		0.3134907642
		0.3138577187
		0.3142240584
		0.3145897923
		0.3149548723
		0.3153193318
		0.3156832414
		0.3160465689
		0.3164092642
		0.3167713439
		0.3171328212
		0.3174936989
		0.3178539963
		0.3182137007
		0.318572779
		0.3189312575
		0.3192891977
		0.3196465723
		0.320003346
		0.3203595185
		0.3207150587
		0.3210699901
		0.3214243549
		0.3217781521
		0.322131415
		0.3224841146
		0.3228361773
		0.3231876409
		0.3235385725
		0.3238889495
		0.3242387475
		0.3245879717
		0.3249363685
		0.3252844754
		0.3256272176
		0.3259779575
		0.3263789434
		0.3268080052
		0.3272272699
		0.327644953
		0.3280616745
		0.3284774793
		0.3288924477
		0.3293065596
		0.3297198115
		0.3301321932
		0.3305436597
		0.3309542475
		0.3313640501
		0.3317730181
		0.332181052
		0.332588197
		0.3329945247
		0.3334000196
		0.3338046804
		0.3342085072
		0.334611493
		0.3350136523
		0.3354150324
		0.3358156074
		0.3362153311
		0.3366142109
		0.337012226
		0.3374094071
		0.3378058446
		0.3382014958
		0.338596272
		0.3389902234
		0.3393834531
		0.3397759236
		0.3401675835
		0.3405584485
		0.3409485405
		0.3413378454
		0.3417263238
		0.3421140013
		0.342500931
		0.3428870994
		0.3432724965
		0.3436571294
		0.3440410166
		0.344424149
		0.3448065094
		0.3451881038
		0.3455689364
		0.3459490139
		0.3463283638
		0.3467069726
		0.3470848039
		0.3474618882
		0.3478383088
		0.3482140253
		0.3485889602
		0.3489631398
		0.3493365928
		0.349709321
		0.3500813486
		0.3504526678
		0.3508232661
		0.3511931536
		0.3515623637
		0.3519308718
		0.35229861
		0.3526656151
		0.3530319658
		0.3533976333
		0.3537625672
		0.3541267952
		0.3544899129
		0.3548528415
		0.3552157079
		0.3555830642
		0.3559724341
		0.3563746666
		0.3567720455
		0.3571682143
		0.3575635382
		0.357958003
		0.3583515647
		0.3587442132
		0.3591358823
		0.3595265935
		0.35991638
		0.3603052205
		0.3606930549
		0.3610799175
		0.3614658846
		0.3618509332
		0.3622350299
		0.3626181959
		0.36300049
		0.3633818807
		0.3637622928
		0.3641417612
		0.3645203476
		0.3648980446
		0.3652748719
		0.3656508154
		0.3660258378
		0.3663999562
		0.3667732018
		0.3671455707
		0.3675170742
		0.3678877026
		0.3682574198
		0.3686262547
		0.3689942833
		0.3693614831
		0.3697278297
		0.3700933256
		0.3704579646
		0.3708217457
		0.3711846531
		0.3715467043
		0.3719079419
		0.3722683665
		0.3726280184
		0.3729868725
		0.3733448673
		0.3737020243
		0.3740583742
		0.3744139156
		0.3747686679
		0.3751226199
		0.3754757366
		0.3758280438
		0.3761796178
		0.3765304223
		0.3768803747
		0.3772295076
		0.3775778706
		0.3779254681
		0.3782723599
		0.3786185103
		0.3789638254
		0.3793083467
		0.3796521668
		0.379995249
		0.3803375143
		0.3806790011
		0.3810197989
		0.3813598762
		0.3816978638
		0.382036326
		0.3823841882
		0.3827380371
		0.3830923451
		0.3834474988
		0.3838012823
		0.3841541699
		0.3845062304
		0.3848574846
		0.3852080237
		0.3855578092
		0.3859067683
		0.3862549126
		0.3866022308
		0.3869487344
		0.3872944465
		0.3876393785
		0.3879835975
		0.3883270699
		0.3886697102
		0.3890115552
		0.3893526855
		0.3896930744
		0.3900326747
		0.3903715042
		0.3907095975
		0.3910469457
		0.3913835347
		0.3917193761
		0.392054501
		0.3923889055
		0.3927226099
		0.3930555879
		0.393387738
		0.3937191153
		0.394049861
		0.3943799305
		0.394709251
		0.3950378446
		0.3953657439
		0.3956929452
		0.3960194583
		0.3963452768
		0.3966703907
		0.3969947911
		0.3973184185
		0.3976413173
		0.3979636172
		0.3982852805
		0.3986062543
		0.3989265503
		0.3992461829
		0.3995651411
		0.3998833897
		0.4002009396
		0.4005177989
		0.4008339813
		0.4011495481
		0.401464479
		0.4017787376
		0.4020923347
		0.4024052823
		0.4027175869
		0.4030292983
		0.4033403772
		0.4036506874
		0.4039602908
		0.4042693409
		0.4045777881
		0.4048852212
		0.4051922586
		0.4055009657
		0.4058109615
		0.4061225408
		0.4064350962
		0.406746544
		0.4070572845
		0.4073674245
		0.4076769401
		0.4079857618
		0.4082939213
		0.4086015059
		0.4089084788
		0.4092147414
		0.4095203367
		0.4098253734
		0.4101298172
		0.4104335995
		0.4107367471
		0.4110393261
		0.4113413122
		0.4116426498
		0.4119433573
		0.4122434709
		0.4125429802
		0.4128418541
		0.4131401207
		0.4134378259
		0.4137350334
		0.4140320156
		0.4143287387
		0.4146252545
		0.4149215603
		0.4152176856
		0.4155136266
		0.4158093932
		0.4161049793
		0.4164003657
		0.4166955601
		0.4169905792
		0.4172854201
		0.4175800834
		0.4178745671
		0.4181688616
		0.4184629707
		0.4187569028
		0.4190506564
		0.4193442275
		0.4196376228
		0.4199308731
		0.4202239629
		0.4205168455
		0.4208095372
		0.4211020731
		0.4213944452
		0.4216866443
		0.4219786719
		0.4222705232
		0.4225622071
		0.4228537638
		0.4231451742
		0.4234363821
		0.423727407
		0.4240182952
		0.4243090329
		0.4245995917
		0.4248899804
		0.4251802149
		0.4254702944
		0.425760686
		0.4260505817
		0.4263364797
		0.426619717
		0.4269034111
		0.4271870376
		0.4274705406
		0.4277539078
		0.4280371098
		0.4283201574
		0.4286030785
		0.4288858645
		0.4291684932
		0.4294509762
		0.4297333504
		0.4300156038
		0.4302977106
		0.4305796752
		0.4308614958
		0.4311431767
		0.4314247357
		0.4317061676
		0.4319874614
		0.4322686226
		0.4325496718
		0.4328305996
		0.433111376
		0.4333920137
		0.4336725488
		0.4339529715
		0.4342332643
		0.4345134299
		0.4347934714
		0.4350733845
		0.4353531443
		0.4356327681
		0.4359123216
		0.4361917823
		0.4364710942
		0.4367502738
		0.4370293571
		0.4373083363
		0.4375872058
		0.4378659608
		0.4381445706
		0.4384230499
		0.4387014431
		0.4389797391
		0.4392579201
		0.4395359888
		0.4398139459
		0.4400917912
		0.4403695237
		0.4406471452
		0.4409246654
		0.4412020808
		0.4414793803
		0.4417565696
		0.4420336653
		0.4423106648
		0.4425875699
		0.4428643766
		0.4431410634
		0.4434176412
		0.4436941473
		0.4439705702
		0.4442469018
		0.4445231164
		0.4447993692
		0.445075217
		0.4453484359
		0.4456198331
		0.4458915087
		0.4461631384
		0.4464347047
		0.4467061974
		0.4469776077
		0.4472489351
		0.4475201727
		0.4477913198
		0.4480623638
		0.4483333137
		0.4486042079
		0.4488750332
		0.4491457503
		0.4494163726
		0.4496869379
		0.4499574351
		0.4502278356
		0.4504981474
		0.4507683869
		0.4510385531
		0.4513086588
		0.4515786947
		0.4518486202
		0.4521184521
		0.4523882465
		0.4526579875
		0.4529276389
		0.4531972079
		0.4534667029
		0.4537361245
		0.4540054819
		0.4542747717
		0.454543982
		0.4548131197
		0.455082216
		0.4553512574
		0.4556201909
		0.4558890399
		0.4561578893
		0.4564267141
		0.4566954484
		0.456964109
		0.4572327349
		0.4575013151
		0.4577698189
		0.4580382575
		0.4583066665
		0.4585750388
		0.4588433682
		0.4591116506
		0.4593798554
		0.4596479956
		0.4599161153
		0.460184206
		0.4604522648
		0.460720282
		0.4609881973
		0.4612560349
		0.4615238754
		0.4617917018
		0.4620594896
		0.4623272373
		0.4625950422
		0.4628627174
		0.4631293827
		0.463395175
		0.4636600068
		0.4639240759
		0.4641883071
		0.4644525573
		0.4647167881
		0.4649809936
		0.465245136
		0.4655092276
		0.4657733033
		0.4660373578
		0.4663013945
		0.4665654064
		0.4668293541
		0.4670932516
		0.4673571409
		0.4676210175
		0.4678848963
		0.4681487636
		0.4684125535
		0.4686762852
		0.4689400126
		0.4692037264
		0.4694674163
		0.4697310836
		0.4699947262
		0.4702583477
		0.4705219695
		0.470785582
		0.4710491465
		0.4713126748
		0.4715762043
		0.4718397264
		0.4721032241
		0.4723666983
		0.4726301343
		0.4728935438
		0.4731569831
		0.4734204364
		0.4736838606
		0.4739472604
		0.4742106254
		0.474473962
		0.4747372936
		0.4750006198
		0.4752639622
		0.4755273099
		0.4757906156
		0.476053892
		0.4763171747
		0.4765804587
		0.4768437426
		0.4771070266
		0.4773703162
		0.4776336031
		0.4778968315
		0.4781600275
		0.4784233088
		0.4786866392
		0.4789498959
		0.4792131079
		0.4794763504
		0.4797396089
		0.4800028777
		0.4802661276
		0.480529226
		0.4807921446
		0.481054556
		0.4813165913
		0.4815787539
		0.4818409608
		0.4821031078
		0.4823652186
		0.4826273629
		0.4828895328
		0.4831517406
		0.4834139755
		0.4836761797
		0.48393837
		0.4842006048
		0.4844628689
		0.4847251113
		0.4849873475
		0.4852496389
		0.4855119657
		0.4857742481
		0.4860365097
		0.4862988341
		0.4865612043
		0.4868235845
		0.4870859777
		0.4873483747
		0.4876107797
		0.4878732078
		0.48813566
		0.4883981578
		0.4886606913
		0.488923214
		0.4891857363
		0.4894482799
		0.4897108493
		0.4899734944
		0.4902361974
		0.4904988861
		0.4907615728
		0.4910242743
		0.4912869926
		0.4915497516
		0.4918125493
		0.4920753986
		0.4923382908
		0.4926011797
		0.4928640755
		0.4931270013
		0.4933899597
		0.4936529912
		0.4939160807
		0.494179164
		0.4944422535
		0.4947053718
		0.4949685231
		0.4952317542
		0.4954950521
		0.4957583735
		0.4960217224
		0.4962850868
		0.4965484752
		0.4968119337
		0.4970754525
		0.4973391668
		0.4976028573
		0.4978654627
		0.4981268436
		0.4983848828
		0.4986403425
		0.4988963929
		0.4991526375
		0.4994089223
		0.4996653065
		0.4999221591
		0.5001794287
		0.5004370704
		0.5006950919
		0.5009535093
		0.5012123336
		0.5014716598
		0.5017314627
		0.5019916446
		0.5022522278
		0.5025132907
		0.5027748162
		0.5030367394
		0.5032990809
		0.5035619369
		0.5038252854
		0.5040890457
		0.5043532376
		0.5046179306
		0.5048831187
		0.5051488246
		0.505415035
		0.50568167
		0.5059487522
		0.5062163722
		0.5064845166
		0.5067531624
		0.5070223145
		0.5072919908
		0.5075621891
		0.5078329087
		0.5081041496
		0.5083759055
		0.5086481846
		0.5089210403
		0.5091944637
		0.5094684353
		0.5097429572
		0.5100180218
		0.5102936399
		0.5105698884
		0.5108467483
		0.5111241395
		0.511402081
		0.5116806425
		0.5119598184
		0.5122396268
		0.5125200603
		0.5128010777
		0.513082691
		0.5133649512
		0.5136478547
		0.5139314164
		0.5142156342
		0.5145005053
		0.5147860322
		0.5150725081
		0.5153595833
		0.515645018
		0.5159290248
		0.5162110085
		0.5164914181
		0.5167729539
		0.5170552986
		0.5173383067
		0.5176219852
		0.5179063673
		0.5181914515
		0.5184772513
		0.5187637674
		0.5190510119
