ACES2Looks/ACEScct_LUT/T-ACES1_Tone.cube
# This file is automagically generated by clfutil 0.3.0 from T-ACES1_Tone.clf
LUT_1D_SIZE 4096
LUT_1D_INPUT_RANGE 0.0 1.4679964
  
   0    0    0
   0.0004034622212    0.0004034622212    0.0004034622212
   0.0008069246083    0.0008069246083    0.0008069246083
   0.001210387333    0.001210387333    0.001210387333
   0.001613850568    0.001613850568    0.001613850568
   0.002017314485    0.002017314485    0.002017314485
   0.002420779256    0.002420779256    0.002420779256
   0.002824245213    0.002824245213    0.002824245213
   0.003227712844    0.003227712844    0.003227712844
   0.003631181568    0.003631181568    0.003631181568
   0.004034650704    0.004034650704    0.004034650704
   0.004438119572    0.004438119572    0.004438119572
   0.004841587492    0.004841587492    0.004841587492
   0.005245053789    0.005245053789    0.005245053789
   0.005648518339    0.005648518339    0.005648518339
   0.006051981667    0.006051981667    0.006051981667
   0.00645544429    0.00645544429    0.00645544429
   0.006858906725    0.006858906725    0.006858906725
   0.007262369488    0.007262369488    0.007262369488
   0.007665833098    0.007665833098    0.007665833098
   0.008069297798    0.008069297798    0.008069297798
   0.00847276313    0.00847276313    0.00847276313
   0.008876228897    0.008876228897    0.008876228897
   0.009279694918    0.009279694918    0.009279694918
   0.009683161014    0.009683161014    0.009683161014
   0.010086627    0.010086627    0.010086627
   0.01049009276    0.01049009276    0.01049009276
   0.01089355861    0.01089355861    0.01089355861
   0.01129702456    0.01129702456    0.01129702456
   0.01170049045    0.01170049045    0.01170049045
   0.01210395613    0.01210395613    0.01210395613
   0.01250742146    0.01250742146    0.01250742146
   0.01291088629    0.01291088629    0.01291088629
   0.01331435021    0.01331435021    0.01331435021
   0.01371781318    0.01371781318    0.01371781318
   0.01412127572    0.01412127572    0.01412127572
   0.01452473833    0.01452473833    0.01452473833
   0.01492820151    0.01492820151    0.01492820151
   0.01533166576    0.01533166576    0.01533166576
   0.01573513161    0.01573513161    0.01573513161
   0.0161385992    0.0161385992    0.0161385992
   0.01654206792    0.01654206792    0.01654206792
   0.01694553707    0.01694553707    0.01694553707
   0.01734900599    0.01734900599    0.01734900599
   0.017752474    0.017752474    0.017752474
   0.01815594043    0.01815594043    0.01815594043
   0.01855940511    0.01855940511    0.01855940511
   0.01896286855    0.01896286855    0.01896286855
   0.01936633126    0.01936633126    0.01936633126
   0.01976979376    0.01976979376    0.01976979376
   0.02017325655    0.02017325655    0.02017325655
   0.02057672016    0.02057672016    0.02057672016
   0.02098018485    0.02098018485    0.02098018485
   0.02138365019    0.02138365019    0.02138365019
   0.02178711596    0.02178711596    0.02178711596
   0.02219058198    0.02219058198    0.02219058198
   0.02259404807    0.02259404807    0.02259404807
   0.02299751404    0.02299751404    0.02299751404
   0.02340097974    0.02340097974    0.02340097974
   0.02380444546    0.02380444546    0.02380444546
   0.02420791124    0.02420791124    0.02420791124
   0.02461137695    0.02461137695    0.02461137695
   0.02501484249    0.02501484249    0.02501484249
   0.02541830773    0.02541830773    0.02541830773
   0.02582177257    0.02582177257    0.02582177257
   0.0262252368    0.0262252368    0.0262252368
   0.0266287004    0.0266287004    0.0266287004
   0.02703216365    0.02703216365    0.02703216365
   0.02743562683    0.02743562683    0.02743562683
   0.0278390902    0.0278390902    0.0278390902
   0.02824255403    0.02824255403    0.02824255403
   0.02864601855    0.02864601855    0.02864601855
   0.02904948355    0.02904948355    0.02904948355
   0.02945294889    0.02945294889    0.02945294889
   0.02985641448    0.02985641448    0.02985641448
   0.03025988023    0.03025988023    0.03025988023
   0.03066334603    0.03066334603    0.03066334603
   0.03106681179    0.03106681179    0.03106681179
   0.0314702778    0.0314702778    0.0314702778
   0.03187374413    0.03187374413    0.03187374413
   0.03227721055    0.03227721055    0.03227721055
   0.0326806768    0.0326806768    0.0326806768
   0.03308414266    0.03308414266    0.03308414266
   0.03348760789    0.03348760789    0.03348760789
   0.0338910722    0.0338910722    0.0338910722
   0.03429453549    0.03429453549    0.03429453549
   0.03469799816    0.03469799816    0.03469799816
   0.03510146061    0.03510146061    0.03510146061
   0.03550492327    0.03550492327    0.03550492327
   0.03590838653    0.03590838653    0.03590838653
   0.03631185081    0.03631185081    0.03631185081
   0.03671531602    0.03671531602    0.03671531602
   0.03711878186    0.03711878186    0.03711878186
   0.03752224811    0.03752224811    0.03752224811
   0.03792571452    0.03792571452    0.03792571452
   0.03832918086    0.03832918086    0.03832918086
   0.03873264688    0.03873264688    0.03873264688
   0.03913611255    0.03913611255    0.03913611255
   0.0395395781    0.0395395781    0.0395395781
   0.03994304355    0.03994304355    0.03994304355
   0.04034650896    0.04034650896    0.04034650896
   0.04074997434    0.04074997434    0.04074997434
   0.04115343975    0.04115343975    0.04115343975
   0.0415569052    0.0415569052    0.0415569052
   0.04196037074    0.04196037074    0.04196037074
   0.04236383632    0.04236383632    0.04236383632
   0.04276730188    0.04276730188    0.04276730188
   0.04317076738    0.04317076738    0.04317076738
   0.04357423277    0.04357423277    0.04357423277
   0.04397769799    0.04397769799    0.04397769799
   0.04438116288    0.04438116288    0.04438116288
   0.04478462746    0.04478462746    0.04478462746
   0.04518809191    0.04518809191    0.04518809191
   0.04559155643    0.04559155643    0.04559155643
   0.0459950212    0.0459950212    0.0459950212
   0.0463984864    0.0463984864    0.0463984864
   0.04680195226    0.04680195226    0.04680195226
   0.04720541884    0.04720541884    0.04720541884
   0.04760888585    0.04760888585    0.04760888585
   0.048012353    0.048012353    0.048012353
   0.04841581996    0.04841581996    0.04841581996
   0.04881928645    0.04881928645    0.04881928645
   0.04922275216    0.04922275216    0.04922275216
   0.04962621715    0.04962621715    0.04962621715
   0.05002968165    0.05002968165    0.05002968165
   0.05043314581    0.05043314581    0.05043314581
   0.05083660978    0.05083660978    0.05083660978
   0.05124007371    0.05124007371    0.05124007371
   0.05164353776    0.05164353776    0.05164353776
   0.05204700182    0.05204700182    0.05204700182
   0.0524504656    0.0524504656    0.0524504656
   0.05285392929    0.05285392929    0.05285392929
   0.05325739308    0.05325739308    0.05325739308
   0.05366085718    0.05366085718    0.05366085718
   0.05406432179    0.05406432179    0.05406432179
   0.05446778713    0.05446778713    0.05446778713
   0.0548712534    0.0548712534    0.0548712534
   0.05527472031    0.05527472031    0.05527472031
   0.05567818752    0.05567818752    0.05567818752
   0.05608165466    0.05608165466    0.05608165466
   0.05648512139    0.05648512139    0.05648512139
   0.05688858734    0.05688858734    0.05688858734
   0.05729205245    0.05729205245    0.05729205245
   0.05769551703    0.05769551703    0.05769551703
   0.05809898122    0.05809898122    0.05809898122
   0.0585024452    0.0585024452    0.0585024452
   0.05890590913    0.05890590913    0.05890590913
   0.05930937319    0.05930937319    0.05930937319
   0.05971283742    0.05971283742    0.05971283742
   0.06011630158    0.06011630158    0.06011630158
   0.0605197657    0.0605197657    0.0605197657
   0.06092322986    0.06092322986    0.06092322986
   0.06132669415    0.06132669415    0.06132669415
   0.06173015864    0.06173015864    0.06173015864
   0.06213362342    0.06213362342    0.06213362342
   0.06253708854    0.06253708854    0.06253708854
   0.06294055395    0.06294055395    0.06294055395
   0.06334401953    0.06334401953    0.06334401953
   0.0637474852    0.0637474852    0.0637474852
   0.06415095084    0.06415095084    0.06415095084
   0.06455441635    0.06455441635    0.06455441635
   0.0649578817    0.0649578817    0.0649578817
   0.06536134697    0.06536134697    0.06536134697
   0.0657648122    0.0657648122    0.0657648122
   0.06616827742    0.06616827742    0.06616827742
   0.06657174265    0.06657174265    0.06657174265
   0.06697520793    0.06697520793    0.06697520793
   0.0673786733    0.0673786733    0.0673786733
   0.06778213884    0.06778213884    0.06778213884
   0.06818560449    0.06818560449    0.06818560449
   0.06858907015    0.06858907015    0.06858907015
   0.06899253572    0.06899253572    0.06899253572
   0.06939600108    0.06939600108    0.06939600108
   0.06979946615    0.06979946615    0.06979946615
   0.0702029308    0.0702029308    0.0702029308
   0.07060639508    0.07060639508    0.07060639508
   0.07100985915    0.07100985915    0.07100985915
   0.07141332318    0.07141332318    0.07141332318
   0.07181678735    0.07181678735    0.07181678735
   0.0722202518    0.0722202518    0.0722202518
   0.07262371666    0.07262371666    0.07262371666
   0.07302718176    0.07302718176    0.07302718176
   0.07343064705    0.07343064705    0.07343064705
   0.07383411253    0.07383411253    0.07383411253
   0.07423757816    0.07423757816    0.07423757816
   0.07464104394    0.07464104394    0.07464104394
   0.07504450986    0.07504450986    0.07504450986
   0.07544797616    0.07544797616    0.07544797616
   0.07585144284    0.07585144284    0.07585144284
   0.07625490966    0.07625490966    0.07625490966
   0.0766583764    0.0766583764    0.0766583764
   0.07706184283    0.07706184283    0.07706184283
   0.07746530874    0.07746530874    0.07746530874
   0.07786877396    0.07786877396    0.07786877396
   0.07827223863    0.07827223863    0.07827223863
   0.07867570291    0.07867570291    0.07867570291
   0.07907916696    0.07907916696    0.07907916696
   0.07948263092    0.07948263092    0.07948263092
   0.07988609494    0.07988609494    0.07988609494
   0.08028955916    0.08028955916    0.08028955916
   0.08069302334    0.08069302334    0.08069302334
   0.08109648747    0.08109648747    0.08109648747
   0.08149995161    0.08149995161    0.08149995161
   0.08190341585    0.08190341585    0.08190341585
   0.08230688028    0.08230688028    0.08230688028
   0.08271034497    0.08271034497    0.08271034497
   0.08311381    0.08311381    0.08311381
   0.08351727531    0.08351727531    0.08351727531
   0.08392074083    0.08392074083    0.08392074083
   0.08432420647    0.08432420647    0.08432420647
   0.08472767213    0.08472767213    0.08472767213
   0.08513113773    0.08513113773    0.08513113773
   0.08553460321    0.08553460321    0.08553460321
   0.08593806869    0.08593806869    0.08593806869
   0.0863415342    0.0863415342    0.0863415342
   0.08674499969    0.08674499969    0.08674499969
   0.08714846517    0.08714846517    0.08714846517
   0.08755193062    0.08755193062    0.08755193062
   0.08795539601    0.08795539601    0.08795539601
   0.08835886142    0.08835886142    0.08835886142
   0.08876232685    0.08876232685    0.08876232685
   0.08916579225    0.08916579225    0.08916579225
   0.08956925757    0.08956925757    0.08956925757
   0.08997272275    0.08997272275    0.08997272275
   0.09037618773    0.09037618773    0.09037618773
   0.09077965242    0.09077965242    0.09077965242
   0.09118311674    0.09118311674    0.09118311674
   0.09158658086    0.09158658086    0.09158658086
   0.09199004491    0.09199004491    0.09199004491
   0.09239350905    0.09239350905    0.09239350905
   0.09279697343    0.09279697343    0.09279697343
   0.09320043821    0.09320043821    0.09320043821
   0.09360390335    0.09360390335    0.09360390335
   0.09400736875    0.09400736875    0.09400736875
   0.09441083432    0.09441083432    0.09441083432
   0.09481429997    0.09481429997    0.09481429997
   0.09521776562    0.09521776562    0.09521776562
   0.09562123118    0.09562123118    0.09562123118
   0.09602469665    0.09602469665    0.09602469665
   0.09642816214    0.09642816214    0.09642816214
   0.09683162764    0.09683162764    0.09683162764
   0.09723509314    0.09723509314    0.09723509314
   0.0976385586    0.0976385586    0.0976385586
   0.09804202403    0.09804202403    0.09804202403
   0.09844548942    0.09844548942    0.09844548942
   0.09884895482    0.09884895482    0.09884895482
   0.09925242022    0.09925242022    0.09925242022
   0.09965588557    0.09965588557    0.09965588557
   0.1000593508    0.1000593508    0.1000593508
   0.100462816    0.100462816    0.100462816
   0.1008662809    0.1008662809    0.1008662809
   0.1012697456    0.1012697456    0.1012697456
   0.1016732101    0.1016732101    0.1016732101
   0.1020766745    0.1020766745    0.1020766745
   0.1024801388    0.1024801388    0.1024801388
   0.1028836032    0.1028836032    0.1028836032
   0.1032870678    0.1032870678    0.1032870678
   0.1036905328    0.1036905328    0.1036905328
   0.1040939981    0.1040939981    0.1040939981
   0.1044974635    0.1044974635    0.1044974635
   0.104900929    0.104900929    0.104900929
   0.1053043944    0.1053043944    0.1053043944
   0.1057078596    0.1057078596    0.1057078596
   0.1061113244    0.1061113244    0.1061113244
   0.1065147886    0.1065147886    0.1065147886
   0.1069182523    0.1069182523    0.1069182523
   0.1073217159    0.1073217159    0.1073217159
   0.1077251797    0.1077251797    0.1077251797
   0.1081286438    0.1081286438    0.1081286438
   0.1085321087    0.1085321087    0.1085321087
   0.1089355746    0.1089355746    0.1089355746
   0.1093390414    0.1093390414    0.1093390414
   0.1097425087    0.1097425087    0.1097425087
   0.1101459762    0.1101459762    0.1101459762
   0.1105494435    0.1105494435    0.1105494435
   0.1109529101    0.1109529101    0.1109529101
   0.1113563756    0.1113563756    0.1113563756
   0.1117598403    0.1117598403    0.1117598403
   0.1121633045    0.1121633045    0.1121633045
   0.1125667683    0.1125667683    0.1125667683
   0.1129702319    0.1129702319    0.1129702319
   0.1133736957    0.1133736957    0.1133736957
   0.1137771597    0.1137771597    0.1137771597
   0.114180624    0.114180624    0.114180624
   0.1145840881    0.1145840881    0.1145840881
   0.1149875524    0.1149875524    0.1149875524
   0.1153910168    0.1153910168    0.1153910168
   0.1157944814    0.1157944814    0.1157944814
   0.1161979465    0.1161979465    0.1161979465
   0.1166014121    0.1166014121    0.1166014121
   0.1170048784    0.1170048784    0.1170048784
   0.1174083452    0.1174083452    0.1174083452
   0.1178118122    0.1178118122    0.1178118122
   0.1182152789    0.1182152789    0.1182152789
   0.1186187453    0.1186187453    0.1186187453
   0.1190222108    0.1190222108    0.1190222108
   0.1194256754    0.1194256754    0.1194256754
   0.1198291395    0.1198291395    0.1198291395
   0.1202326032    0.1202326032    0.1202326032
   0.1206360668    0.1206360668    0.1206360668
   0.1210395307    0.1210395307    0.1210395307
   0.1214429951    0.1214429951    0.1214429951
   0.1218464601    0.1218464601    0.1218464601
   0.1222499256    0.1222499256    0.1222499256
   0.1226533913    0.1226533913    0.1226533913
   0.1230568573    0.1230568573    0.1230568573
   0.1234603232    0.1234603232    0.1234603232
   0.123863789    0.123863789    0.123863789
   0.1242672545    0.1242672545    0.1242672545
   0.1246707199    0.1246707199    0.1246707199
   0.1250741854    0.1250741854    0.1250741854
   0.1254776507    0.1254776507    0.1254776507
   0.1258811159    0.1258811159    0.1258811159
   0.1262845811    0.1262845811    0.1262845811
   0.126688046    0.126688046    0.126688046
   0.1270915107    0.1270915107    0.1270915107
   0.127494975    0.127494975    0.127494975
   0.1278984392    0.1278984392    0.1278984392
   0.1283019034    0.1283019034    0.1283019034
   0.1287053678    0.1287053678    0.1287053678
   0.1291088327    0.1291088327    0.1291088327
   0.1295122983    0.1295122983    0.1295122983
   0.1299157646    0.1299157646    0.1299157646
   0.1303192314    0.1303192314    0.1303192314
   0.1307226983    0.1307226983    0.1307226983
   0.1311261651    0.1311261651    0.1311261651
   0.1315296315    0.1315296315    0.1315296315
   0.1319330971    0.1319330971    0.1319330971
   0.1323365618    0.1323365618    0.1323365618
   0.1327400261    0.1327400261    0.1327400261
   0.13314349    0.13314349    0.13314349
   0.1335469537    0.1335469537    0.1335469537
   0.1339504175    0.1339504175    0.1339504175
   0.1343538815    0.1343538815    0.1343538815
   0.1347573457    0.1347573457    0.1347573457
   0.1351608099    0.1351608099    0.1351608099
   0.1355642741    0.1355642741    0.1355642741
   0.1359677384    0.1359677384    0.1359677384
   0.136371203    0.136371203    0.136371203
   0.1367746679    0.1367746679    0.1367746679
   0.1371781333    0.1371781333    0.1371781333
   0.1375815992    0.1375815992    0.1375815992
   0.1379850656    0.1379850656    0.1379850656
   0.1383885322    0.1383885322    0.1383885322
   0.1387919989    0.1387919989    0.1387919989
   0.1391954656    0.1391954656    0.1391954656
   0.1395989322    0.1395989322    0.1395989322
   0.1400023989    0.1400023989    0.1400023989
   0.1404058659    0.1404058659    0.1404058659
   0.140809333    0.140809333    0.140809333
   0.1412127999    0.1412127999    0.1412127999
   0.1416162662    0.1416162662    0.1416162662
   0.1420197316    0.1420197316    0.1420197316
   0.1424231958    0.1424231958    0.1424231958
   0.1428266584    0.1428266584    0.1428266584
   0.14323012    0.14323012    0.14323012
   0.1436335811    0.1436335811    0.1436335811
   0.1440370425    0.1440370425    0.1440370425
   0.1444405047    0.1444405047    0.1444405047
   0.1448439683    0.1448439683    0.1448439683
   0.1452474335    0.1452474335    0.1452474335
   0.1456508999    0.1456508999    0.1456508999
   0.1460543669    0.1460543669    0.1460543669
   0.1464578341    0.1464578341    0.1464578341
   0.1468613011    0.1468613011    0.1468613011
   0.1472647674    0.1472647674    0.1472647674
   0.1476682327    0.1476682327    0.1476682327
   0.1480716973    0.1480716973    0.1480716973
   0.1484751614    0.1484751614    0.1484751614
   0.1488786255    0.1488786255    0.1488786255
   0.1492820897    0.1492820897    0.1492820897
   0.1496855543    0.1496855543    0.1496855543
   0.1500890196    0.1500890196    0.1500890196
   0.1504924855    0.1504924855    0.1504924855
   0.1508959518    0.1508959518    0.1508959518
   0.1512994184    0.1512994184    0.1512994184
   0.1517028851    0.1517028851    0.1517028851
   0.1521063518    0.1521063518    0.1521063518
   0.1525098184    0.1525098184    0.1525098184
   0.1529132851    0.1529132851    0.1529132851
   0.1533167521    0.1533167521    0.1533167521
   0.1537202192    0.1537202192    0.1537202192
   0.1541236861    0.1541236861    0.1541236861
   0.1545271524    0.1545271524    0.1545271524
   0.1549306179    0.1549306179    0.1549306179
   0.1553340821    0.1553340821    0.1553340821
   0.1557375448    0.1557375448    0.1557375448
   0.1561410064    0.1561410064    0.1561410064
   0.1565444676    0.1565444676    0.1565444676
   0.1569479289    0.1569479289    0.1569479289
   0.1573513911    0.1573513911    0.1573513911
   0.1577548546    0.1577548546    0.1577548546
   0.1581583198    0.1581583198    0.1581583198
   0.1585617861    0.1585617861    0.1585617861
   0.158965253    0.158965253    0.158965253
   0.1593687203    0.1593687203    0.1593687203
   0.1597721873    0.1597721873    0.1597721873
   0.1601756536    0.1601756536    0.1601756536
   0.1605793736    0.1605793736    0.1605793736
   0.1609838756    0.1609838756    0.1609838756
   0.1613886454    0.1613886454    0.1613886454
   0.1617931003    0.1617931003    0.1617931003
   0.1621966574    0.1621966574    0.1621966574
   0.1625987338    0.1625987338    0.1625987338
   0.1629991825    0.1629991825    0.1629991825
   0.1634046247    0.1634046247    0.1634046247
   0.1638134354    0.1638134354    0.1638134354
   0.1642203025    0.1642203025    0.1642203025
   0.1646199139    0.1646199139    0.1646199139
   0.1650069575    0.1650069575    0.1650069575
   0.1653761212    0.1653761212    0.1653761212
   0.1657234848    0.1657234848    0.1657234848
   0.1660519717    0.1660519717    0.1660519717
   0.1663665037    0.1663665037    0.1663665037
   0.1666719988    0.1666719988    0.1666719988
   0.1669733751    0.1669733751    0.1669733751
   0.1672755507    0.1672755507    0.1672755507
   0.1675822342    0.1675822342    0.1675822342
   0.1678878328    0.1678878328    0.1678878328
   0.1681911151    0.1681911151    0.1681911151
   0.1684924158    0.1684924158    0.1684924158
   0.1687920694    0.1687920694    0.1687920694
   0.1690904108    0.1690904108    0.1690904108
   0.1693877737    0.1693877737    0.1693877737
   0.1696839405    0.1696839405    0.1696839405
   0.169978619    0.169978619    0.169978619
   0.1702719155    0.1702719155    0.1702719155
   0.1705639362    0.1705639362    0.1705639362
   0.1708547876    0.1708547876    0.1708547876
   0.1711445758    0.1711445758    0.1711445758
   0.1714331822    0.1714331822    0.1714331822
   0.1717200471    0.1717200471    0.1717200471
   0.17200554    0.17200554    0.17200554
   0.1722901128    0.1722901128    0.1722901128
   0.172574218    0.172574218    0.172574218
   0.1728583075    0.1728583075    0.1728583075
   0.1731428029    0.1731428029    0.1731428029
   0.1734272511    0.1734272511    0.1734272511
   0.1737114262    0.1737114262    0.1737114262
   0.1739954315    0.1739954315    0.1739954315
   0.1742793702    0.1742793702    0.1742793702
   0.1745633453    0.1745633453    0.1745633453
   0.1748474602    0.1748474602    0.1748474602
   0.1751317329    0.1751317329    0.1751317329
   0.175416046    0.175416046    0.175416046
   0.1757003995    0.1757003995    0.1757003995
   0.1759847966    0.1759847966    0.1759847966
   0.1762692409    0.1762692409    0.1762692409
   0.1765537359    0.1765537359    0.1765537359
   0.1768382844    0.1768382844    0.1768382844
   0.1771228825    0.1771228825    0.1771228825
   0.1774075293    0.1774075293    0.1774075293
   0.1776922249    0.1776922249    0.1776922249
   0.1779769695    0.1779769695    0.1779769695
   0.1782617633    0.1782617633    0.1782617633
   0.1785466065    0.1785466065    0.1785466065
   0.1788314889    0.1788314889    0.1788314889
   0.1791164076    0.1791164076    0.1791164076
   0.1794013739    0.1794013739    0.1794013739
   0.1796863993    0.1796863993    0.1796863993
   0.179971495    0.179971495    0.179971495
   0.1802566724    0.1802566724    0.1802566724
   0.1805419379    0.1805419379    0.1805419379
   0.1808272779    0.1808272779    0.1808272779
   0.1811126909    0.1811126909    0.1811126909
   0.1813981777    0.1813981777    0.1813981777
   0.1816837389    0.1816837389    0.1816837389
   0.1819693754    0.1819693754    0.1819693754
   0.1822550874    0.1822550874    0.1822550874
   0.1825408641    0.1825408641    0.1825408641
   0.182826707    0.182826707    0.182826707
   0.1831126253    0.1831126253    0.1831126253
   0.1833986282    0.1833986282    0.1833986282
   0.183684725    0.183684725    0.183684725
   0.183970925    0.183970925    0.183970925
   0.184257232    0.184257232    0.184257232
   0.1845436375    0.1845436375    0.1845436375
   0.1848301385    0.1848301385    0.1848301385
   0.1851167327    0.1851167327    0.1851167327
   0.1854034175    0.1854034175    0.1854034175
   0.1856901905    0.1856901905    0.1856901905
   0.1859770485    0.1859770485    0.1859770485
   0.1862639853    0.1862639853    0.1862639853
   0.1865510056    0.1865510056    0.1865510056
