ACES2Looks/ACEScct_LUT/T-ACES1_SSTS_Tone.cube
# This file is automagically generated by clfutil 0.4.0 from T-ACES1_SSTS_Tone.clf
LUT_1D_SIZE 4096
LUT_1D_INPUT_RANGE 0.0 1.4679964
  
   0    0    0
   0.0004154958843    0.0004154958843    0.0004154958843
   0.0008309918517    0.0008309918517    0.0008309918517
   0.001246487988    0.001246487988    0.001246487988
   0.00166198438    0.00166198438    0.00166198438
   0.002077481112    0.002077481112    0.002077481112
   0.002492978271    0.002492978271    0.002492978271
   0.002908476024    0.002908476024    0.002908476024
   0.003323974617    0.003323974617    0.003323974617
   0.003739473758    0.003739473758    0.003739473758
   0.004154973104    0.004154973104    0.004154973104
   0.004570472313    0.004570472313    0.004570472313
   0.004985971042    0.004985971042    0.004985971042
   0.005401468949    0.005401468949    0.005401468949
   0.005816965879    0.005816965879    0.005816965879
   0.006232462114    0.006232462114    0.006232462114
   0.006647958001    0.006647958001    0.006647958001
   0.007063453885    0.007063453885    0.007063453885
   0.007478950112    0.007478950112    0.007478950112
   0.007894447029    0.007894447029    0.007894447029
   0.008309944928    0.008309944928    0.008309944928
   0.008725443676    0.008725443676    0.008725443676
   0.009140942922    0.009140942922    0.009140942922
   0.009556442315    0.009556442315    0.009556442315
   0.009971941502    0.009971941502    0.009971941502
   0.01038744013    0.01038744013    0.01038744013
   0.01080293788    0.01080293788    0.01080293788
   0.01121843487    0.01121843487    0.01121843487
   0.01163393132    0.01163393132    0.01163393132
   0.01204942743    0.01204942743    0.01204942743
   0.0124649234    0.0124649234    0.0124649234
   0.0128804194    0.0128804194    0.0128804194
   0.01329591563    0.01329591563    0.01329591563
   0.01371141207    0.01371141207    0.01371141207
   0.01412690853    0.01412690853    0.01412690853
   0.01454240502    0.01454240502    0.01454240502
   0.01495790152    0.01495790152    0.01495790152
   0.01537339802    0.01537339802    0.01537339802
   0.01578889451    0.01578889451    0.01578889451
   0.01620439095    0.01620439095    0.01620439095
   0.01661988715    0.01661988715    0.01661988715
   0.01703538325    0.01703538325    0.01703538325
   0.01745087942    0.01745087942    0.01745087942
   0.01786637583    0.01786637583    0.01786637583
   0.01828187265    0.01828187265    0.01828187265
   0.01869737006    0.01869737006    0.01869737006
   0.01911286832    0.01911286832    0.01911286832
   0.01952836728    0.01952836728    0.01952836728
   0.0199438666    0.0199438666    0.0199438666
   0.02035936594    0.02035936594    0.02035936594
   0.02077486496    0.02077486496    0.02077486496
   0.02119036333    0.02119036333    0.02119036333
   0.02160586083    0.02160586083    0.02160586083
   0.02202135775    0.02202135775    0.02202135775
   0.02243685424    0.02243685424    0.02243685424
   0.02285235046    0.02285235046    0.02285235046
   0.02326784656    0.02326784656    0.02326784656
   0.0236833427    0.0236833427    0.0236833427
   0.02409883898    0.02409883898    0.02409883898
   0.024514335    0.024514335    0.024514335
   0.0249298308    0.0249298308    0.0249298308
   0.0253453266    0.0253453266    0.0253453266
   0.02576082262    0.02576082262    0.02576082262
   0.0261763191    0.0261763191    0.0261763191
   0.02659181625    0.02659181625    0.02659181625
   0.0270073144    0.0270073144    0.0270073144
   0.02742281348    0.02742281348    0.02742281348
   0.02783831309    0.02783831309    0.02783831309
   0.02825381282    0.02825381282    0.02825381282
   0.02866931226    0.02866931226    0.02866931226
   0.029084811    0.029084811    0.029084811
   0.02950030868    0.02950030868    0.02950030868
   0.02991580549    0.02991580549    0.02991580549
   0.03033130171    0.03033130171    0.03033130171
   0.03074679758    0.03074679758    0.03074679758
   0.03116229334    0.03116229334    0.03116229334
   0.03157778924    0.03157778924    0.03157778924
   0.03199328551    0.03199328551    0.03199328551
   0.03240878193    0.03240878193    0.03240878193
   0.03282427833    0.03282427833    0.03282427833
   0.03323977481    0.03323977481    0.03323977481
   0.03365527145    0.03365527145    0.03365527145
   0.03407076836    0.03407076836    0.03407076836
   0.03448626565    0.03448626565    0.03448626565
   0.03490176346    0.03490176346    0.03490176346
   0.03531726192    0.03531726192    0.03531726192
   0.03573276079    0.03573276079    0.03573276079
   0.03614825979    0.03614825979    0.03614825979
   0.03656375867    0.03656375867    0.03656375867
   0.03697925715    0.03697925715    0.03697925715
   0.03739475498    0.03739475498    0.03739475498
   0.03781025227    0.03781025227    0.03781025227
   0.0382257492    0.0382257492    0.0382257492
   0.03864124585    0.03864124585    0.03864124585
   0.03905674232    0.03905674232    0.03905674232
   0.03947223872    0.03947223872    0.03947223872
   0.03988773514    0.03988773514    0.03988773514
   0.04030323139    0.04030323139    0.04030323139
   0.04071872721    0.04071872721    0.04071872721
   0.04113422286    0.04113422286    0.04113422286
   0.04154971866    0.04154971866    0.04154971866
   0.04196521488    0.04196521488    0.04196521488
   0.04238071181    0.04238071181    0.04238071181
   0.04279620978    0.04279620978    0.04279620978
   0.04321170901    0.04321170901    0.04321170901
   0.04362720911    0.04362720911    0.04362720911
   0.0440427096    0.0440427096    0.0440427096
   0.04445821001    0.04445821001    0.04445821001
   0.04487370986    0.04487370986    0.04487370986
   0.04528920868    0.04528920868    0.04528920868
   0.0457047063    0.0457047063    0.0457047063
   0.04612020307    0.04612020307    0.04612020307
   0.04653569934    0.04653569934    0.04653569934
   0.04695119547    0.04695119547    0.04695119547
   0.04736669181    0.04736669181    0.04736669181
   0.04778218871    0.04778218871    0.04778218871
   0.04819768648    0.04819768648    0.04819768648
   0.04861318499    0.04861318499    0.04861318499
   0.04902868393    0.04902868393    0.04902868393
   0.049444183    0.049444183    0.049444183
   0.04985968189    0.04985968189    0.04985968189
   0.05027518031    0.05027518031    0.05027518031
   0.05069067794    0.05069067794    0.05069067794
   0.05110617476    0.05110617476    0.05110617476
   0.051521671    0.051521671    0.051521671
   0.05193716691    0.05193716691    0.05193716691
   0.05235266273    0.05235266273    0.05235266273
   0.05276815868    0.05276815868    0.05276815868
   0.05318365502    0.05318365502    0.05318365502
   0.05359915177    0.05359915177    0.05359915177
   0.05401464865    0.05401464865    0.05401464865
   0.05443014569    0.05443014569    0.05443014569
   0.0548456429    0.0548456429    0.0548456429
   0.0552611403    0.0552611403    0.0552611403
   0.05567663793    0.05567663793    0.05567663793
   0.05609213583    0.05609213583    0.05609213583
   0.05650763432    0.05650763432    0.05650763432
   0.0569231332    0.0569231332    0.0569231332
   0.05733863223    0.05733863223    0.05733863223
   0.05775413111    0.05775413111    0.05775413111
   0.05816962959    0.05816962959    0.05816962959
   0.05858512739    0.05858512739    0.05858512739
   0.05900062436    0.05900062436    0.05900062436
   0.05941612069    0.05941612069    0.05941612069
   0.05983161663    0.05983161663    0.05983161663
   0.06024711242    0.06024711242    0.06024711242
   0.06066260834    0.06066260834    0.06066260834
   0.06107810461    0.06107810461    0.06107810461
   0.06149360143    0.06149360143    0.06149360143
   0.06190909859    0.06190909859    0.06190909859
   0.06232459598    0.06232459598    0.06232459598
   0.06274009351    0.06274009351    0.06274009351
   0.0631555911    0.0631555911    0.0631555911
   0.06357108866    0.06357108866    0.06357108866
   0.0639865861    0.0639865861    0.0639865861
   0.06440208351    0.06440208351    0.06440208351
   0.06481758093    0.06481758093    0.06481758093
   0.06523307836    0.06523307836    0.06523307836
   0.06564857578    0.06564857578    0.06564857578
   0.06606407316    0.06606407316    0.06606407316
   0.0664795705    0.0664795705    0.0664795705
   0.06689506778    0.06689506778    0.06689506778
   0.06731056501    0.06731056501    0.06731056501
   0.0677260622    0.0677260622    0.0677260622
   0.06814155939    0.06814155939    0.06814155939
   0.06855705659    0.06855705659    0.06855705659
   0.06897255383    0.06897255383    0.06897255383
   0.06938805113    0.06938805113    0.06938805113
   0.0698035486    0.0698035486    0.0698035486
   0.07021904618    0.07021904618    0.07021904618
   0.07063454376    0.07063454376    0.07063454376
   0.07105004125    0.07105004125    0.07105004125
   0.07146553855    0.07146553855    0.07146553855
   0.07188103555    0.07188103555    0.07188103555
   0.07229653212    0.07229653212    0.07229653212
   0.07271202833    0.07271202833    0.07271202833
   0.07312752433    0.07312752433    0.07312752433
   0.07354302029    0.07354302029    0.07354302029
   0.07395851638    0.07395851638    0.07395851638
   0.07437401277    0.07437401277    0.07437401277
   0.07478950956    0.07478950956    0.07478950956
   0.07520500658    0.07520500658    0.07520500658
   0.0756205038    0.0756205038    0.0756205038
   0.0760360012    0.0760360012    0.0760360012
   0.07645149877    0.07645149877    0.07645149877
   0.07686699648    0.07686699648    0.07686699648
   0.07728249432    0.07728249432    0.07728249432
   0.07769799257    0.07769799257    0.07769799257
   0.07811349121    0.07811349121    0.07811349121
   0.07852899    0.07852899    0.07852899
   0.07894448871    0.07894448871    0.07894448871
   0.0793599871    0.0793599871    0.0793599871
   0.07977548496    0.07977548496    0.07977548496
   0.08019098206    0.08019098206    0.08019098206
   0.08060647851    0.08060647851    0.08060647851
   0.08102197453    0.08102197453    0.08102197453
   0.08143747036    0.08143747036    0.08143747036
   0.08185296624    0.08185296624    0.08185296624
   0.08226846242    0.08226846242    0.08226846242
   0.0826839591    0.0826839591    0.0826839591
   0.08309945619    0.08309945619    0.08309945619
   0.08351495352    0.08351495352    0.08351495352
   0.08393045103    0.08393045103    0.08393045103
   0.08434594861    0.08434594861    0.08434594861
   0.08476144619    0.08476144619    0.08476144619
   0.08517694367    0.08517694367    0.08517694367
   0.08559244106    0.08559244106    0.08559244106
   0.08600793845    0.08600793845    0.08600793845
   0.08642343585    0.08642343585    0.08642343585
   0.08683893326    0.08683893326    0.08683893326
   0.08725443066    0.08725443066    0.08725443066
   0.08766992805    0.08766992805    0.08766992805
   0.08808542544    0.08808542544    0.08808542544
   0.08850092286    0.08850092286    0.08850092286
   0.08891642029    0.08891642029    0.08891642029
   0.08933191771    0.08933191771    0.08933191771
   0.08974741512    0.08974741512    0.08974741512
   0.09016291249    0.09016291249    0.09016291249
   0.09057840981    0.09057840981    0.09057840981
   0.09099390707    0.09099390707    0.09099390707
   0.09140940429    0.09140940429    0.09140940429
   0.09182490148    0.09182490148    0.09182490148
   0.09224039867    0.09224039867    0.09224039867
   0.09265589588    0.09265589588    0.09265589588
   0.09307139313    0.09307139313    0.09307139313
   0.09348689044    0.09348689044    0.09348689044
   0.0939023878    0.0939023878    0.0939023878
   0.0943178852    0.0943178852    0.0943178852
   0.09473338263    0.09473338263    0.09473338263
   0.09514888006    0.09514888006    0.09514888006
   0.09556437747    0.09556437747    0.09556437747
   0.09597987487    0.09597987487    0.09597987487
   0.09639537226    0.09639537226    0.09639537226
   0.09681086966    0.09681086966    0.09681086966
   0.09722636706    0.09722636706    0.09722636706
   0.09764186446    0.09764186446    0.09764186446
   0.09805736186    0.09805736186    0.09805736186
   0.09847285925    0.09847285925    0.09847285925
   0.09888835659    0.09888835659    0.09888835659
   0.09930385385    0.09930385385    0.09930385385
   0.09971935109    0.09971935109    0.09971935109
   0.1001348484    0.1001348484    0.1001348484
   0.1005503458    0.1005503458    0.1005503458
   0.1009658434    0.1009658434    0.1009658434
   0.1013813413    0.1013813413    0.1013813413
   0.1017968397    0.1017968397    0.1017968397
   0.1022123384    0.1022123384    0.1022123384
   0.1026278372    0.1026278372    0.1026278372
   0.1030433358    0.1030433358    0.1030433358
   0.1034588341    0.1034588341    0.1034588341
   0.1038743317    0.1038743317    0.1038743317
   0.1042898288    0.1042898288    0.1042898288
   0.1047053252    0.1047053252    0.1047053252
   0.1051208214    0.1051208214    0.1051208214
   0.1055363175    0.1055363175    0.1055363175
   0.1059518136    0.1059518136    0.1059518136
   0.10636731    0.10636731    0.10636731
   0.1067828069    0.1067828069    0.1067828069
   0.1071983039    0.1071983039    0.1071983039
   0.1076138011    0.1076138011    0.1076138011
   0.1080292985    0.1080292985    0.1080292985
   0.1084447958    0.1084447958    0.1084447958
   0.1088602932    0.1088602932    0.1088602932
   0.1092757904    0.1092757904    0.1092757904
   0.1096912876    0.1096912876    0.1096912876
   0.1101067848    0.1101067848    0.1101067848
   0.1105222819    0.1105222819    0.1105222819
   0.1109377791    0.1109377791    0.1109377791
   0.1113532764    0.1113532764    0.1113532764
   0.1117687737    0.1117687737    0.1117687737
   0.1121842712    0.1121842712    0.1121842712
   0.1125997687    0.1125997687    0.1125997687
   0.1130152664    0.1130152664    0.1130152664
   0.113430764    0.113430764    0.113430764
   0.1138462617    0.1138462617    0.1138462617
   0.1142617592    0.1142617592    0.1142617592
   0.1146772566    0.1146772566    0.1146772566
   0.1150927539    0.1150927539    0.1150927539
   0.115508251    0.115508251    0.115508251
   0.1159237482    0.1159237482    0.1159237482
   0.1163392453    0.1163392453    0.1163392453
   0.1167547426    0.1167547426    0.1167547426
   0.1171702399    0.1171702399    0.1171702399
   0.1175857374    0.1175857374    0.1175857374
   0.1180012349    0.1180012349    0.1180012349
   0.1184167326    0.1184167326    0.1184167326
   0.1188322302    0.1188322302    0.1188322302
   0.1192477279    0.1192477279    0.1192477279
   0.1196632254    0.1196632254    0.1196632254
   0.1200787228    0.1200787228    0.1200787228
   0.12049422    0.12049422    0.12049422
   0.1209097173    0.1209097173    0.1209097173
   0.1213252145    0.1213252145    0.1213252145
   0.1217407116    0.1217407116    0.1217407116
   0.1221562088    0.1221562088    0.1221562088
   0.122571706    0.122571706    0.122571706
   0.1229872032    0.1229872032    0.1229872032
   0.1234027004    0.1234027004    0.1234027004
   0.1238181975    0.1238181975    0.1238181975
   0.1242336947    0.1242336947    0.1242336947
   0.124649192    0.124649192    0.124649192
   0.1250646893    0.1250646893    0.1250646893
   0.1254801868    0.1254801868    0.1254801868
   0.1258956843    0.1258956843    0.1258956843
   0.126311182    0.126311182    0.126311182
   0.1267266796    0.1267266796    0.1267266796
   0.1271421772    0.1271421772    0.1271421772
   0.1275576748    0.1275576748    0.1275576748
   0.1279731722    0.1279731722    0.1279731722
   0.1283886695    0.1283886695    0.1283886695
   0.1288041666    0.1288041666    0.1288041666
   0.1292196638    0.1292196638    0.1292196638
   0.1296351609    0.1296351609    0.1296351609
   0.1300506582    0.1300506582    0.1300506582
   0.1304661555    0.1304661555    0.1304661555
   0.1308816529    0.1308816529    0.1308816529
   0.1312971505    0.1312971505    0.1312971505
   0.1317126482    0.1317126482    0.1317126482
   0.1321281458    0.1321281458    0.1321281458
   0.1325436434    0.1325436434    0.1325436434
   0.132959141    0.132959141    0.132959141
   0.1333746383    0.1333746383    0.1333746383
   0.1337901356    0.1337901356    0.1337901356
   0.1342056329    0.1342056329    0.1342056329
   0.1346211301    0.1346211301    0.1346211301
   0.1350366272    0.1350366272    0.1350366272
   0.1354521244    0.1354521244    0.1354521244
   0.1358676216    0.1358676216    0.1358676216
   0.1362831188    0.1362831188    0.1362831188
   0.136698616    0.136698616    0.136698616
   0.1371141131    0.1371141131    0.1371141131
   0.1375296103    0.1375296103    0.1375296103
   0.1379451076    0.1379451076    0.1379451076
   0.1383606049    0.1383606049    0.1383606049
   0.1387761023    0.1387761023    0.1387761023
   0.1391915999    0.1391915999    0.1391915999
   0.1396070975    0.1396070975    0.1396070975
   0.1400225952    0.1400225952    0.1400225952
   0.1404380928    0.1404380928    0.1404380928
   0.1408535904    0.1408535904    0.1408535904
   0.1412690878    0.1412690878    0.1412690878
   0.1416845848    0.1416845848    0.1416845848
   0.1421000817    0.1421000817    0.1421000817
   0.1425155786    0.1425155786    0.1425155786
   0.1429310756    0.1429310756    0.1429310756
   0.143346573    0.143346573    0.143346573
   0.143762071    0.143762071    0.143762071
   0.1441775699    0.1441775699    0.1441775699
   0.1445930698    0.1445930698    0.1445930698
   0.1450085702    0.1450085702    0.1450085702
   0.1454240705    0.1454240705    0.1454240705
   0.1458395703    0.1458395703    0.1458395703
   0.1462550691    0.1462550691    0.1462550691
   0.1466705664    0.1466705664    0.1466705664
   0.1470860623    0.1470860623    0.1470860623
   0.1475015574    0.1475015574    0.1475015574
   0.1479170519    0.1479170519    0.1479170519
   0.1483325464    0.1483325464    0.1483325464
   0.1487480413    0.1487480413    0.1487480413
   0.1491635371    0.1491635371    0.1491635371
   0.1495790336    0.1495790336    0.1495790336
   0.1499945306    0.1499945306    0.1499945306
   0.1504100279    0.1504100279    0.1504100279
   0.1508255254    0.1508255254    0.1508255254
   0.151241023    0.151241023    0.151241023
   0.1516565205    0.1516565205    0.1516565205
   0.1520720179    0.1520720179    0.1520720179
   0.1524875155    0.1524875155    0.1524875155
   0.1529030131    0.1529030131    0.1529030131
   0.1533185108    0.1533185108    0.1533185108
   0.1537340084    0.1537340084    0.1537340084
   0.1541495059    0.1541495059    0.1541495059
   0.1545650034    0.1545650034    0.1545650034
   0.1549805004    0.1549805004    0.1549805004
   0.1553959973    0.1553959973    0.1553959973
   0.1558114942    0.1558114942    0.1558114942
   0.1562269912    0.1562269912    0.1562269912
   0.1566424886    0.1566424886    0.1566424886
   0.1570579866    0.1570579866    0.1570579866
   0.1574734854    0.1574734854    0.1574734854
   0.1578889853    0.1578889853    0.1578889853
   0.1583044856    0.1583044856    0.1583044856
   0.1587199859    0.1587199859    0.1587199859
   0.1591354858    0.1591354858    0.1591354858
   0.1595509846    0.1595509846    0.1595509846
   0.159966482    0.159966482    0.159966482
   0.160381978    0.160381978    0.160381978
   0.1607974731    0.1607974731    0.1607974731
   0.1612129676    0.1612129676    0.1612129676
   0.1616284621    0.1616284621    0.1616284621
   0.162043957    0.162043957    0.162043957
   0.1624594527    0.1624594527    0.1624594527
   0.1628749492    0.1628749492    0.1628749492
   0.1632904462    0.1632904462    0.1632904462
   0.1637059435    0.1637059435    0.1637059435
   0.164121441    0.164121441    0.164121441
   0.1645369386    0.1645369386    0.1645369386
   0.1649524361    0.1649524361    0.1649524361
   0.1653682128    0.1653682128    0.1653682128
   0.1657848484    0.1657848484    0.1657848484
   0.1662017783    0.1662017783    0.1662017783
   0.1666183629    0.1666183629    0.1666183629
   0.1670339624    0.1670339624    0.1670339624
   0.1674479372    0.1674479372    0.1674479372
   0.1678601023    0.1678601023    0.1678601023
   0.1682773553    0.1682773553    0.1682773553
   0.1686980282    0.1686980282    0.1686980282
   0.1691166103    0.1691166103    0.1691166103
   0.1695275905    0.1695275905    0.1695275905
   0.1699254582    0.1699254582    0.1699254582
   0.1703047025    0.1703047025    0.1703047025
   0.1706610227    0.1706610227    0.1706610227
   0.1709972553    0.1709972553    0.1709972553
   0.1713188414    0.1713188414    0.1713188414
   0.1716312256    0.1716312256    0.1716312256
   0.1719398527    0.1719398527    0.1719398527
   0.1722501671    0.1722501671    0.1722501671
   0.1725663366    0.1725663366    0.1725663366
   0.1728825183    0.1728825183    0.1728825183
   0.1731971492    0.1731971492    0.1731971492
   0.173510292    0.173510292    0.173510292
   0.1738220096    0.1738220096    0.1738220096
   0.174132365    0.174132365    0.174132365
   0.1744414207    0.1744414207    0.1744414207
   0.1747490696    0.1747490696    0.1747490696
   0.1750552481    0.1750552481    0.1750552481
   0.1753600448    0.1753600448    0.1753600448
   0.1756635483    0.1756635483    0.1756635483
   0.1759658472    0.1759658472    0.1759658472
   0.1762670302    0.1762670302    0.1762670302
   0.1765669732    0.1765669732    0.1765669732
   0.1768651466    0.1768651466    0.1768651466
   0.1771619137    0.1771619137    0.1771619137
   0.1774577168    0.1774577168    0.1774577168
   0.1777529978    0.1777529978    0.1777529978
   0.1780481991    0.1780481991    0.1780481991
   0.1783437302    0.1783437302    0.1783437302
   0.1786390933    0.1786390933    0.1786390933
   0.1789340813    0.1789340813    0.1789340813
   0.1792288429    0.1792288429    0.1792288429
   0.179523527    0.179523527    0.179523527
   0.1798182825    0.1798182825    0.1798182825
   0.1801132582    0.1801132582    0.1801132582
   0.1804085045    0.1804085045    0.1804085045
   0.1807038778    0.1807038778    0.1807038778
   0.1809993403    0.1809993403    0.1809993403
   0.1812948582    0.1812948582    0.1812948582
   0.1815903974    0.1815903974    0.1815903974
   0.1818859241    0.1818859241    0.1818859241
   0.1821814121    0.1821814121    0.1821814121
   0.1824769048    0.1824769048    0.1824769048
   0.1827724091    0.1827724091    0.1827724091
   0.1830679173    0.1830679173    0.1830679173
   0.1833634215    0.1833634215    0.1833634215
   0.1836589139    0.1836589139    0.1836589139
   0.1839543869    0.1839543869    0.1839543869
   0.1842498006    0.1842498006    0.1842498006
   0.1845451511    0.1845451511    0.1845451511
   0.1848404848    0.1848404848    0.1848404848
   0.1851358476    0.1851358476    0.1851358476
   0.1854312858    0.1854312858    0.1854312858
   0.1857268456    0.1857268456    0.1857268456
   0.186022577    0.186022577    0.186022577
   0.1863184952    0.1863184952    0.1863184952
   0.1866145379    0.1866145379    0.1866145379
   0.186910638    0.186910638    0.186910638
   0.1872067281    0.1872067281    0.1872067281
   0.1875027412    0.1875027412    0.1875027412
   0.1877986106    0.1877986106    0.1877986106
   0.1880943221    0.1880943221    0.1880943221
   0.1883899278    0.1883899278    0.1883899278
   0.1886854804    0.1886854804    0.1886854804
   0.1889810323    0.1889810323    0.1889810323
   0.1892766361    0.1892766361    0.1892766361
   0.1895723444    0.1895723444    0.1895723444
   0.1898681562    0.1898681562    0.1898681562
   0.190163991    0.190163991    0.190163991
   0.1904598722    0.1904598722    0.1904598722
   0.1907558279    0.1907558279    0.1907558279
   0.1910518859    0.1910518859    0.1910518859
   0.1913480742    0.1913480742    0.1913480742
   0.1916444256    0.1916444256    0.1916444256
   0.1919409908    0.1919409908    0.1919409908
   0.1922377237    0.1922377237    0.1922377237
   0.1925345576    0.1925345576    0.1925345576
