ACES2Looks/ACEScct_LUT/T-ACES1_SSTS_Tone.spi1d
Version 1
From 0 1.4679964
Length 4096
Components 1
{
		 0
		 0.0004154958843
		 0.0008309918517
		 0.001246487988
		 0.00166198438
		 0.002077481112
		 0.002492978271
		 0.002908476024
		 0.003323974617
		 0.003739473758
		 0.004154973104
		 0.004570472313
		 0.004985971042
		 0.005401468949
		 0.005816965879
		 0.006232462114
		 0.006647958001
		 0.007063453885
		 0.007478950112
		 0.007894447029
		 0.008309944928
		 0.008725443676
		 0.009140942922
		 0.009556442315
		 0.009971941502
		 0.01038744013
		 0.01080293788
		 0.01121843487
		 0.01163393132
		 0.01204942743
		 0.0124649234
		 0.0128804194
		 0.01329591563
		 0.01371141207
		 0.01412690853
		 0.01454240502
		 0.01495790152
		 0.01537339802
		 0.01578889451
		 0.01620439095
		 0.01661988715
		 0.01703538325
		 0.01745087942
		 0.01786637583
		 0.01828187265
		 0.01869737006
		 0.01911286832
		 0.01952836728
		 0.0199438666
		 0.02035936594
		 0.02077486496
		 0.02119036333
		 0.02160586083
		 0.02202135775
		 0.02243685424
		 0.02285235046
		 0.02326784656
		 0.0236833427
		 0.02409883898
		 0.024514335
		 0.0249298308
		 0.0253453266
		 0.02576082262
		 0.0261763191
		 0.02659181625
		 0.0270073144
		 0.02742281348
		 0.02783831309
		 0.02825381282
		 0.02866931226
		 0.029084811
		 0.02950030868
		 0.02991580549
		 0.03033130171
		 0.03074679758
		 0.03116229334
		 0.03157778924
		 0.03199328551
		 0.03240878193
		 0.03282427833
		 0.03323977481
		 0.03365527145
		 0.03407076836
		 0.03448626565
		 0.03490176346
		 0.03531726192
		 0.03573276079
		 0.03614825979
		 0.03656375867
		 0.03697925715
		 0.03739475498
		 0.03781025227
		 0.0382257492
		 0.03864124585
		 0.03905674232
		 0.03947223872
		 0.03988773514
		 0.04030323139
		 0.04071872721
		 0.04113422286
		 0.04154971866
		 0.04196521488
		 0.04238071181
		 0.04279620978
		 0.04321170901
		 0.04362720911
		 0.0440427096
		 0.04445821001
		 0.04487370986
		 0.04528920868
		 0.0457047063
		 0.04612020307
		 0.04653569934
		 0.04695119547
		 0.04736669181
		 0.04778218871
		 0.04819768648
		 0.04861318499
		 0.04902868393
		 0.049444183
		 0.04985968189
		 0.05027518031
		 0.05069067794
		 0.05110617476
		 0.051521671
		 0.05193716691
		 0.05235266273
		 0.05276815868
		 0.05318365502
		 0.05359915177
		 0.05401464865
		 0.05443014569
		 0.0548456429
		 0.0552611403
		 0.05567663793
		 0.05609213583
		 0.05650763432
		 0.0569231332
		 0.05733863223
		 0.05775413111
		 0.05816962959
		 0.05858512739
		 0.05900062436
		 0.05941612069
		 0.05983161663
		 0.06024711242
		 0.06066260834
		 0.06107810461
		 0.06149360143
		 0.06190909859
		 0.06232459598
		 0.06274009351
		 0.0631555911
		 0.06357108866
		 0.0639865861
		 0.06440208351
		 0.06481758093
		 0.06523307836
		 0.06564857578
		 0.06606407316
		 0.0664795705
		 0.06689506778
		 0.06731056501
		 0.0677260622
		 0.06814155939
		 0.06855705659
		 0.06897255383
		 0.06938805113
		 0.0698035486
		 0.07021904618
		 0.07063454376
		 0.07105004125
		 0.07146553855
		 0.07188103555
		 0.07229653212
		 0.07271202833
		 0.07312752433
		 0.07354302029
		 0.07395851638
		 0.07437401277
		 0.07478950956
		 0.07520500658
		 0.0756205038
		 0.0760360012
		 0.07645149877
		 0.07686699648
		 0.07728249432
		 0.07769799257
		 0.07811349121
		 0.07852899
		 0.07894448871
		 0.0793599871
		 0.07977548496
		 0.08019098206
		 0.08060647851
		 0.08102197453
		 0.08143747036
		 0.08185296624
		 0.08226846242
		 0.0826839591
		 0.08309945619
		 0.08351495352
		 0.08393045103
		 0.08434594861
		 0.08476144619
		 0.08517694367
		 0.08559244106
		 0.08600793845
		 0.08642343585
		 0.08683893326
		 0.08725443066
		 0.08766992805
		 0.08808542544
		 0.08850092286
		 0.08891642029
		 0.08933191771
		 0.08974741512
		 0.09016291249
		 0.09057840981
		 0.09099390707
		 0.09140940429
		 0.09182490148
		 0.09224039867
		 0.09265589588
		 0.09307139313
		 0.09348689044
		 0.0939023878
		 0.0943178852
		 0.09473338263
		 0.09514888006
		 0.09556437747
		 0.09597987487
		 0.09639537226
		 0.09681086966
		 0.09722636706
		 0.09764186446
		 0.09805736186
		 0.09847285925
		 0.09888835659
		 0.09930385385
		 0.09971935109
		 0.1001348484
		 0.1005503458
		 0.1009658434
		 0.1013813413
		 0.1017968397
		 0.1022123384
		 0.1026278372
		 0.1030433358
		 0.1034588341
		 0.1038743317
		 0.1042898288
		 0.1047053252
		 0.1051208214
		 0.1055363175
		 0.1059518136
		 0.10636731
		 0.1067828069
		 0.1071983039
		 0.1076138011
		 0.1080292985
		 0.1084447958
		 0.1088602932
		 0.1092757904
		 0.1096912876
		 0.1101067848
		 0.1105222819
		 0.1109377791
		 0.1113532764
		 0.1117687737
		 0.1121842712
		 0.1125997687
		 0.1130152664
		 0.113430764
		 0.1138462617
		 0.1142617592
		 0.1146772566
		 0.1150927539
		 0.115508251
		 0.1159237482
		 0.1163392453
		 0.1167547426
		 0.1171702399
		 0.1175857374
		 0.1180012349
		 0.1184167326
		 0.1188322302
		 0.1192477279
		 0.1196632254
		 0.1200787228
		 0.12049422
		 0.1209097173
		 0.1213252145
		 0.1217407116
		 0.1221562088
		 0.122571706
		 0.1229872032
		 0.1234027004
		 0.1238181975
		 0.1242336947
		 0.124649192
		 0.1250646893
		 0.1254801868
		 0.1258956843
		 0.126311182
		 0.1267266796
		 0.1271421772
		 0.1275576748
		 0.1279731722
		 0.1283886695
		 0.1288041666
		 0.1292196638
		 0.1296351609
		 0.1300506582
		 0.1304661555
		 0.1308816529
		 0.1312971505
		 0.1317126482
		 0.1321281458
		 0.1325436434
		 0.132959141
		 0.1333746383
		 0.1337901356
		 0.1342056329
		 0.1346211301
		 0.1350366272
		 0.1354521244
		 0.1358676216
		 0.1362831188
		 0.136698616
		 0.1371141131
		 0.1375296103
		 0.1379451076
		 0.1383606049
		 0.1387761023
		 0.1391915999
		 0.1396070975
		 0.1400225952
		 0.1404380928
		 0.1408535904
		 0.1412690878
		 0.1416845848
		 0.1421000817
		 0.1425155786
		 0.1429310756
		 0.143346573
		 0.143762071
		 0.1441775699
		 0.1445930698
		 0.1450085702
		 0.1454240705
		 0.1458395703
		 0.1462550691
		 0.1466705664
		 0.1470860623
		 0.1475015574
		 0.1479170519
		 0.1483325464
		 0.1487480413
		 0.1491635371
		 0.1495790336
		 0.1499945306
		 0.1504100279
		 0.1508255254
		 0.151241023
		 0.1516565205
		 0.1520720179
		 0.1524875155
		 0.1529030131
		 0.1533185108
		 0.1537340084
		 0.1541495059
		 0.1545650034
		 0.1549805004
		 0.1553959973
		 0.1558114942
		 0.1562269912
		 0.1566424886
		 0.1570579866
		 0.1574734854
		 0.1578889853
		 0.1583044856
		 0.1587199859
		 0.1591354858
		 0.1595509846
		 0.159966482
		 0.160381978
		 0.1607974731
		 0.1612129676
		 0.1616284621
		 0.162043957
		 0.1624594527
		 0.1628749492
		 0.1632904462
		 0.1637059435
		 0.164121441
		 0.1645369386
		 0.1649524361
		 0.1653682128
		 0.1657848484
		 0.1662017783
		 0.1666183629
		 0.1670339624
		 0.1674479372
		 0.1678601023
		 0.1682773553
		 0.1686980282
		 0.1691166103
		 0.1695275905
		 0.1699254582
		 0.1703047025
		 0.1706610227
		 0.1709972553
		 0.1713188414
		 0.1716312256
		 0.1719398527
		 0.1722501671
		 0.1725663366
		 0.1728825183
		 0.1731971492
		 0.173510292
		 0.1738220096
		 0.174132365
		 0.1744414207
		 0.1747490696
		 0.1750552481
		 0.1753600448
		 0.1756635483
		 0.1759658472
		 0.1762670302
		 0.1765669732
		 0.1768651466
		 0.1771619137
		 0.1774577168
		 0.1777529978
		 0.1780481991
		 0.1783437302
		 0.1786390933
		 0.1789340813
		 0.1792288429
		 0.179523527
		 0.1798182825
		 0.1801132582
		 0.1804085045
		 0.1807038778
		 0.1809993403
		 0.1812948582
		 0.1815903974
		 0.1818859241
		 0.1821814121
		 0.1824769048
		 0.1827724091
		 0.1830679173
		 0.1833634215
		 0.1836589139
		 0.1839543869
		 0.1842498006
		 0.1845451511
		 0.1848404848
		 0.1851358476
		 0.1854312858
		 0.1857268456
		 0.186022577
		 0.1863184952
		 0.1866145379
		 0.186910638
		 0.1872067281
		 0.1875027412
		 0.1877986106
		 0.1880943221
		 0.1883899278
		 0.1886854804
		 0.1889810323
		 0.1892766361
		 0.1895723444
		 0.1898681562
		 0.190163991
		 0.1904598722
		 0.1907558279
		 0.1910518859
		 0.1913480742
		 0.1916444256
		 0.1919409908
		 0.1922377237
		 0.1925345576
		 0.1928314254
		 0.1931282603
		 0.1934249954
		 0.1937216242
		 0.1940182052
		 0.1943147564
		 0.1946112956
		 0.1949078409
		 0.19520441
		 0.1955010128
		 0.1957976228
		 0.1960942408
		 0.1963908729
		 0.1966875252
		 0.1969842035
		 0.197280913
		 0.1975776074
		 0.1978742868
		 0.1981709908
		 0.1984677591
		 0.1987646314
		 0.1990616473
		 0.199358838
		 0.1996561844
		 0.1999536534
		 0.2002512119
		 0.200548827
		 0.200846466
		 0.2011441042
		 0.2014418215
		 0.2017396125
		 0.2020374344
		 0.2023352443
		 0.2026329993
		 0.2029306564
		 0.2032281579
		 0.2035255132
		 0.2038227988
		 0.2041200916
		 0.2044174684
		 0.2047150059
		 0.2050127605
		 0.205310656
		 0.2056086681
		 0.2059067885
		 0.2062050089
		 0.2065033211
		 0.2068017173
		 0.2071002472
		 0.2073989165
		 0.2076976811
		 0.2079964971
		 0.2082953202
		 0.2085941065
		 0.2088928223
		 0.209191491
		 0.2094901452
		 0.2097888165
		 0.2100875365
		 0.2103863368
		 0.2106852461
		 0.2109842336
		 0.2112832854
		 0.2115824048
		 0.2118815952
		 0.2121808601
		 0.212480203
		 0.2127796539
		 0.2130792324
		 0.2133788966
		 0.2136786038
		 0.2139783116
		 0.2142779774
		 0.214577551
		 0.2148769822
		 0.2151763399
		 0.2154757091
		 0.215775175
		 0.2160748228
		 0.2163747375
		 0.2166749684
		 0.2169754538
		 0.2172761113
		 0.2175768583
		 0.2178776122
		 0.2181782905
		 0.2184788391
		 0.2187793255
		 0.2190797861
		 0.2193802514
		 0.2196807518
		 0.2199813179
		 0.2202819758
		 0.220582659
		 0.2208833627
		 0.2211841244
		 0.2214849817
		 0.2217859724
		 0.2220871339
		 0.2223885051
		 0.2226900761
		 0.222991797
		 0.2232936174
		 0.2235954869
		 0.223897355
		 0.2241991776
		 0.2245009801
		 0.2248027928
		 0.2251046391
		 0.2254065419
		 0.2257085246
		 0.2260106101
		 0.2263127978
		 0.2266150685
		 0.2269174163
		 0.227219835
		 0.2275223187
		 0.2278248614
		 0.2281274441
		 0.2284300304
		 0.228732657
		 0.2290353674
		 0.2293382052
		 0.2296412138
		 0.2299444383
		 0.2302479382
		 0.2305516694
		 0.2308555522
		 0.2311595066
		 0.231463453
		 0.2317673116
		 0.2320710408
		 0.232374705
		 0.2326783424
		 0.2329819896
		 0.2332856829
		 0.2335894588
		 0.233893339
		 0.2341972184
		 0.2345011164
		 0.2348050927
		 0.2351092072
		 0.2354135198
		 0.2357180903
		 0.236022983
		 0.2363281682
		 0.2366335592
		 0.2369390694
		 0.2372446121
		 0.2375501008
		 0.2378554644
		 0.2381607464
		 0.2384660047
		 0.2387712921
		 0.2390766615
		 0.2393821657
		 0.2396878565
		 0.2399937139
		 0.2402997013
		 0.240605808
		 0.2409120232
		 0.241218336
		 0.2415247358
		 0.2418312188
		 0.2421377974
		 0.2424444725
		 0.242751244
		 0.243058112
		 0.2433650766
		 0.2436721381
		 0.2439793
		 0.2442865607
		 0.2445939174
		 0.244901367
		 0.2452089065
		 0.2455165328
		 0.2458242378
		 0.2461320201
		 0.2464398903
		 0.246747859
		 0.2470559368
		 0.2473641344
		 0.2476724583
		 0.247980894
		 0.2482894411
		 0.2485981018
		 0.2489068786
		 0.2492157739
		 0.2495247905
		 0.2498339521
		 0.2501432558
		 0.2504526781
		 0.2507621951
		 0.2510717831
		 0.2513814183
		 0.2516910748
		 0.2520007502
		 0.252310478
		 0.2526202926
		 0.2529302287
		 0.2532403207
		 0.2535506005
		 0.2538610458
		 0.2541716378
		 0.2544823697
		 0.254793235
		 0.2551042272
		 0.2554153396
		 0.2557265817
		 0.2560379672
		 0.256349483
		 0.2566611158
		 0.2569728521
		 0.2572846787
		 0.2575965825
		 0.2579085626
		 0.258220632
		 0.2585328045
		 0.2588450941
		 0.2591575145
		 0.2594700796
		 0.2597827853
		 0.260095621
		 0.2604085848
		 0.2607216749
		 0.2610348894
		 0.2613482265
		 0.2616616859
		 0.2619752705
		 0.2622889796
		 0.2626028123
		 0.2629167676
		 0.2632308444
		 0.2635450412
		 0.2638593496
		 0.2641737728
		 0.2644883189
		 0.2648029959
		 0.2651178118
		 0.2654327746
		 0.265747893
		 0.266063165
		 0.2663785793
		 0.2666941247
		 0.2670097898
		 0.2673255634
		 0.2676414342
		 0.2679574004
		 0.268273473
		 0.2685896642
		 0.268905986
		 0.2692224506
		 0.26953907
		 0.2698558295
		 0.2701727167
		 0.2704897434
		 0.2708069214
		 0.2711242624
		 0.2714417783
		 0.2717594728
		 0.2720773255
		 0.2723953405
		 0.2727135248
		 0.2730318855
		 0.2733504295
		 0.2736691659
		 0.2739881452
		 0.2743073507
		 0.2746267335
		 0.2749462445
		 0.2752658347
		 0.2755854551
		 0.2759050721
		 0.2762247152
		 0.2765444222
		 0.2768642302
		 0.2771841765
		 0.2775042983
		 0.2778246254
		 0.2781451141
		 0.2784657543
		 0.2787865518
		 0.2791075122
		 0.2794286411
		 0.2797499443
		 0.280071433
		 0.2803931057
		 0.2807149483
		 0.281036947
		 0.2813590875
		 0.2816813559
		 0.2820037376
		 0.2823262298
		 0.2826488496
		 0.2829716154
		 0.2832945456
		 0.2836176584
		 0.2839409718
		 0.2842644835
		 0.2845881803
		 0.2849120538
		 0.2852360959
		 0.2855602982
		 0.2858846525
		 0.2862091496
		 0.2865337898
		 0.2868585848
		 0.2871835469
		 0.287508688
		 0.2878340203
		 0.2881595571
		 0.2884853141
		 0.2888112746
		 0.2891374153
		 0.2894637131
		 0.2897901447
		 0.290116687
		 0.2904433071
		 0.2907700117
		 0.2910968437
		 0.2914238462
		 0.2917510621
		 0.2920785346
		 0.2924063088
		 0.2927343996
		 0.2930627534
		 0.2933913113
		 0.2937200144
		 0.294048804
		 0.2943776208
		 0.2947064212
		 0.2950352518
		 0.2953641836
		 0.2956932875
		 0.2960226343
		 0.296352295
		 0.2966823257
		 0.2970126937
		 0.2973433396
		 0.2976742045
		 0.2980052294
		 0.2983363556
		 0.2986675268
		 0.2989987508
		 0.299330071
		 0.2996615252
		 0.2999931515
		 0.3003249877
		 0.3006570717
		 0.3009894147
		 0.3013219842
		 0.3016547656
		 0.3019877444
		 0.3023209064
		 0.3026542371
		 0.3029877219
		 0.3033213562
		 0.3036551566
		 0.3039891413
		 0.3043233285
		 0.3046577365
		 0.3049923836
		 0.3053272838
		 0.3056624239
		 0.3059977818
		 0.3063333357
		 0.3066690638
		 0.3070049441
		 0.3073409581
		 0.3076771134
		 0.3080134298
		 0.3083499269
		 0.3086866241
		 0.3090235411
		 0.3093606974
		 0.3096980976
		 0.3100357253
		 0.3103735626
		 0.3107115913
		 0.3110497936
		 0.3113881515
		 0.3117266581
		 0.312065329
		 0.3124041713
		 0.3127431922
		 0.3130823986
		 0.3134217976
		 0.3137613853
		 0.3141011014
		 0.3144409743
		 0.3147810501
		 0.3151213755
		 0.3154619967
		 0.3158029602
		 0.3161443185
		 0.3164860418
		 0.3168280593
		 0.3171703002
		 0.3175126939
		 0.3178551695
		 0.3181976731
		 0.318540246
		 0.3188829338
		 0.3192257792
		 0.3195688251
		 0.319912114
		 0.3202556854
		 0.3205994868
		 0.3209434993
		 0.321287741
		 0.3216322302
		 0.3219769851
		 0.3223220239
		 0.3226673891
		 0.3230131017
		 0.3233591009
		 0.3237053239
		 0.3240517083
		 0.3243981914
		 0.3247447125
		 0.3250912669
		 0.3254379109
		 0.3257847039
		 0.3261317052
		 0.3264789741
		 0.3268265701
		 0.3271744762
		 0.3275226381
		 0.3278710593
		 0.3282197428
		 0.328568692
		 0.3289179101
		 0.329267418
		 0.3296172685
		 0.329967416
		 0.3303178046
		 0.3306683784
		 0.3310190818
		 0.3313698593
		 0.3317206971
		 0.3320716389
		 0.33242273
		 0.3327740162
		 0.3331255429
		 0.3334773555
		 0.3338294569
		 0.3341817819
		 0.3345343449
		 0.3348871639
		 0.3352402568
		 0.3355936416
		 0.3359473397
		 0.3363013891
		 0.3366557578
		 0.3370103984
		 0.3373652635
		 0.3377203059
		 0.338075478
		 0.3384307376
		 0.3387861104
		 0.3391416545
		 0.3394974279
		 0.3398534886
		 0.3402098945
		 0.3405667077
		 0.3409239501
		 0.3412815465
		 0.3416394143
		 0.3419974708
		 0.3423556334
		 0.3427138195
		 0.3430719874
		 0.3434302023
		 0.3437885466
		 0.3441471027
		 0.3445059529
		 0.3448651796
		 0.3452248377
		 0.3455848721
		 0.3459452315
		 0.3463058664
		 0.3466667275
		 0.3470277654
		 0.3473889379
		 0.3477503028
		 0.3481118764
		 0.3484736475
		 0.3488356046
		 0.3491977367
		 0.3495600322
		 0.3499225113
		 0.3502851968
		 0.3506480634
		 0.3510110854
		 0.3513742372
		 0.3517374932
		 0.3521008493
		 0.3524643942
		 0.3528280945
		 0.3531918949
		 0.3535557405
		 0.353919576
		 0.3542833466
		 0.3546470518
		 0.3550107328
		 0.3553744157
		 0.3557381266
		 0.3561018916
		 0.3564657367
		 0.3568296491
		 0.3571935509
		 0.3575574875
		 0.3579215123
		 0.3582856789
		 0.3586500408
		 0.3590146524
		 0.3593795505
		 0.3597446816
		 0.3601099754
		 0.3604753614
		 0.3608407692
		 0.3612061285
		 0.3615714219
		 0.3619367156
		 0.3623020273
		 0.362667374
		 0.3630327727
		 0.3633982404
		 0.3637637893
		 0.364129398
		 0.3644950638
		 0.3648607892
		 0.365226577
		 0.3655924299
		 0.3659583506
		 0.3663243319
		 0.366690371
		 0.3670564741
		 0.3674226477
		 0.3677888978
		 0.3681552309
		 0.3685216645
		 0.3688882251
		 0.369254881
		 0.3696215967
		 0.3699883365
		 0.3703550647
		 0.3707217441
		 0.3710883275
		 0.3714548543
		 0.3718213896
		 0.3721879986
		 0.3725547462
		 0.3729216975
		 0.3732888919
		 0.3736562857
		 0.3740238339
		 0.3743914919
		 0.3747592153
		 0.3751269595
		 0.3754946942
		 0.3758624981
		 0.376230368
		 0.3765982755
		 0.3769661919
		 0.3773340889
		 0.3777019378
		 0.3780696942
		 0.3784373721
		 0.378805028
		 0.379172718
		 0.3795404988
		 0.3799084266
		 0.3802765446
		 0.3806448186
		 0.3810132141
		 0.3813817003
		 0.3817502464
		 0.3821188213
		 0.3824873964
		 0.3828560167
		 0.3832246962
		 0.3835934136
		 0.3839621476
		 0.384330877
		 0.3846995807
		 0.3850682231
		 0.3854367914
		 0.3858053355
		 0.3861739072
		 0.386542558
		 0.3869113396
		 0.3872803002
		 0.3876494291
		 0.3880186882
		 0.388388043
		 0.388757459
		 0.3891269018
		 0.3894963369
		 0.3898657864
		 0.3902352888
		 0.3906048249
		 0.3909743753
		 0.3913439207
		 0.3917134416
		 0.3920829151
		 0.3924523265
		 0.3928217071
		 0.3931910917
		 0.3935605153
		 0.393930013
		 0.3942996186
		 0.3946693014
		 0.3950390393
		 0.3954088413
		 0.3957787161
		 0.3961486726
		 0.3965187197
		 0.3968889067
		 0.3972592937
		 0.397629798
		 0.3980003309
		 0.3983708041
		 0.398741129
		 0.3991112182
		 0.3994810485
		 0.3998507007
		 0.4002202647
		 0.4005898306
		 0.4009594885
		 0.4013293282
		 0.4016993768
		 0.4020695606
		 0.4024398387
		 0.4028101707
		 0.4031805158
		 0.4035508335
		 0.4039210922
		 0.4042913222
		 0.4046615429
		 0.4050317682
		 0.4054020121
		 0.4057722885
		 0.4061426115
		 0.4065130066
		 0.4068834623
		 0.4072539478
		 0.4076244322
		 0.4079948845
		 0.4083652738
		 0.4087355628
		 0.4091057428
		 0.4094758632
		 0.4098459762
		 0.4102161337
		 0.4105863877
		 0.4109567902
		 0.4113273645
		 0.4116980618
		 0.4120688239
		 0.4124395922
		 0.4128103084
		 0.4131809139
		 0.4135513885
		 0.4139217811
		 0.4142921168
		 0.4146624202
		 0.415032716
		 0.4154030287
		 0.4157733739
		 0.416143712
		 0.4165140444
		 0.4168843825
		 0.4172547379
		 0.4176251223
		 0.4179955472
		 0.4183660606
		 0.4187366565
		 0.4191072823
		 0.4194778855
		 0.4198484137
		 0.4202188143
		 0.4205890494
		 0.4209591521
		 0.4213291549
		 0.4216990879
		 0.4220689814
		 0.4224388656
		 0.4228087656
		 0.4231786029
		 0.4235483774
		 0.4239181365
		 0.4242879273
		 0.424657797
		 0.4250277928
		 0.4253979859
		 0.4257683832
		 0.4261388888
		 0.4265094051
		 0.4268798346
		 0.4272500798
		 0.4276200522
		 0.4279897806
		 0.4283593357
		 0.4287287815
		 0.4290981825
		 0.4294676027
		 0.4298371063
		 0.4302066805
		 0.4305762714
		 0.4309458719
		 0.4313154746
		 0.4316850721
		 0.4320546573
		 0.4324242483
		 0.4327939128
		 0.4331636014
		 0.433533254
		 0.4339028106
		 0.4342722108
		 0.4346413919
		 0.4350102542
		 0.4353788648
		 0.4357473494
		 0.4361158341
		 0.4364844446
		 0.4368533068
		 0.4372225696
		 0.4375922292
		 0.437962089
		 0.438331949
		 0.4387016089
		 0.4390708688
		 0.4394395409
		 0.4398076545
		 0.4401753649
		 0.4405428194
		 0.4409101656
		 0.4412775507
		 0.4416451224
		 0.4420127881
		 0.442380392
		 0.4427480062
		 0.4431157026
		 0.4434835532
		 0.4438516302
		 0.444220049
		 0.4445889545
		 0.4449581583
		 0.4453274395
		 0.4456965776
		 0.446065352
		 0.4464335436
		 0.4468010944
		 0.447168176
		 0.447534967
		 0.4479016462
		 0.4482683922
		 0.4486353837
		 0.449002783
		 0.4493705365
		 0.4497384491
		 0.4501063241
		 0.4504739645
		 0.4508411736
		 0.451207755
		 0.4515736447
		 0.451939031
		 0.4523041283
		 0.4526691514
		 0.4530343151
		 0.4533998339
		 0.4537657674
		 0.454131941
		 0.4544982567
		 0.454864617
		 0.4552309244
		 0.4555970815
		 0.4559630081
		 0.4563287568
		 0.4566943884
		 0.4570599565
		 0.4574255143
		 0.4577911151
		 0.4581568132
		 0.4585226916
		 0.4588887049
		 0.4592547483
		 0.4596207167
		 0.4599865052
		 0.4603520088
		 0.460717172
		 0.461082091
		 0.4614468022
		 0.4618113358
		 0.4621757223
		 0.4625399922
		 0.462904166
		 0.4632681406
		 0.4636319307
		 0.4639956019
		 0.4643592199
		 0.4647228501
		 0.4650865582
		 0.4654503833
		 0.4658142824
		 0.4661782035
		 0.4665420947
		 0.4669059042
		 0.4672695803
		 0.4676330906
		 0.4679965148
		 0.4683598514
		 0.4687230798
		 0.4690861792
		 0.469449129
		 0.4698119081
		 0.4701744921
		 0.4705368958
		 0.4708991527
		 0.4712612961
		 0.4716233591
		 0.4719853752
		 0.4723473509
		 0.4727092292
		 0.4730710243
		 0.4734327562
		 0.4737944449
		 0.4741561105
		 0.4745177761
		 0.4748794995
		 0.4752412473
		 0.4756029555
		 0.47596456
		 0.4763259968
		 0.4766872019
		 0.4770481661
		 0.4774089566
		 0.4777695782
		 0.4781300343
		 0.4784903282
		 0.4788504634
		 0.4792104231
		 0.4795700944
		 0.4799295391
		 0.4802888533
		 0.4806481333
		 0.4810074756
		 0.4813669765
		 0.4817267541
		 0.482086748
		 0.4824468017
		 0.4828067584
		 0.4831664616
		 0.4835257546
		 0.4838844878
		 0.4842426763
		 0.4846004881
		 0.4849580967
		 0.4853156752
		 0.4856733968
		 0.4860314342
		 0.4863898556
		 0.4867485147
		 0.4871072389
		 0.4874658557
		 0.4878241925
		 0.4881820768
		 0.4885393852
		 0.4888962153
		 0.4892527114
		 0.4896090172
		 0.4899652765
		 0.4903216328
		 0.4906782124
		 0.4910349356
		 0.4913917195
		 0.4917485066
		 0.4921052394
		 0.4924618601
		 0.4928183113
		 0.493174628
		 0.493530868
		 0.4938870071
		 0.4942430212
		 0.4945988862
		 0.4949545781
		 0.4953100906
		 0.495665476
		 0.4960207189
		 0.4963757952
		 0.496730681
		 0.4970853523
		 0.497439784
		 0.4977939256
		 0.4981478038
		 0.498501478
		 0.4988550075
		 0.499208452
		 0.4995618708
		 0.4999152754
		 0.5002685914
		 0.5006218243
		 0.5009749831
		 0.5013280772
		 0.5016811157
		 0.5020341143
		 0.5023871335
		 0.5027401381
		 0.5030930689
		 0.5034458664
		 0.503798471
		 0.5041508234
		 0.5045029113
		 0.5048547842
		 0.5052064656
		 0.5055579792
		 0.5059093486
