ACES2Looks/ACEScct_LUT/T-ACES1_Tone.spi1d
Version 1
From 0 1.4679964
Length 4096
Components 1
{
		 0
		 0.0004034622212
		 0.0008069246083
		 0.001210387333
		 0.001613850568
		 0.002017314485
		 0.002420779256
		 0.002824245213
		 0.003227712844
		 0.003631181568
		 0.004034650704
		 0.004438119572
		 0.004841587492
		 0.005245053789
		 0.005648518339
		 0.006051981667
		 0.00645544429
		 0.006858906725
		 0.007262369488
		 0.007665833098
		 0.008069297798
		 0.00847276313
		 0.008876228897
		 0.009279694918
		 0.009683161014
		 0.010086627
		 0.01049009276
		 0.01089355861
		 0.01129702456
		 0.01170049045
		 0.01210395613
		 0.01250742146
		 0.01291088629
		 0.01331435021
		 0.01371781318
		 0.01412127572
		 0.01452473833
		 0.01492820151
		 0.01533166576
		 0.01573513161
		 0.0161385992
		 0.01654206792
		 0.01694553707
		 0.01734900599
		 0.017752474
		 0.01815594043
		 0.01855940511
		 0.01896286855
		 0.01936633126
		 0.01976979376
		 0.02017325655
		 0.02057672016
		 0.02098018485
		 0.02138365019
		 0.02178711596
		 0.02219058198
		 0.02259404807
		 0.02299751404
		 0.02340097974
		 0.02380444546
		 0.02420791124
		 0.02461137695
		 0.02501484249
		 0.02541830773
		 0.02582177257
		 0.0262252368
		 0.0266287004
		 0.02703216365
		 0.02743562683
		 0.0278390902
		 0.02824255403
		 0.02864601855
		 0.02904948355
		 0.02945294889
		 0.02985641448
		 0.03025988023
		 0.03066334603
		 0.03106681179
		 0.0314702778
		 0.03187374413
		 0.03227721055
		 0.0326806768
		 0.03308414266
		 0.03348760789
		 0.0338910722
		 0.03429453549
		 0.03469799816
		 0.03510146061
		 0.03550492327
		 0.03590838653
		 0.03631185081
		 0.03671531602
		 0.03711878186
		 0.03752224811
		 0.03792571452
		 0.03832918086
		 0.03873264688
		 0.03913611255
		 0.0395395781
		 0.03994304355
		 0.04034650896
		 0.04074997434
		 0.04115343975
		 0.0415569052
		 0.04196037074
		 0.04236383632
		 0.04276730188
		 0.04317076738
		 0.04357423277
		 0.04397769799
		 0.04438116288
		 0.04478462746
		 0.04518809191
		 0.04559155643
		 0.0459950212
		 0.0463984864
		 0.04680195226
		 0.04720541884
		 0.04760888585
		 0.048012353
		 0.04841581996
		 0.04881928645
		 0.04922275216
		 0.04962621715
		 0.05002968165
		 0.05043314581
		 0.05083660978
		 0.05124007371
		 0.05164353776
		 0.05204700182
		 0.0524504656
		 0.05285392929
		 0.05325739308
		 0.05366085718
		 0.05406432179
		 0.05446778713
		 0.0548712534
		 0.05527472031
		 0.05567818752
		 0.05608165466
		 0.05648512139
		 0.05688858734
		 0.05729205245
		 0.05769551703
		 0.05809898122
		 0.0585024452
		 0.05890590913
		 0.05930937319
		 0.05971283742
		 0.06011630158
		 0.0605197657
		 0.06092322986
		 0.06132669415
		 0.06173015864
		 0.06213362342
		 0.06253708854
		 0.06294055395
		 0.06334401953
		 0.0637474852
		 0.06415095084
		 0.06455441635
		 0.0649578817
		 0.06536134697
		 0.0657648122
		 0.06616827742
		 0.06657174265
		 0.06697520793
		 0.0673786733
		 0.06778213884
		 0.06818560449
		 0.06858907015
		 0.06899253572
		 0.06939600108
		 0.06979946615
		 0.0702029308
		 0.07060639508
		 0.07100985915
		 0.07141332318
		 0.07181678735
		 0.0722202518
		 0.07262371666
		 0.07302718176
		 0.07343064705
		 0.07383411253
		 0.07423757816
		 0.07464104394
		 0.07504450986
		 0.07544797616
		 0.07585144284
		 0.07625490966
		 0.0766583764
		 0.07706184283
		 0.07746530874
		 0.07786877396
		 0.07827223863
		 0.07867570291
		 0.07907916696
		 0.07948263092
		 0.07988609494
		 0.08028955916
		 0.08069302334
		 0.08109648747
		 0.08149995161
		 0.08190341585
		 0.08230688028
		 0.08271034497
		 0.08311381
		 0.08351727531
		 0.08392074083
		 0.08432420647
		 0.08472767213
		 0.08513113773
		 0.08553460321
		 0.08593806869
		 0.0863415342
		 0.08674499969
		 0.08714846517
		 0.08755193062
		 0.08795539601
		 0.08835886142
		 0.08876232685
		 0.08916579225
		 0.08956925757
		 0.08997272275
		 0.09037618773
		 0.09077965242
		 0.09118311674
		 0.09158658086
		 0.09199004491
		 0.09239350905
		 0.09279697343
		 0.09320043821
		 0.09360390335
		 0.09400736875
		 0.09441083432
		 0.09481429997
		 0.09521776562
		 0.09562123118
		 0.09602469665
		 0.09642816214
		 0.09683162764
		 0.09723509314
		 0.0976385586
		 0.09804202403
		 0.09844548942
		 0.09884895482
		 0.09925242022
		 0.09965588557
		 0.1000593508
		 0.100462816
		 0.1008662809
		 0.1012697456
		 0.1016732101
		 0.1020766745
		 0.1024801388
		 0.1028836032
		 0.1032870678
		 0.1036905328
		 0.1040939981
		 0.1044974635
		 0.104900929
		 0.1053043944
		 0.1057078596
		 0.1061113244
		 0.1065147886
		 0.1069182523
		 0.1073217159
		 0.1077251797
		 0.1081286438
		 0.1085321087
		 0.1089355746
		 0.1093390414
		 0.1097425087
		 0.1101459762
		 0.1105494435
		 0.1109529101
		 0.1113563756
		 0.1117598403
		 0.1121633045
		 0.1125667683
		 0.1129702319
		 0.1133736957
		 0.1137771597
		 0.114180624
		 0.1145840881
		 0.1149875524
		 0.1153910168
		 0.1157944814
		 0.1161979465
		 0.1166014121
		 0.1170048784
		 0.1174083452
		 0.1178118122
		 0.1182152789
		 0.1186187453
		 0.1190222108
		 0.1194256754
		 0.1198291395
		 0.1202326032
		 0.1206360668
		 0.1210395307
		 0.1214429951
		 0.1218464601
		 0.1222499256
		 0.1226533913
		 0.1230568573
		 0.1234603232
		 0.123863789
		 0.1242672545
		 0.1246707199
		 0.1250741854
		 0.1254776507
		 0.1258811159
		 0.1262845811
		 0.126688046
		 0.1270915107
		 0.127494975
		 0.1278984392
		 0.1283019034
		 0.1287053678
		 0.1291088327
		 0.1295122983
		 0.1299157646
		 0.1303192314
		 0.1307226983
		 0.1311261651
		 0.1315296315
		 0.1319330971
		 0.1323365618
		 0.1327400261
		 0.13314349
		 0.1335469537
		 0.1339504175
		 0.1343538815
		 0.1347573457
		 0.1351608099
		 0.1355642741
		 0.1359677384
		 0.136371203
		 0.1367746679
		 0.1371781333
		 0.1375815992
		 0.1379850656
		 0.1383885322
		 0.1387919989
		 0.1391954656
		 0.1395989322
		 0.1400023989
		 0.1404058659
		 0.140809333
		 0.1412127999
		 0.1416162662
		 0.1420197316
		 0.1424231958
		 0.1428266584
		 0.14323012
		 0.1436335811
		 0.1440370425
		 0.1444405047
		 0.1448439683
		 0.1452474335
		 0.1456508999
		 0.1460543669
		 0.1464578341
		 0.1468613011
		 0.1472647674
		 0.1476682327
		 0.1480716973
		 0.1484751614
		 0.1488786255
		 0.1492820897
		 0.1496855543
		 0.1500890196
		 0.1504924855
		 0.1508959518
		 0.1512994184
		 0.1517028851
		 0.1521063518
		 0.1525098184
		 0.1529132851
		 0.1533167521
		 0.1537202192
		 0.1541236861
		 0.1545271524
		 0.1549306179
		 0.1553340821
		 0.1557375448
		 0.1561410064
		 0.1565444676
		 0.1569479289
		 0.1573513911
		 0.1577548546
		 0.1581583198
		 0.1585617861
		 0.158965253
		 0.1593687203
		 0.1597721873
		 0.1601756536
		 0.1605793736
		 0.1609838756
		 0.1613886454
		 0.1617931003
		 0.1621966574
		 0.1625987338
		 0.1629991825
		 0.1634046247
		 0.1638134354
		 0.1642203025
		 0.1646199139
		 0.1650069575
		 0.1653761212
		 0.1657234848
		 0.1660519717
		 0.1663665037
		 0.1666719988
		 0.1669733751
		 0.1672755507
		 0.1675822342
		 0.1678878328
		 0.1681911151
		 0.1684924158
		 0.1687920694
		 0.1690904108
		 0.1693877737
		 0.1696839405
		 0.169978619
		 0.1702719155
		 0.1705639362
		 0.1708547876
		 0.1711445758
		 0.1714331822
		 0.1717200471
		 0.17200554
		 0.1722901128
		 0.172574218
		 0.1728583075
		 0.1731428029
		 0.1734272511
		 0.1737114262
		 0.1739954315
		 0.1742793702
		 0.1745633453
		 0.1748474602
		 0.1751317329
		 0.175416046
		 0.1757003995
		 0.1759847966
		 0.1762692409
		 0.1765537359
		 0.1768382844
		 0.1771228825
		 0.1774075293
		 0.1776922249
		 0.1779769695
		 0.1782617633
		 0.1785466065
		 0.1788314889
		 0.1791164076
		 0.1794013739
		 0.1796863993
		 0.179971495
		 0.1802566724
		 0.1805419379
		 0.1808272779
		 0.1811126909
		 0.1813981777
		 0.1816837389
		 0.1819693754
		 0.1822550874
		 0.1825408641
		 0.182826707
		 0.1831126253
		 0.1833986282
		 0.183684725
		 0.183970925
		 0.184257232
		 0.1845436375
		 0.1848301385
		 0.1851167327
		 0.1854034175
		 0.1856901905
		 0.1859770485
		 0.1862639853
		 0.1865510056
		 0.1868381171
		 0.1871253273
		 0.1874126436
		 0.1877000735
		 0.1879876096
		 0.1882752418
		 0.1885629781
		 0.1888508262
		 0.1891387942
		 0.1894268899
		 0.1897151173
		 0.1900034642
		 0.1902919315
		 0.1905805224
		 0.1908692402
		 0.1911580882
		 0.1914470697
		 0.1917361803
		 0.1920254182
		 0.1923147854
		 0.192604284
		 0.1928939163
		 0.1931836843
		 0.1934735827
		 0.1937635991
		 0.1940537445
		 0.194344031
		 0.1946344707
		 0.1949250757
		 0.1952158569
		 0.1955068057
		 0.195797916
		 0.1960891856
		 0.1963806124
		 0.1966721943
		 0.1969639293
		 0.1972558109
		 0.1975478376
		 0.1978400176
		 0.1981323594
		 0.1984248713
		 0.1987175616
		 0.1990104341
		 0.1993034704
		 0.1995966746
		 0.1998900549
		 0.2001836198
		 0.2004773775
		 0.2007713364
		 0.20106549
		 0.2013598322
		 0.2016543652
		 0.2019490913
		 0.2022440129
		 0.2025391323
		 0.2028344494
		 0.2031299593
		 0.2034256639
		 0.2037215658
		 0.2040176673
		 0.2043139708
		 0.2046104776
		 0.2049071722
		 0.2052040579
		 0.2055011463
		 0.2057984489
		 0.2060959775
		 0.2063937435
		 0.206691802
		 0.206990182
		 0.2072888081
		 0.2075876033
		 0.2078864907
		 0.2081853936
		 0.208484271
		 0.2087832947
		 0.2090824332
		 0.2093816073
		 0.2096807376
		 0.2099797449
		 0.2102785502
		 0.2105771777
		 0.2108756911
		 0.2111740964
		 0.2114723992
		 0.2117706053
		 0.2120687206
		 0.2123667437
		 0.2126646583
		 0.2129624726
		 0.2132601966
		 0.2135578407
		 0.213855415
		 0.2141529287
		 0.2144503655
		 0.2147477221
		 0.2150450059
		 0.2153422243
		 0.2156393846
		 0.2159364944
		 0.2162335466
		 0.2165305253
		 0.2168274423
		 0.2171243104
		 0.217421142
		 0.2177179498
		 0.2180147436
		 0.2183115089
		 0.2186082422
		 0.2189049452
		 0.2192016191
		 0.2194982653
		 0.2197948853
		 0.2200914684
		 0.2203880111
		 0.2206845245
		 0.2209810199
		 0.2212775084
		 0.221574001
		 0.2218705014
		 0.2221669882
		 0.2224634667
		 0.2227599449
		 0.2230564311
		 0.2233529335
		 0.2236494595
		 0.2239459956
		 0.2242425383
		 0.224539095
		 0.2248356726
		 0.2251322785
		 0.2254289197
		 0.2257255955
		 0.2260222945
		 0.2263190207
		 0.2266157786
		 0.2269125727
		 0.2272094075
		 0.2275062852
		 0.2278031895
		 0.2281001242
		 0.2283970999
		 0.2286941269
		 0.2289912157
		 0.2292883765
		 0.2295856066
		 0.2298828957
		 0.2301802452
		 0.2304776564
		 0.2307751307
		 0.2310726695
		 0.2313702707
		 0.2316679232
		 0.2319656339
		 0.2322634121
		 0.2325612669
		 0.2328592075
		 0.2331572427
		 0.2334553557
		 0.2337535417
		 0.2340518111
		 0.2343501742
		 0.2346486412
		 0.2349472224
		 0.2352459248
		 0.2355447416
		 0.2358436662
		 0.2361426919
		 0.2364418121
		 0.2367410203
		 0.2370403084
		 0.2373396595
		 0.2376390859
		 0.2379386073
		 0.2382382436
		 0.2385380144
		 0.2388379396
		 0.2391380184
		 0.2394382315
		 0.2397385781
		 0.2400390572
		 0.2403396683
		 0.2406404105
		 0.2409412819
		 0.2412422775
		 0.2415434016
		 0.2418446593
		 0.2421460559
		 0.2424475969
		 0.2427492873
		 0.2430511166
		 0.2433530814
		 0.2436551889
		 0.2439574466
		 0.2442598618
		 0.2445624417
		 0.2448651874
		 0.2451680861
		 0.2454711414
		 0.245774358
		 0.2460777406
		 0.2463812939
		 0.2466850216
		 0.2469889146
		 0.2472929725
		 0.2475971997
		 0.2479016007
		 0.24820618
		 0.2485109419
		 0.248815887
		 0.2491210107
		 0.2494263126
		 0.2497317925
		 0.2500374499
		 0.2503432848
		 0.2506493026
		 0.2509555332
		 0.2512619586
		 0.2515685525
		 0.2518752886
		 0.2521821408
		 0.2524890829
		 0.2527961176
		 0.2531032653
		 0.2534105339
		 0.2537179314
		 0.2540254659
		 0.2543331455
		 0.2546409743
		 0.254948944
		 0.2552570529
		 0.2555652998
		 0.2558736837
		 0.2561822037
		 0.2564908581
		 0.2567996343
		 0.257108537
		 0.2574175774
		 0.257726767
		 0.2580361172
		 0.2583456394
		 0.258655336
		 0.2589651951
		 0.2592752154
		 0.2595853958
		 0.259895735
		 0.2602062321
		 0.2605168847
		 0.2608276846
		 0.2611386374
		 0.2614497511
		 0.2617610337
		 0.2620724932
		 0.2623841377
		 0.2626959619
		 0.2630079585
		 0.2633201303
		 0.2636324804
		 0.2639450116
		 0.2642577269
		 0.264570624
		 0.2648836888
		 0.2651969299
		 0.2655103581
		 0.2658239842
		 0.266137819
		 0.2664518729
		 0.2667661471
		 0.2670806331
		 0.2673953235
		 0.2677102106
		 0.2680252868
		 0.2683405446
		 0.26865597
		 0.2689715576
		 0.2692873271
		 0.2696032989
		 0.269919493
		 0.2702359299
		 0.2705526275
		 0.2708695751
		 0.2711867607
		 0.2715041762
		 0.2718218133
		 0.2721396637
		 0.2724577191
		 0.2727759686
		 0.2730944157
		 0.2734130749
		 0.2737319608
		 0.2740510878
		 0.2743704704
		 0.2746901185
		 0.2750100187
		 0.2753301657
		 0.2756505568
		 0.2759711886
		 0.2762920583
		 0.2766131627
		 0.2769344967
		 0.2772560633
		 0.2775778688
		 0.2778999196
		 0.2782222221
		 0.2785447825
		 0.2788675989
		 0.2791906582
		 0.2795139671
		 0.2798375329
		 0.2801613629
		 0.2804854646
		 0.2808098438
		 0.2811344897
		 0.2814594011
		 0.2817845812
		 0.2821100333
		 0.2824357607
		 0.2827617667
		 0.2830880448
		 0.2834145887
		 0.2837414061
		 0.2840685048
		 0.2843958925
		 0.2847235768
		 0.2850515638
		 0.2853798482
		 0.285708426
		 0.2860372941
		 0.2863664492
		 0.2866958881
		 0.2870256077
		 0.2873555965
		 0.2876858578
		 0.2880164037
		 0.2883472463
		 0.2886783977
		 0.2890098701
		 0.2893416673
		 0.289673774
		 0.2900061906
		 0.2903389187
		 0.29067196
		 0.2910053159
		 0.2913389874
		 0.2916729674
		 0.2920072573
		 0.2923418621
		 0.2926767866
		 0.293012036
		 0.2933476151
		 0.293683518
		 0.2940197358
		 0.2943562762
		 0.2946931474
		 0.2950303574
		 0.2953679143
		 0.2957058288
		 0.2960441152
		 0.2963827568
		 0.2967217328
		 0.2970610223
		 0.2974006044
		 0.2977404592
		 0.2980806688
		 0.2984212509
		 0.298762134
		 0.2991032467
		 0.2994445173
		 0.2997858746
		 0.3001272864
		 0.3004688382
		 0.3008105356
		 0.3011523764
		 0.3014943586
		 0.30183648
		 0.3021787379
		 0.3025211244
		 0.3028636436
		 0.3032063039
		 0.3035491139
		 0.3038920821
		 0.3042352169
		 0.3045785191
		 0.3049219794
		 0.3052655978
		 0.3056093745
		 0.3059533099
		 0.3062974041
		 0.3066416571
		 0.3069860667
		 0.307330634
		 0.3076753605
		 0.3080202477
		 0.3083652973
		 0.3087105107
		 0.30905588
		 0.3094014029
		 0.3097470871
		 0.3100929404
		 0.3104389704
		 0.3107851848
		 0.3111315874
		 0.3114781684
		 0.3118249273
		 0.3121718653
		 0.3125189831
		 0.3128662818
		 0.3132137619
		 0.3135614158
		 0.3139092448
		 0.3142572548
		 0.3146054517
		 0.3149538417
		 0.3153024306
		 0.3156512156
		 0.3160001859
		 0.3163493474
		 0.3166987065
		 0.3170482695
		 0.3173980428
		 0.3177480325
		 0.3180982389
		 0.3184486564
		 0.3187992792
		 0.3191501012
		 0.3195011168
		 0.31985232
		 0.3202037028
		 0.320555268
		 0.3209070262
		 0.3212589876
		 0.3216111626
		 0.3219635616
		 0.3223161893
		 0.3226690294
		 0.3230220835
		 0.3233753561
		 0.3237288514
		 0.3240825738
		 0.3244365274
		 0.324790711
		 0.3251451216
		 0.3254997577
		 0.3258546182
		 0.3262097015
		 0.3265650064
		 0.3269205251
		 0.3272762493
		 0.3276321915
		 0.3279883649
		 0.3283447826
		 0.3287014578
		 0.3290584028
		 0.329415614
		 0.3297730824
		 0.3301307997
		 0.3304887582
		 0.3308469498
		 0.3312053665
		 0.3315640018
		 0.3319228603
		 0.332281951
		 0.332641283
		 0.3330008655
		 0.3333607074
		 0.3337208134
		 0.3340811687
		 0.3344417747
		 0.3348026357
		 0.3351637561
		 0.3355251402
		 0.3358867922
		 0.3362487076
		 0.3366108837
		 0.3369733223
		 0.3373360253
		 0.3376989945
		 0.3380622319
		 0.3384257343
		 0.3387894936
		 0.3391535165
		 0.3395178102
		 0.3398823823
		 0.34024724
		 0.3406123901
		 0.3409778275
		 0.3413435484
		 0.3417095513
		 0.3420758348
		 0.3424423974
		 0.3428092377
		 0.3431763522
		 0.3435437404
		 0.3439114067
		 0.3442793559
		 0.3446475924
		 0.3450161208
		 0.345384943
		 0.3457540476
		 0.3461234376
		 0.3464931187
		 0.3468630966
		 0.347233377
		 0.3476039655
		 0.3479748559
		 0.348346044
		 0.3487175332
		 0.3490893267
		 0.3494614279
		 0.34983384
		 0.3502065459
		 0.3505795051
		 0.3509527541
		 0.3513263342
		 0.3517002867
		 0.3520746529
		 0.3524494688
		 0.35282468
		 0.3532002728
		 0.3535762645
		 0.3539526724
		 0.3543295136
		 0.3547068055
		 0.3550845378
		 0.3554626833
		 0.3558412578
		 0.3562202775
		 0.3565997588
		 0.3569797179
		 0.3573601678
		 0.3577410939
		 0.3581224899
		 0.3585043531
		 0.3588866807
		 0.35926947
		 0.3596527184
		 0.3600364188
		 0.3604205729
		 0.3608051886
		 0.3611902739
		 0.3615758369
		 0.3619618855
		 0.3623484215
		 0.3627354302
		 0.3631229155
		 0.3635108831
		 0.3638993387
		 0.3642882881
		 0.3646777365
		 0.3650676785
		 0.3654581113
		 0.3658490358
		 0.3662404528
		 0.3666323633
		 0.367024768
		 0.3674176572
		 0.36781102
		 0.3682048715
		 0.3685992272
		 0.368994103
		 0.3693895143
		 0.3697854748
		 0.3701819762
		 0.3705790093
		 0.3709765673
		 0.3713746435
		 0.3717732309
		 0.3721723228
		 0.3725719092
		 0.3729719934
		 0.3733725883
		 0.3737737069
		 0.3741753621
		 0.3745775667
		 0.3749803251
		 0.3753836134
		 0.3757874369
		 0.3761918045
		 0.376596725
		 0.3770022072
		 0.3774082596
		 0.3778148782
		 0.3782220573
		 0.378629795
		 0.3790380896
		 0.3794469392
		 0.3798563421
		 0.3802662889
		 0.3806767709
		 0.3810878025
		 0.381499399
		 0.3819115754
		 0.382324347
		 0.3827377259
		 0.3831516935
		 0.3835662458
		 0.3839813863
		 0.3843971181
		 0.3848134446
		 0.3852303691
		 0.3856478875
		 0.3860659956
		 0.3864846973
		 0.3869039967
		 0.3873238979
		 0.3877444051
		 0.3881655169
		 0.3885872159
		 0.389009511
		 0.3894324143
		 0.3898559381
		 0.3902800946
		 0.3907048958
		 0.3911303338
		 0.3915564007
		 0.3919830967
		 0.3924104222
		 0.3928383776
		 0.3932669631
		 0.3936961703
		 0.3941259855
		 0.3945564241
		 0.3949875028
		 0.395419238
		 0.3958516463
		 0.3962847414
		 0.3967185004
		 0.3971529194
		 0.397588005
		 0.3980237638
		 0.3984602025
		 0.3988973277
		 0.3993351381
		 0.3997736268
		 0.4002127948
		 0.4006526428
		 0.4010931719
		 0.4015343831
		 0.4019762719
		 0.4024188172
		 0.4028620323
		 0.403305936
		 0.4037505471
		 0.4041958841
		 0.4046419654
		 0.4050887791
		 0.4055363117
		 0.4059845655
		 0.406433543
		 0.4068832465
		 0.4073336784
		 0.4077848331
		 0.4082366959
		 0.408689279
		 0.4091425964
		 0.4095966621
		 0.4100514899
		 0.4105070917
		 0.4109634451
		 0.4114205473
		 0.411878407
		 0.4123370332
		 0.4127964345
		 0.4132566199
		 0.4137177021
		 0.4141797507
		 0.4146426128
		 0.4151061337
		 0.4155701582
		 0.4160345314
		 0.4164991817
		 0.4169644867
		 0.417430359
		 0.417896611
		 0.4183630554
		 0.4188295047
		 0.4192957724
		 0.41976193
		 0.4202281251
		 0.4206943634
		 0.4211606506
		 0.4216269926
		 0.4220933951
		 0.4225598602
		 0.42302638
		 0.4234929551
		 0.4239595867
		 0.4244262763
		 0.4248930252
		 0.4253598346
		 0.4258267009
		 0.4262936243
		 0.4267606066
		 0.4272276501
		 0.4276947566
		 0.4281619282
		 0.4286291633
		 0.4290964576
		 0.4295638142
		 0.4300312361
		 0.4304987264
		 0.430966288
		 0.4314339225
		 0.4319016209
		 0.4323693853
		 0.432837221
		 0.4333051329
		 0.4337731262
		 0.434241206
		 0.4347093688
		 0.4351776099
		 0.4356459314
		 0.4361143352
		 0.4365828233
		 0.4370513978
		 0.4375200597
		 0.4379888061
		 0.4384576372
		 0.4389265533
		 0.4393955549
		 0.4398646423
		 0.4403338157
		 0.440803069
		 0.4412724033
		 0.4417418236
		 0.4422113351
		 0.4426809429
		 0.4431506518
		 0.44362046
		 0.4440903578
		 0.4445603504
		 0.445030443
		 0.4455006413
		 0.4459709505
		 0.4464413748
		 0.4469119051
		 0.4473825413
		 0.4478532863
		 0.4483241434
		 0.4487951155
		 0.4492662056
		 0.4497374112
		 0.4502087287
		 0.4506801605
		 0.4511517089
		 0.4516233764
		 0.4520951654
		 0.4525670744
		 0.4530390916
		 0.4535112236
		 0.4539834792
		 0.4544558673
		 0.4549283966
		 0.4554010757
		 0.4558738982
		 0.4563468585
		 0.4568199574
		 0.4572931956
		 0.4577665739
		 0.4582400929
		 0.4587137492
		 0.4591875368
		 0.4596614619
		 0.4601355313
		 0.4606097518
		 0.4610841303
		 0.4615586718
		 0.4620333645
		 0.462508208
		 0.4629832071
		 0.4634583666
		 0.4639336912
		 0.4644091856
		 0.4648848459
		 0.4653606657
		 0.4658366493
		 0.4663128013
		 0.466789126
		 0.4672656278
		 0.4677423072
		 0.4682191503
		 0.4686961625
		 0.4691733522
		 0.469650728
		 0.4701282983
		 0.4706060715
		 0.4710840497
		 0.4715622264
		 0.4720405954
		 0.4725191506
		 0.472997886
		 0.4734767955
		 0.4739558725
		 0.4744351175
		 0.4749145384
		 0.4753941432
		 0.4758739401
		 0.4763539373
		 0.4768341411
		 0.4773145328
		 0.4777951129
		 0.4782758914
		 0.4787568781
		 0.4792380829
		 0.4797195157
		 0.4802011738
		 0.4806830451
		 0.4811651333
		 0.481647442
		 0.4821299751
		 0.4826127362
		 0.4830957265
		 0.4835789347
		 0.4840623644
		 0.4845460221
		 0.4850299143
		 0.4855140473
		 0.4859984276
		 0.4864830386
		 0.4869678752
		 0.4874529506
		 0.487938278
		 0.4884238707
		 0.488909742
		 0.4893958937
		 0.4898823018
		 0.4903689733
		 0.4908559178
		 0.4913431446
		 0.4918306634
		 0.4923184828
		 0.4928065934
		 0.493294991
		 0.4937836768
		 0.4942726522
		 0.4947619187
		 0.4952514775
		 0.4957413176
		 0.4962314284
		 0.4967218256
		 0.4972125256
		 0.4977035447
		 0.4981948993
		 0.4986865996
		 0.499178617
		 0.4996709532
		 0.5001636185
		 0.5006566229
		 0.5011499768
		 0.5016436902
		 0.5021377535
		 0.5026321573
		 0.5031269082
		 0.5036220125
		 0.5041174767
		 0.5046133072
		 0.5051095009
		 0.5056060339
		 0.5061029198
		 0.5066001756
		 0.5070978181
		 0.5075958645
		 0.5080943303
		 0.5085931927
		 0.5090924448
		 0.5095920954
		 0.5100921532
		 0.5105926271
		 0.511093526
		 0.5115948406
		 0.5120965494
		 0.5125986691
		 0.5131012174
		 0.5136042119
		 0.5141076702
		 0.5146116049
		 0.5151159845
		 0.51562081
		 0.5161260929
		 0.5166318448
		 0.5171380773
		 0.517644802
		 0.5181520094
		 0.5186596874
		 0.5191678434
		 0.5196764848
		 0.5201856191
		 0.5206952536
		 0.5212053842
		 0.5217159768
		 0.5222270506
		 0.5227386307
		 0.5232507422
		 0.5237634104
		 0.524276659
		 0.5247904546
		 0.5253047846
		 0.5258196639
		 0.5263351075
		 0.5268511303
		 0.5273677472
		 0.5278849996
		 0.5284029194
		 0.5289214435
		 0.5294405061
		 0.5299600413
		 0.5304799831
		 0.5310003223
		 0.5315215249
		 0.5320434335
		 0.5325657023
		 0.5330879854
		 0.5336099371
		 0.5341312116
		 0.5346518914
		 0.5351723267
		 0.5356924714
		 0.5362122786
