ACES2Looks/ACEScct_LUT/T-AgX_Tone.spi1d
Version 1
From 0 1.4679964
Length 4096
Components 1
{
		 1.490116119e-08
		 0.0005239756444
		 0.001047936417
		 0.001571897175
		 0.002095857932
		 0.00261981869
		 0.003143779448
		 0.003667740191
		 0.004191700963
		 0.004715660931
		 0.00523962272
		 0.005763590832
		 0.006287558886
		 0.006811520421
		 0.007335480162
		 0.007859441015
		 0.008383401927
		 0.00890736281
		 0.009431323692
		 0.009955284647
		 0.01047924546
		 0.01100320584
		 0.01152716623
		 0.01205112611
		 0.01257508797
		 0.01309905634
		 0.01362302463
		 0.01414698598
		 0.01467094542
		 0.01519490623
		 0.01571886719
		 0.01624282807
		 0.01676678895
		 0.01729074984
		 0.01781471072
		 0.01833867068
		 0.01886263245
		 0.01938660073
		 0.01991056911
		 0.0204345311
		 0.02095849092
		 0.02148245081
		 0.02200641069
		 0.02253037143
		 0.02305433245
		 0.02357829333
		 0.02410225421
		 0.02462621417
		 0.02515017593
		 0.0256741442
		 0.0261981126
		 0.02672207447
		 0.02724603441
		 0.0277699945
		 0.02829395613
		 0.0288179234
		 0.0293418908
		 0.02986585254
		 0.03038981261
		 0.03091377257
		 0.03143773432
		 0.03196170257
		 0.03248567098
		 0.03300963287
		 0.03353359281
		 0.03405755369
		 0.03458151457
		 0.03510547545
		 0.03562943634
		 0.03615339722
		 0.0366773581
		 0.03720131807
		 0.0377252798
		 0.03824924803
		 0.03877321646
		 0.03929717837
		 0.0398211383
		 0.04034509918
		 0.04086906006
		 0.04139302119
		 0.04191698185
		 0.04244094076
		 0.04296489962
		 0.04348886023
		 0.04401282136
		 0.04453678133
		 0.04506074305
		 0.04558471127
		 0.04610867971
		 0.04663264163
		 0.04715660156
		 0.04768056244
		 0.04820452333
		 0.04872848421
		 0.04925244509
		 0.04977640597
		 0.05030036686
		 0.05082432683
		 0.05134828854
		 0.05187225673
		 0.05239622519
		 0.05292018713
		 0.05344414706
		 0.05396810794
		 0.05449206882
		 0.0550160297
		 0.05553999058
		 0.05606395147
		 0.05658791235
		 0.05711187257
		 0.05763583404
		 0.05815980027
		 0.05868376671
		 0.05920772837
		 0.05973168855
		 0.06025564943
		 0.06077961032
		 0.0613035712
		 0.06182753208
		 0.06235149296
		 0.06287545385
		 0.06339941473
		 0.06392337561
		 0.06444733559
		 0.06497129727
		 0.06549526543
		 0.06601923392
		 0.06654319589
		 0.06706715581
		 0.06759111669
		 0.06811507757
		 0.06863903846
		 0.06916299934
		 0.06968696022
		 0.07021092111
		 0.07073488109
		 0.07125884275
		 0.07178281089
		 0.07230677941
		 0.07283074138
		 0.0733547013
		 0.07387866219
		 0.07440262307
		 0.07492658395
		 0.07545054483
		 0.07597450572
		 0.0764984666
		 0.07702242658
		 0.07754638823
		 0.07807035636
		 0.07859432489
		 0.07911828688
		 0.0796422468
		 0.08016620768
		 0.08069016856
		 0.08121412944
		 0.08173809033
		 0.08226205032
		 0.08278601195
		 0.08330998055
		 0.08383394868
		 0.08435790681
		 0.08488186262
		 0.08540582289
		 0.08592978429
		 0.08645374518
		 0.08697770606
		 0.08750166605
		 0.08802562768
		 0.08854959578
		 0.08907356433
		 0.08959752635
		 0.09012148626
		 0.09064544714
		 0.09116940802
		 0.09169336846
		 0.09221732971
		 0.0927412942
		 0.09326525892
		 0.09378922037
		 0.09431318077
		 0.09483714165
		 0.09536110254
		 0.09588506298
		 0.09640902422
		 0.0969329887
		 0.09745695343
		 0.09798091489
		 0.09850487528
		 0.09902883572
		 0.09955279697
		 0.1000767614
		 0.1006007262
		 0.1011246876
		 0.101648648
		 0.1021726085
		 0.1026965697
		 0.1032205342
		 0.1037444989
		 0.1042684604
		 0.1047924208
		 0.1053163812
		 0.1058403425
		 0.1063643069
		 0.1068882717
		 0.1074122331
		 0.1079361935
		 0.108460154
		 0.1089841152
		 0.1095080797
		 0.1100320444
		 0.1105560059
		 0.1110799663
		 0.1116039267
		 0.1121278879
		 0.1126518524
		 0.1131758171
		 0.1136997786
		 0.114223739
		 0.1147476999
		 0.1152716608
		 0.1157956213
		 0.1163195825
		 0.1168435466
		 0.1173675111
		 0.1178914721
		 0.1184154329
		 0.1189393973
		 0.1194633621
		 0.1199873236
		 0.120511284
		 0.1210352448
		 0.1215592057
		 0.1220831662
		 0.1226071274
		 0.1231310918
		 0.1236550566
		 0.1241790177
		 0.1247029784
		 0.1252269428
		 0.1257509076
		 0.1262748691
		 0.1267988295
		 0.1273227903
		 0.1278467512
		 0.1283707121
		 0.128894673
		 0.1294186339
		 0.1299425948
		 0.1304665556
		 0.1309905165
		 0.1315144765
		 0.1320384381
		 0.132562406
		 0.1330863747
		 0.1336103368
		 0.1341342967
		 0.1346582567
		 0.1351822183
		 0.1357061862
		 0.1362301549
		 0.136754117
		 0.1372780769
		 0.1378020378
		 0.1383259987
		 0.1388499596
		 0.1393739204
		 0.1398978813
		 0.1404218422
		 0.1409458031
		 0.141469764
		 0.1419937249
		 0.1425176857
		 0.1430416466
		 0.1435656075
		 0.1440895684
		 0.1446135293
		 0.1451374893
		 0.1456614508
		 0.1461854187
		 0.1467093874
		 0.1472333496
		 0.1477573095
		 0.1482812695
		 0.148805231
		 0.1493291989
		 0.1498531676
		 0.1503771298
		 0.1509010897
		 0.1514250506
		 0.1519490114
		 0.1524729723
		 0.1529969332
		 0.1535208941
		 0.154044855
		 0.1545688158
		 0.1550927767
		 0.1556167376
		 0.1561406985
		 0.1566646594
		 0.1571886203
		 0.1577125803
		 0.1582365418
		 0.1587605097
		 0.1592844784
		 0.1598084406
		 0.1603324005
		 0.1608563613
		 0.1613803222
		 0.1619042822
		 0.1624282437
		 0.1629522116
		 0.1634761803
		 0.1640001425
		 0.1645241024
		 0.1650480633
		 0.1655720242
		 0.1660959842
		 0.1666199457
		 0.1671439145
		 0.1676678826
		 0.1681918364
		 0.1687157885
		 0.1692397549
		 0.1697637247
		 0.1702876869
		 0.1708116468
		 0.1713356077
		 0.1718595686
		 0.1723835295
		 0.1729074904
		 0.1734314512
		 0.1739554121
		 0.174479373
		 0.1750033339
		 0.1755272948
		 0.1760512557
		 0.1765752157
		 0.1770991771
		 0.177623145
		 0.1781471137
		 0.178671076
		 0.1791950359
		 0.1797189967
		 0.1802429576
		 0.1807669185
		 0.1812908794
		 0.1818148394
		 0.1823388009
		 0.1828627687
		 0.1833867375
		 0.1839106997
		 0.1844346596
		 0.1849586205
		 0.1854825813
		 0.1860065422
		 0.1865305031
		 0.187054464
		 0.1875784249
		 0.1881023858
		 0.1886263466
		 0.1891503067
		 0.1896742681
		 0.1901982359
		 0.1907222047
		 0.191246167
		 0.1917701269
		 0.1922940877
		 0.1928180486
		 0.1933420095
		 0.1938659704
		 0.1943899313
		 0.1949138921
		 0.1954378522
		 0.1959618136
		 0.1964857814
		 0.1970097502
		 0.1975337125
		 0.1980576723
		 0.1985816332
		 0.1991055941
		 0.199629555
		 0.2001535159
		 0.2006774767
		 0.2012014376
		 0.2017253985
		 0.2022493594
		 0.2027733194
		 0.2032972808
		 0.2038212486
		 0.2043452174
		 0.2048691797
		 0.2053931396
		 0.2059171005
		 0.2064410614
		 0.2069650222
		 0.2074889831
		 0.208012944
		 0.2085369049
		 0.2090608649
		 0.2095848263
		 0.2101087941
		 0.2106327629
		 0.2111567252
		 0.2116806851
		 0.212204646
		 0.2127286068
		 0.2132582308
		 0.2137788136
		 0.2142751326
		 0.2147335047
		 0.2151091828
		 0.2154451927
		 0.2157951738
		 0.2161439002
		 0.2164910295
		 0.2168365824
		 0.2171805295
		 0.2175229631
		 0.2178640671
		 0.2182037093
		 0.2185416871
		 0.2188781944
		 0.2192135152
		 0.2195474803
		 0.2198799062
		 0.2202108957
		 0.2205405299
		 0.2208688125
		 0.2211957907
		 0.2215214511
		 0.2218457736
		 0.2221688091
		 0.2224903857
		 0.2228111322
		 0.2231320876
		 0.2234529839
		 0.2237738076
		 0.2240946792
		 0.2244158432
		 0.2247371631
		 0.2250585042
		 0.2253799283
		 0.2257014715
		 0.2260231445
		 0.226345022
		 0.2266669979
		 0.2269888692
		 0.2273107978
		 0.2276330011
		 0.2279553652
		 0.228277802
		 0.2286003098
		 0.2289228068
		 0.229245394
		 0.2295682567
		 0.2298912507
		 0.2302141706
		 0.2305371473
		 0.2308603269
		 0.2311836525
		 0.2315071337
		 0.2318306734
		 0.2321540359
		 0.2324774231
		 0.2328011051
		 0.2331249759
		 0.2334490047
		 0.2337731333
		 0.2340972175
		 0.2344213432
		 0.2347456033
		 0.2350699596
		 0.235394375
		 0.235718887
		 0.2360435657
		 0.2363683515
		 0.2366931354
		 0.2370180204
		 0.2373431927
		 0.2376684953
		 0.2379936931
		 0.2383189252
		 0.2386443513
		 0.2389698916
		 0.2392954327
		 0.2396211017
		 0.2399471583
		 0.240273363
		 0.240599354
		 0.2409253132
		 0.2412513804
		 0.2415775686
		 0.2419040015
		 0.2422305836
		 0.2425571998
		 0.2428838723
		 0.24321055
		 0.2435373244
		 0.2438643754
		 0.2441915875
		 0.2445188177
		 0.2448461332
		 0.2451736223
		 0.2455011914
		 0.2458286451
		 0.246156167
		 0.2464840567
		 0.2468121368
		 0.2471402074
		 0.2474683419
		 0.2477965851
		 0.2481249144
		 0.248453299
		 0.2487817685
		 0.2491103563
		 0.249439073
		 0.2497679745
		 0.2500970065
		 0.2504260834
		 0.2507552461
		 0.2510845159
		 0.2514139189
		 0.2517435614
		 0.2520733194
		 0.252402956
		 0.2527326371
		 0.2530625971
		 0.25339271
		 0.2537228299
		 0.2540530341
		 0.2543834109
		 0.2547139157
		 0.2550444977
		 0.2553751878
		 0.2557060344
		 0.2560369968
		 0.256368018
		 0.2566991131
		 0.2570302669
		 0.2573615183
		 0.2576929589
		 0.2580245188
		 0.2583560865
		 0.2586877333
		 0.2590195529
		 0.2593515032
		 0.2596835512
		 0.2600156985
		 0.260347917
		 0.2606802454
		 0.2610127747
		 0.2613454219
		 0.2616780453
		 0.2620107271
		 0.2623435561
		 0.2626765193
		 0.2630096753
		 0.2633429257
		 0.2636760633
		 0.2640092218
		 0.2643425681
		 0.2646760552
		 0.2650096933
		 0.2653434383
		 0.2656771856
		 0.266011004
		 0.2663449891
		 0.2666790956
		 0.2670132767
		 0.2673475512
		 0.2676819307
		 0.2680164191
		 0.2683510399
		 0.2686857667
		 0.2690205624
		 0.2693554234
		 0.2696902851
		 0.2700252425
		 0.2703605186
		 0.2706959299
		 0.2710311362
		 0.2713663845
		 0.271702057
		 0.2720379633
		 0.2723739113
		 0.2727099401
		 0.2730460097
		 0.2733821748
		 0.2737185197
		 0.2740550425
		 0.2743918728
		 0.2747287892
		 0.2750653151
		 0.2754017312
		 0.2757383895
		 0.2760751797
		 0.2764120518
		 0.2767490247
		 0.2770861116
		 0.2774233125
		 0.2777606392
		 0.2780980786
		 0.2784356075
		 0.2787732351
		 0.2791109688
		 0.279448807
		 0.27978674
		 0.2801247903
		 0.2804630259
		 0.2808013766
		 0.2811397074
		 0.2814780925
		 0.2818166262
		 0.2821552714
		 0.2824939936
		 0.2828328113
		 0.2831717511
		 0.2835107965
		 0.2838499316
		 0.2841891473
		 0.2845284071
		 0.2848677368
		 0.2852071792
		 0.2855467103
		 0.2858862929
		 0.2862259529
		 0.2865657252
		 0.2869056043
		 0.2872456016
		 0.2875857044
		 0.2879259031
		 0.2882661742
		 0.2886064426
		 0.2889467632
		 0.2892872229
		 0.2896277869
		 0.2899684281
		 0.2903091467
		 0.2906499219
		 0.2909907729
		 0.2913317475
		 0.2916727996
		 0.2920138263
		 0.2923549059
		 0.2926961799
		 0.2930375679
		 0.2933789615
		 0.2937203973
		 0.2940618862
		 0.2944034515
		 0.2947451589
		 0.295086976
		 0.2954288714
		 0.2957708401
		 0.2961128533
		 0.2964549182
		 0.2967970307
		 0.2971392014
		 0.2974814569
		 0.2978237811
		 0.2981661318
		 0.2985085607
		 0.298851191
		 0.2991939351
		 0.2995366578
		 0.2998793958
		 0.3002221232
		 0.3005649192
		 0.3009079911
		 0.3012512085
		 0.3015943777
		 0.301937562
		 0.3022807931
		 0.3026240793
		 0.302967451
		 0.303310913
		 0.3036545201
		 0.3039982056
		 0.3043418071
		 0.3046854398
		 0.3050293142
		 0.3053733131
		 0.305717273
		 0.3060612464
		 0.3064052601
		 0.3067493173
		 0.3070934263
		 0.3074376128
		 0.3077819658
		 0.308126417
		 0.3084708466
		 0.3088152995
		 0.3091598066
		 0.309504376
		 0.3098490444
		 0.3101938027
		 0.3105386773
		 0.3108836064
		 0.3112284308
		 0.3115732416
		 0.31191817
		 0.312263178
		 0.3126082553
		 0.3129533917
		 0.3132985561
		 0.3136437593
		 0.3139890061
		 0.3143343015
		 0.3146796798
		 0.315025093
		 0.3153704037
		 0.3157157274
		 0.3160613098
		 0.3164070037
		 0.3167525825
		 0.3170981157
		 0.3174436078
		 0.317789131
		 0.3181349174
		 0.3184808023
		 0.3188264694
		 0.319172085
		 0.3195179008
		 0.319863809
		 0.3202096851
		 0.3205555613
		 0.3209014484
		 0.3212473412
		 0.3215932231
		 0.3219391162
		 0.3222850594
		 0.3226310554
		 0.3229771513
		 0.3233232998
		 0.3236694076
		 0.3240155029
		 0.3243615858
		 0.3247076891
		 0.3250539175
		 0.3254002014
		 0.3257463945
		 0.3260925965
		 0.3264390158
		 0.3267855203
		 0.3271318528
		 0.3274781624
		 0.3278246914
		 0.3281713563
		 0.3285181272
		 0.3288649281
		 0.3292115462
		 0.3295580381
		 0.3299043899
		 0.3302506699
		 0.3305970673
		 0.3309434906
		 0.3312897857
		 0.3316360496
		 0.3319824486
		 0.3323289323
		 0.3326754855
		 0.3330220764
		 0.3333686147
		 0.3337151218
		 0.3340615772
		 0.3344080295
		 0.3347546023
		 0.3351012465
		 0.3354479334
		 0.3357946175
		 0.3361411384
		 0.3364875828
		 0.3368340789
		 0.337180603
		 0.3375271811
		 0.3378737809
		 0.3382203193
		 0.3385668444
		 0.3389134607
		 0.3392600897
		 0.3396065613
		 0.3399529633
		 0.3402994375
		 0.3406459313
		 0.3409923969
		 0.3413388305
		 0.3416851821
		 0.3420314891
		 0.3423778277
		 0.3427241663
		 0.3430704613
		 0.3434167311
		 0.3437630049
		 0.3441092647
		 0.3444554783
		 0.3448016559
		 0.3451478172
		 0.3454939351
		 0.3458399183
		 0.3461858468
		 0.3465319237
		 0.3468780212
		 0.3472238733
		 0.3475696218
		 0.3479155322
		 0.3482614661
		 0.3486071685
		 0.3489527695
		 0.3492984931
		 0.349644247
		 0.3499899189
		 0.3503355226
		 0.3506810064
		 0.351026427
		 0.3513719362
		 0.351717444
		 0.3520627836
		 0.3524080147
		 0.352753184
		 0.3530983147
		 0.3534435205
		 0.3537887314
		 0.3541338144
		 0.3544788156
		 0.3548237906
		 0.3551687135
		 0.3555135395
		 0.3558582893
		 0.3562029789
		 0.3565476348
		 0.3568923752
		 0.357237108
		 0.3575816213
		 0.3579260115
		 0.3582704262
		 0.358614822
		 0.3589591756
		 0.3593034726
		 0.3596476485
		 0.3599917393
		 0.3603358136
		 0.3606798454
		 0.3610237998
		 0.3613676898
		 0.3617115272
		 0.3620553176
		 0.362399112
		 0.3627428453
		 0.3630863329
		 0.3634296721
		 0.3637730282
		 0.3641163649
		 0.3644596991
		 0.3648029889
		 0.365146126
		 0.3654891344
		 0.3658319769
		 0.3661747365
		 0.3665176879
		 0.3668606613
		 0.3672032873
		 0.3675457367
		 0.3678883241
		 0.3682308966
		 0.3685731772
		 0.368915271
		 0.3692572877
		 0.3695992543
		 0.3699413733
		 0.3702834916
		 0.3706252461
		 0.3709667947
		 0.3713083975
		 0.3716499596
		 0.3719913431
		 0.3723326086
		 0.372673874
		 0.3730150721
		 0.3733560545
		 0.3736968949
		 0.3740377397
		 0.3743785212
		 0.3747191222
		 0.3750595781
		 0.3753999182
		 0.3757401442
		 0.3760802719
		 0.3764203109
		 0.3767603147
		 0.3771002434
		 0.3774400144
		 0.3777796377
		 0.3781190719
		 0.3784583629
		 0.3787976225
		 0.3791368276
		 0.3794759966
		 0.3798150926
		 0.3801540024
		 0.3804927759
		 0.3808314989
		 0.3811701432
		 0.381508669
		 0.3818470971
		 0.3821854716
		 0.3825237755
		 0.3828619831
		 0.3832001024
		 0.3835381746
		 0.3838761303
		 0.3842137579
		 0.3845511455
		 0.3848884344
		 0.3852255876
		 0.3855625735
		 0.3858994083
		 0.3862361059
		 0.3865726962
		 0.3869093066
		 0.3872458623
		 0.3875821859
		 0.387918362
		 0.3882545746
		 0.388590728
		 0.3889266136
		 0.3892623198
		 0.3895980082
		 0.3899336157
		 0.3902690381
		 0.3906043091
		 0.3909394674
		 0.3912745101
		 0.3916094509
		 0.3919442891
		 0.392279046
		 0.3926136924
		 0.3929481424
		 0.3932824264
		 0.3936165827
		 0.3939506085
		 0.3942845189
		 0.3946183105
		 0.3949519829
		 0.3952855362
		 0.395618988
		 0.3959523028
		 0.3962853523
		 0.3966182094
		 0.3969510442
		 0.3972837902
		 0.3976163305
		 0.397948708
		 0.398281006
		 0.3986131761
		 0.3989450858
		 0.3992768128
		 0.3996085487
		 0.3999402135
		 0.4002716594
		 0.4006029328
		 0.4009341071
		 0.4012651414
		 0.4015959311
		 0.4019265263
		 0.402257024
		 0.4025874047
		 0.4029176663
		 0.4032478087
		 0.4035778454
		 0.4039077499
		 0.4042374305
		 0.4045669275
		 0.4048963182
		 0.40522558
		 0.4055546874
		 0.4058836454
		 0.4062124451
		 0.4065411049
		 0.4068697018
		 0.4071981827
		 0.4075263973
		 0.4078544136
		 0.4081823659
		 0.4085102206
		 0.4088379667
		 0.4091655777
		 0.4094929414
		 0.4098201108
		 0.4101471932
		 0.410474165
		 0.4108010279
		 0.4111277601
		 0.4114542847
		 0.4117806264
		 0.4121068056
		 0.4124328417
		 0.4127588232
		 0.4130847159
		 0.4134104726
		 0.4137360839
		 0.4140614767
		 0.4143866843
		 0.4147117734
		 0.4150367288
		 0.4153615397
		 0.41568621
		 0.4160107416
		 0.4163351454
		 0.4166594837
		 0.4169837054
		 0.4173076497
		 0.4176313891
		 0.4179550831
		 0.4182786804
		 0.4186020987
		 0.4189253649
		 0.4192485392
		 0.4195715785
		 0.4198943484
		 0.4202169114
		 0.4205394064
		 0.4208617932
		 0.4211840178
		 0.4215060946
		 0.4218280422
		 0.422149855
		 0.4224715154
		 0.4227930424
		 0.4231145107
		 0.4234358746
		 0.4237570161
		 0.4240779647
		 0.4243987368
		 0.4247193477
		 0.4250398767
		 0.4253602815
		 0.4256804537
		 0.4260004317
		 0.4263202771
		 0.4266399873
		 0.4269595954
		 0.4272790904
		 0.4275984734
		 0.4279177133
		 0.4282366601
		 0.4285554062
		 0.4288742378
		 0.4291930173
		 0.4295113854
		 0.4298294885
		 0.4301476445
		 0.4304657614
		 0.4307837118
		 0.4311015163
		 0.4314191727
		 0.4317366777
		 0.4320540012
		 0.4323711727
		 0.4326882945
		 0.4330053256
		 0.4333221687
		 0.4336388654
		 0.4339555133
		 0.4342720836
		 0.4345885258
		 0.4349048617
		 0.4352211463
		 0.4355373608
		 0.4358535253
		 0.4361695463
		 0.4364850189
		 0.4368001282
		 0.4371153211
		 0.4374304748
		 0.4377454127
		 0.4380601848
		 0.4383748695
		 0.438689451
		 0.439003919
		 0.4393182751
		 0.4396325105
		 0.4399466417
		 0.4402607332
		 0.4405747603
		 0.4408886854
		 0.4412024943
		 0.4415160957
		 0.4418295256
		 0.4421428492
		 0.4424560716
		 0.4427692773
		 0.4430824149
		 0.4433953291
		 0.4437080732
		 0.4440207436
		 0.4443333316
		 0.444645891
		 0.4449583721
		 0.4452705927
		 0.4455826294
		 0.4458946768
		 0.4462066689
		 0.4465184674
		 0.4468301152
		 0.4471416879
		 0.4474531743
		 0.4477645894
		 0.4480759157
		 0.4483870922
		 0.448698136
		 0.4490090707
		 0.4493198964
		 0.44963063
		 0.4499412663
		 0.4502517891
		 0.4505622133
		 0.4508725996
		 0.4511829187
		 0.4514930909
		 0.4518031382
		 0.4521131006
		 0.4524229632
		 0.4527326849
		 0.4530422849
		 0.4533518182
		 0.4536612671
		 0.4539705801
		 0.4542797939
		 0.4545890604
		 0.4548982948
		 0.4552072053
		 0.4555159247
		 0.4558248444
		 0.4561338188
		 0.4564424809
		 0.4567509535
		 0.4570595256
		 0.4573680944
		 0.4576763963
		 0.4579845319
		 0.4582927584
		 0.4586009982
		 0.4589091012
		 0.4592170985
		 0.4595250141
		 0.4598328522
		 0.4601406536
		 0.4604483974
		 0.4607560065
		 0.4610635235
		 0.4613710857
		 0.4616786499
		 0.4619861338
		 0.4622935455
		 0.4626008602
		 0.4629080867
		 0.4632152273
		 0.4635223048
		 0.4638294396
		 0.4641365761
		 0.4644435398
		 0.4647503968
		 0.4650573253
		 0.4653642685
		 0.4656710952
		 0.4659778444
		 0.4662846024
		 0.4665913416
		 0.4668979898
		 0.467204578
		 0.4675112099
		 0.4678178379
		 0.4681243103
		 0.468430679
		 0.4687370625
		 0.4690434431
		 0.469349829
		 0.4696562126
		 0.4699625821
		 0.4702689192
		 0.4705751153
		 0.4708812171
		 0.4711873417
		 0.4714934845
		 0.4717997453
		 0.472106049
		 0.472412102
		 0.4727180074
		 0.4730240386
		 0.4733301121
		 0.4736360186
		 0.4739418344
		 0.4742477736
		 0.4745537735
		 0.4748597026
		 0.4751655839
		 0.4754714235
		 0.4757772302
		 0.4760830453
		 0.4763888617
		 0.4766946769
		 0.4770004929
		 0.4773063337
		 0.4776121716
		 0.4779178819
		 0.4782235105
		 0.478529176
		 0.478834861
		 0.4791405771
		 0.4794463111
		 0.4797520057
		 0.4800576811
		 0.4803633886
		 0.4806691202
		 0.4809748861
		 0.4812806664
		 0.4815863508
		 0.4818919982
		 0.4821978311
		 0.4825037709
		 0.4828095833
		 0.4831153478
		 0.4834212863
		 0.4837273408
		 0.4840333856
		 0.4843394559
		 0.4846456541
		 0.484951929
		 0.4852581377
		 0.4855642645
		 0.4858700751
		 0.4861756921
		 0.4864815321
		 0.4867875132
		 0.4870935549
		 0.4873996558
		 0.4877057579
		 0.4880118743
		 0.4883180203
		 0.4886241988
		 0.4889304366
		 0.489236726
		 0.4895430529
		 0.4898494143
		 0.4901557728
		 0.4904621533
		 0.4907686765
		 0.4910752826
		 0.4913817162
		 0.4916880924
		 0.4919948499
		 0.492301827
		 0.4926084952
		 0.4929150174
		 0.4932218503
		 0.4935288672
		 0.4938357346
		 0.4941425534
		 0.4944496158
		 0.4947568322
		 0.4950639667
		 0.4953710567
		 0.4956780824
		 0.4959850998
		 0.4962924066
		 0.4965999011
		 0.496907269
		 0.4972145992
		 0.4975221458
		 0.4978298213
		 0.4981373366
		 0.4984447783
		 0.4987523803
		 0.4990600979
		 0.4993678706
		 0.4996757098
		 0.4999836446
		 0.5002916559
		 0.5005996739
		 0.5009077006
		 0.5012156571
		 0.5015236088
		 0.5018318638
		 0.5021403279
		 0.5024487455
		 0.5027571541
		 0.5030655374
		 0.5033739347
		 0.5036825651
		 0.5039913473
		 0.5042999764
		 0.5046085618
		 0.5049174923
		 0.5052266499
		 0.5055356776
		 0.5058446623
		 0.50615381
		 0.5064630789
		 0.5067724016
		 0.5070817777
		 0.5073911387
		 0.5077005236
		 0.5080100927
		 0.5083198127
		 0.5086296367
		 0.5089395582
		 0.5092495051
		 0.5095594976
		 0.5098695889
		 0.5101797715
		 0.5104900412
		 0.5108004014
		 0.5111108849
		 0.5114214651
		 0.5117319917
		 0.5120425301
		 0.5123533455
		 0.5126643659
		 0.5129753966
		 0.5132864649
		 0.513597562
		 0.5139087118
		 0.5142200414
		 0.5145315199
		 0.5148430776
		 0.5151547209
		 0.5154664356
		 0.5157782242
		 0.5160900804
		 0.5164020144
		 0.5167140746
		 0.5170262571
		 0.5173385879
		 0.5176510479
		 0.5179635499
		 0.5182761092
		 0.5185887281
		 0.5189014307
		 0.5192143718
		 0.5195275022
		 0.519840669
		 0.5201538872
		 0.5204671156
		 0.5207803788
		 0.5210937662
		 0.5214072831
		 0.5217210491
		 0.5220350174
		 0.5223490168
		 0.522663068
		 0.5229771474
		 0.523291277
		 0.5236055635
		 0.523919986
		 0.5242345133
		 0.5245491405
		 0.5248638049
		 0.5251785327
		 0.5254934344
		 0.5258084862
		 0.5261236442
		 0.5264388994
		 0.5267541406
		 0.5270694207
		 0.5273849902
		 0.5277007805
		 0.5280165614
		 0.5283323864
		 0.5286484061
		 0.5289645922
		 0.5292809039
		 0.529597326
		 0.5299137134
		 0.5302301228
		 0.5305468064
		 0.5308636964
		 0.531180545
		 0.5314974296
		 0.5318146633
		 0.5321321628
		 0.5324496355
		 0.5327671532
		 0.5330849544
		 0.5334029776
		 0.5337209991
		 0.5340390838
		 0.5343575152
		 0.5346761871
		 0.5349946236
		 0.5353129397
		 0.5356314917
		 0.535950215
		 0.5362689509
		 0.5365877517
		 0.5369068504
		 0.5372261867
		 0.5375455451
		 0.5378649777
		 0.5381846565
		 0.538504546
		 0.5388245656
		 0.5391447115
