ACES2Looks/ACEScct_LUT/T-AgX_Tone.cube
# This file is automagically generated by clfutil 0.4.0 from T-AgX_Tone.clf
LUT_1D_SIZE 4096
LUT_1D_INPUT_RANGE 0.0 1.4679964
  
   1.490116119e-08    1.490116119e-08    1.490116119e-08
   0.0005239756444    0.0005239756444    0.0005239756444
   0.001047936417    0.001047936417    0.001047936417
   0.001571897175    0.001571897175    0.001571897175
   0.002095857932    0.002095857932    0.002095857932
   0.00261981869    0.00261981869    0.00261981869
   0.003143779448    0.003143779448    0.003143779448
   0.003667740191    0.003667740191    0.003667740191
   0.004191700963    0.004191700963    0.004191700963
   0.004715660931    0.004715660931    0.004715660931
   0.00523962272    0.00523962272    0.00523962272
   0.005763590832    0.005763590832    0.005763590832
   0.006287558886    0.006287558886    0.006287558886
   0.006811520421    0.006811520421    0.006811520421
   0.007335480162    0.007335480162    0.007335480162
   0.007859441015    0.007859441015    0.007859441015
   0.008383401927    0.008383401927    0.008383401927
   0.00890736281    0.00890736281    0.00890736281
   0.009431323692    0.009431323692    0.009431323692
   0.009955284647    0.009955284647    0.009955284647
   0.01047924546    0.01047924546    0.01047924546
   0.01100320584    0.01100320584    0.01100320584
   0.01152716623    0.01152716623    0.01152716623
   0.01205112611    0.01205112611    0.01205112611
   0.01257508797    0.01257508797    0.01257508797
   0.01309905634    0.01309905634    0.01309905634
   0.01362302463    0.01362302463    0.01362302463
   0.01414698598    0.01414698598    0.01414698598
   0.01467094542    0.01467094542    0.01467094542
   0.01519490623    0.01519490623    0.01519490623
   0.01571886719    0.01571886719    0.01571886719
   0.01624282807    0.01624282807    0.01624282807
   0.01676678895    0.01676678895    0.01676678895
   0.01729074984    0.01729074984    0.01729074984
   0.01781471072    0.01781471072    0.01781471072
   0.01833867068    0.01833867068    0.01833867068
   0.01886263245    0.01886263245    0.01886263245
   0.01938660073    0.01938660073    0.01938660073
   0.01991056911    0.01991056911    0.01991056911
   0.0204345311    0.0204345311    0.0204345311
   0.02095849092    0.02095849092    0.02095849092
   0.02148245081    0.02148245081    0.02148245081
   0.02200641069    0.02200641069    0.02200641069
   0.02253037143    0.02253037143    0.02253037143
   0.02305433245    0.02305433245    0.02305433245
   0.02357829333    0.02357829333    0.02357829333
   0.02410225421    0.02410225421    0.02410225421
   0.02462621417    0.02462621417    0.02462621417
   0.02515017593    0.02515017593    0.02515017593
   0.0256741442    0.0256741442    0.0256741442
   0.0261981126    0.0261981126    0.0261981126
   0.02672207447    0.02672207447    0.02672207447
   0.02724603441    0.02724603441    0.02724603441
   0.0277699945    0.0277699945    0.0277699945
   0.02829395613    0.02829395613    0.02829395613
   0.0288179234    0.0288179234    0.0288179234
   0.0293418908    0.0293418908    0.0293418908
   0.02986585254    0.02986585254    0.02986585254
   0.03038981261    0.03038981261    0.03038981261
   0.03091377257    0.03091377257    0.03091377257
   0.03143773432    0.03143773432    0.03143773432
   0.03196170257    0.03196170257    0.03196170257
   0.03248567098    0.03248567098    0.03248567098
   0.03300963287    0.03300963287    0.03300963287
   0.03353359281    0.03353359281    0.03353359281
   0.03405755369    0.03405755369    0.03405755369
   0.03458151457    0.03458151457    0.03458151457
   0.03510547545    0.03510547545    0.03510547545
   0.03562943634    0.03562943634    0.03562943634
   0.03615339722    0.03615339722    0.03615339722
   0.0366773581    0.0366773581    0.0366773581
   0.03720131807    0.03720131807    0.03720131807
   0.0377252798    0.0377252798    0.0377252798
   0.03824924803    0.03824924803    0.03824924803
   0.03877321646    0.03877321646    0.03877321646
   0.03929717837    0.03929717837    0.03929717837
   0.0398211383    0.0398211383    0.0398211383
   0.04034509918    0.04034509918    0.04034509918
   0.04086906006    0.04086906006    0.04086906006
   0.04139302119    0.04139302119    0.04139302119
   0.04191698185    0.04191698185    0.04191698185
   0.04244094076    0.04244094076    0.04244094076
   0.04296489962    0.04296489962    0.04296489962
   0.04348886023    0.04348886023    0.04348886023
   0.04401282136    0.04401282136    0.04401282136
   0.04453678133    0.04453678133    0.04453678133
   0.04506074305    0.04506074305    0.04506074305
   0.04558471127    0.04558471127    0.04558471127
   0.04610867971    0.04610867971    0.04610867971
   0.04663264163    0.04663264163    0.04663264163
   0.04715660156    0.04715660156    0.04715660156
   0.04768056244    0.04768056244    0.04768056244
   0.04820452333    0.04820452333    0.04820452333
   0.04872848421    0.04872848421    0.04872848421
   0.04925244509    0.04925244509    0.04925244509
   0.04977640597    0.04977640597    0.04977640597
   0.05030036686    0.05030036686    0.05030036686
   0.05082432683    0.05082432683    0.05082432683
   0.05134828854    0.05134828854    0.05134828854
   0.05187225673    0.05187225673    0.05187225673
   0.05239622519    0.05239622519    0.05239622519
   0.05292018713    0.05292018713    0.05292018713
   0.05344414706    0.05344414706    0.05344414706
   0.05396810794    0.05396810794    0.05396810794
   0.05449206882    0.05449206882    0.05449206882
   0.0550160297    0.0550160297    0.0550160297
   0.05553999058    0.05553999058    0.05553999058
   0.05606395147    0.05606395147    0.05606395147
   0.05658791235    0.05658791235    0.05658791235
   0.05711187257    0.05711187257    0.05711187257
   0.05763583404    0.05763583404    0.05763583404
   0.05815980027    0.05815980027    0.05815980027
   0.05868376671    0.05868376671    0.05868376671
   0.05920772837    0.05920772837    0.05920772837
   0.05973168855    0.05973168855    0.05973168855
   0.06025564943    0.06025564943    0.06025564943
   0.06077961032    0.06077961032    0.06077961032
   0.0613035712    0.0613035712    0.0613035712
   0.06182753208    0.06182753208    0.06182753208
   0.06235149296    0.06235149296    0.06235149296
   0.06287545385    0.06287545385    0.06287545385
   0.06339941473    0.06339941473    0.06339941473
   0.06392337561    0.06392337561    0.06392337561
   0.06444733559    0.06444733559    0.06444733559
   0.06497129727    0.06497129727    0.06497129727
   0.06549526543    0.06549526543    0.06549526543
   0.06601923392    0.06601923392    0.06601923392
   0.06654319589    0.06654319589    0.06654319589
   0.06706715581    0.06706715581    0.06706715581
   0.06759111669    0.06759111669    0.06759111669
   0.06811507757    0.06811507757    0.06811507757
   0.06863903846    0.06863903846    0.06863903846
   0.06916299934    0.06916299934    0.06916299934
   0.06968696022    0.06968696022    0.06968696022
   0.07021092111    0.07021092111    0.07021092111
   0.07073488109    0.07073488109    0.07073488109
   0.07125884275    0.07125884275    0.07125884275
   0.07178281089    0.07178281089    0.07178281089
   0.07230677941    0.07230677941    0.07230677941
   0.07283074138    0.07283074138    0.07283074138
   0.0733547013    0.0733547013    0.0733547013
   0.07387866219    0.07387866219    0.07387866219
   0.07440262307    0.07440262307    0.07440262307
   0.07492658395    0.07492658395    0.07492658395
   0.07545054483    0.07545054483    0.07545054483
   0.07597450572    0.07597450572    0.07597450572
   0.0764984666    0.0764984666    0.0764984666
   0.07702242658    0.07702242658    0.07702242658
   0.07754638823    0.07754638823    0.07754638823
   0.07807035636    0.07807035636    0.07807035636
   0.07859432489    0.07859432489    0.07859432489
   0.07911828688    0.07911828688    0.07911828688
   0.0796422468    0.0796422468    0.0796422468
   0.08016620768    0.08016620768    0.08016620768
   0.08069016856    0.08069016856    0.08069016856
   0.08121412944    0.08121412944    0.08121412944
   0.08173809033    0.08173809033    0.08173809033
   0.08226205032    0.08226205032    0.08226205032
   0.08278601195    0.08278601195    0.08278601195
   0.08330998055    0.08330998055    0.08330998055
   0.08383394868    0.08383394868    0.08383394868
   0.08435790681    0.08435790681    0.08435790681
   0.08488186262    0.08488186262    0.08488186262
   0.08540582289    0.08540582289    0.08540582289
   0.08592978429    0.08592978429    0.08592978429
   0.08645374518    0.08645374518    0.08645374518
   0.08697770606    0.08697770606    0.08697770606
   0.08750166605    0.08750166605    0.08750166605
   0.08802562768    0.08802562768    0.08802562768
   0.08854959578    0.08854959578    0.08854959578
   0.08907356433    0.08907356433    0.08907356433
   0.08959752635    0.08959752635    0.08959752635
   0.09012148626    0.09012148626    0.09012148626
   0.09064544714    0.09064544714    0.09064544714
   0.09116940802    0.09116940802    0.09116940802
   0.09169336846    0.09169336846    0.09169336846
   0.09221732971    0.09221732971    0.09221732971
   0.0927412942    0.0927412942    0.0927412942
   0.09326525892    0.09326525892    0.09326525892
   0.09378922037    0.09378922037    0.09378922037
   0.09431318077    0.09431318077    0.09431318077
   0.09483714165    0.09483714165    0.09483714165
   0.09536110254    0.09536110254    0.09536110254
   0.09588506298    0.09588506298    0.09588506298
   0.09640902422    0.09640902422    0.09640902422
   0.0969329887    0.0969329887    0.0969329887
   0.09745695343    0.09745695343    0.09745695343
   0.09798091489    0.09798091489    0.09798091489
   0.09850487528    0.09850487528    0.09850487528
   0.09902883572    0.09902883572    0.09902883572
   0.09955279697    0.09955279697    0.09955279697
   0.1000767614    0.1000767614    0.1000767614
   0.1006007262    0.1006007262    0.1006007262
   0.1011246876    0.1011246876    0.1011246876
   0.101648648    0.101648648    0.101648648
   0.1021726085    0.1021726085    0.1021726085
   0.1026965697    0.1026965697    0.1026965697
   0.1032205342    0.1032205342    0.1032205342
   0.1037444989    0.1037444989    0.1037444989
   0.1042684604    0.1042684604    0.1042684604
   0.1047924208    0.1047924208    0.1047924208
   0.1053163812    0.1053163812    0.1053163812
   0.1058403425    0.1058403425    0.1058403425
   0.1063643069    0.1063643069    0.1063643069
   0.1068882717    0.1068882717    0.1068882717
   0.1074122331    0.1074122331    0.1074122331
   0.1079361935    0.1079361935    0.1079361935
   0.108460154    0.108460154    0.108460154
   0.1089841152    0.1089841152    0.1089841152
   0.1095080797    0.1095080797    0.1095080797
   0.1100320444    0.1100320444    0.1100320444
   0.1105560059    0.1105560059    0.1105560059
   0.1110799663    0.1110799663    0.1110799663
   0.1116039267    0.1116039267    0.1116039267
   0.1121278879    0.1121278879    0.1121278879
   0.1126518524    0.1126518524    0.1126518524
   0.1131758171    0.1131758171    0.1131758171
   0.1136997786    0.1136997786    0.1136997786
   0.114223739    0.114223739    0.114223739
   0.1147476999    0.1147476999    0.1147476999
   0.1152716608    0.1152716608    0.1152716608
   0.1157956213    0.1157956213    0.1157956213
   0.1163195825    0.1163195825    0.1163195825
   0.1168435466    0.1168435466    0.1168435466
   0.1173675111    0.1173675111    0.1173675111
   0.1178914721    0.1178914721    0.1178914721
   0.1184154329    0.1184154329    0.1184154329
   0.1189393973    0.1189393973    0.1189393973
   0.1194633621    0.1194633621    0.1194633621
   0.1199873236    0.1199873236    0.1199873236
   0.120511284    0.120511284    0.120511284
   0.1210352448    0.1210352448    0.1210352448
   0.1215592057    0.1215592057    0.1215592057
   0.1220831662    0.1220831662    0.1220831662
   0.1226071274    0.1226071274    0.1226071274
   0.1231310918    0.1231310918    0.1231310918
   0.1236550566    0.1236550566    0.1236550566
   0.1241790177    0.1241790177    0.1241790177
   0.1247029784    0.1247029784    0.1247029784
   0.1252269428    0.1252269428    0.1252269428
   0.1257509076    0.1257509076    0.1257509076
   0.1262748691    0.1262748691    0.1262748691
   0.1267988295    0.1267988295    0.1267988295
   0.1273227903    0.1273227903    0.1273227903
   0.1278467512    0.1278467512    0.1278467512
   0.1283707121    0.1283707121    0.1283707121
   0.128894673    0.128894673    0.128894673
   0.1294186339    0.1294186339    0.1294186339
   0.1299425948    0.1299425948    0.1299425948
   0.1304665556    0.1304665556    0.1304665556
   0.1309905165    0.1309905165    0.1309905165
   0.1315144765    0.1315144765    0.1315144765
   0.1320384381    0.1320384381    0.1320384381
   0.132562406    0.132562406    0.132562406
   0.1330863747    0.1330863747    0.1330863747
   0.1336103368    0.1336103368    0.1336103368
   0.1341342967    0.1341342967    0.1341342967
   0.1346582567    0.1346582567    0.1346582567
   0.1351822183    0.1351822183    0.1351822183
   0.1357061862    0.1357061862    0.1357061862
   0.1362301549    0.1362301549    0.1362301549
   0.136754117    0.136754117    0.136754117
   0.1372780769    0.1372780769    0.1372780769
   0.1378020378    0.1378020378    0.1378020378
   0.1383259987    0.1383259987    0.1383259987
   0.1388499596    0.1388499596    0.1388499596
   0.1393739204    0.1393739204    0.1393739204
   0.1398978813    0.1398978813    0.1398978813
   0.1404218422    0.1404218422    0.1404218422
   0.1409458031    0.1409458031    0.1409458031
   0.141469764    0.141469764    0.141469764
   0.1419937249    0.1419937249    0.1419937249
   0.1425176857    0.1425176857    0.1425176857
   0.1430416466    0.1430416466    0.1430416466
   0.1435656075    0.1435656075    0.1435656075
   0.1440895684    0.1440895684    0.1440895684
   0.1446135293    0.1446135293    0.1446135293
   0.1451374893    0.1451374893    0.1451374893
   0.1456614508    0.1456614508    0.1456614508
   0.1461854187    0.1461854187    0.1461854187
   0.1467093874    0.1467093874    0.1467093874
   0.1472333496    0.1472333496    0.1472333496
   0.1477573095    0.1477573095    0.1477573095
   0.1482812695    0.1482812695    0.1482812695
   0.148805231    0.148805231    0.148805231
   0.1493291989    0.1493291989    0.1493291989
   0.1498531676    0.1498531676    0.1498531676
   0.1503771298    0.1503771298    0.1503771298
   0.1509010897    0.1509010897    0.1509010897
   0.1514250506    0.1514250506    0.1514250506
   0.1519490114    0.1519490114    0.1519490114
   0.1524729723    0.1524729723    0.1524729723
   0.1529969332    0.1529969332    0.1529969332
   0.1535208941    0.1535208941    0.1535208941
   0.154044855    0.154044855    0.154044855
   0.1545688158    0.1545688158    0.1545688158
   0.1550927767    0.1550927767    0.1550927767
   0.1556167376    0.1556167376    0.1556167376
   0.1561406985    0.1561406985    0.1561406985
   0.1566646594    0.1566646594    0.1566646594
   0.1571886203    0.1571886203    0.1571886203
   0.1577125803    0.1577125803    0.1577125803
   0.1582365418    0.1582365418    0.1582365418
   0.1587605097    0.1587605097    0.1587605097
   0.1592844784    0.1592844784    0.1592844784
   0.1598084406    0.1598084406    0.1598084406
   0.1603324005    0.1603324005    0.1603324005
   0.1608563613    0.1608563613    0.1608563613
   0.1613803222    0.1613803222    0.1613803222
   0.1619042822    0.1619042822    0.1619042822
   0.1624282437    0.1624282437    0.1624282437
   0.1629522116    0.1629522116    0.1629522116
   0.1634761803    0.1634761803    0.1634761803
   0.1640001425    0.1640001425    0.1640001425
   0.1645241024    0.1645241024    0.1645241024
   0.1650480633    0.1650480633    0.1650480633
   0.1655720242    0.1655720242    0.1655720242
   0.1660959842    0.1660959842    0.1660959842
   0.1666199457    0.1666199457    0.1666199457
   0.1671439145    0.1671439145    0.1671439145
   0.1676678826    0.1676678826    0.1676678826
   0.1681918364    0.1681918364    0.1681918364
   0.1687157885    0.1687157885    0.1687157885
   0.1692397549    0.1692397549    0.1692397549
   0.1697637247    0.1697637247    0.1697637247
   0.1702876869    0.1702876869    0.1702876869
   0.1708116468    0.1708116468    0.1708116468
   0.1713356077    0.1713356077    0.1713356077
   0.1718595686    0.1718595686    0.1718595686
   0.1723835295    0.1723835295    0.1723835295
   0.1729074904    0.1729074904    0.1729074904
   0.1734314512    0.1734314512    0.1734314512
   0.1739554121    0.1739554121    0.1739554121
   0.174479373    0.174479373    0.174479373
   0.1750033339    0.1750033339    0.1750033339
   0.1755272948    0.1755272948    0.1755272948
   0.1760512557    0.1760512557    0.1760512557
   0.1765752157    0.1765752157    0.1765752157
   0.1770991771    0.1770991771    0.1770991771
   0.177623145    0.177623145    0.177623145
   0.1781471137    0.1781471137    0.1781471137
   0.178671076    0.178671076    0.178671076
   0.1791950359    0.1791950359    0.1791950359
   0.1797189967    0.1797189967    0.1797189967
   0.1802429576    0.1802429576    0.1802429576
   0.1807669185    0.1807669185    0.1807669185
   0.1812908794    0.1812908794    0.1812908794
   0.1818148394    0.1818148394    0.1818148394
   0.1823388009    0.1823388009    0.1823388009
   0.1828627687    0.1828627687    0.1828627687
   0.1833867375    0.1833867375    0.1833867375
   0.1839106997    0.1839106997    0.1839106997
   0.1844346596    0.1844346596    0.1844346596
   0.1849586205    0.1849586205    0.1849586205
   0.1854825813    0.1854825813    0.1854825813
   0.1860065422    0.1860065422    0.1860065422
   0.1865305031    0.1865305031    0.1865305031
   0.187054464    0.187054464    0.187054464
   0.1875784249    0.1875784249    0.1875784249
   0.1881023858    0.1881023858    0.1881023858
   0.1886263466    0.1886263466    0.1886263466
   0.1891503067    0.1891503067    0.1891503067
   0.1896742681    0.1896742681    0.1896742681
   0.1901982359    0.1901982359    0.1901982359
   0.1907222047    0.1907222047    0.1907222047
   0.191246167    0.191246167    0.191246167
   0.1917701269    0.1917701269    0.1917701269
   0.1922940877    0.1922940877    0.1922940877
   0.1928180486    0.1928180486    0.1928180486
   0.1933420095    0.1933420095    0.1933420095
   0.1938659704    0.1938659704    0.1938659704
   0.1943899313    0.1943899313    0.1943899313
   0.1949138921    0.1949138921    0.1949138921
   0.1954378522    0.1954378522    0.1954378522
   0.1959618136    0.1959618136    0.1959618136
   0.1964857814    0.1964857814    0.1964857814
   0.1970097502    0.1970097502    0.1970097502
   0.1975337125    0.1975337125    0.1975337125
   0.1980576723    0.1980576723    0.1980576723
   0.1985816332    0.1985816332    0.1985816332
   0.1991055941    0.1991055941    0.1991055941
   0.199629555    0.199629555    0.199629555
   0.2001535159    0.2001535159    0.2001535159
   0.2006774767    0.2006774767    0.2006774767
   0.2012014376    0.2012014376    0.2012014376
   0.2017253985    0.2017253985    0.2017253985
   0.2022493594    0.2022493594    0.2022493594
   0.2027733194    0.2027733194    0.2027733194
   0.2032972808    0.2032972808    0.2032972808
   0.2038212486    0.2038212486    0.2038212486
   0.2043452174    0.2043452174    0.2043452174
   0.2048691797    0.2048691797    0.2048691797
   0.2053931396    0.2053931396    0.2053931396
   0.2059171005    0.2059171005    0.2059171005
   0.2064410614    0.2064410614    0.2064410614
   0.2069650222    0.2069650222    0.2069650222
   0.2074889831    0.2074889831    0.2074889831
   0.208012944    0.208012944    0.208012944
   0.2085369049    0.2085369049    0.2085369049
   0.2090608649    0.2090608649    0.2090608649
   0.2095848263    0.2095848263    0.2095848263
   0.2101087941    0.2101087941    0.2101087941
   0.2106327629    0.2106327629    0.2106327629
   0.2111567252    0.2111567252    0.2111567252
   0.2116806851    0.2116806851    0.2116806851
   0.212204646    0.212204646    0.212204646
   0.2127286068    0.2127286068    0.2127286068
   0.2132582308    0.2132582308    0.2132582308
   0.2137788136    0.2137788136    0.2137788136
   0.2142751326    0.2142751326    0.2142751326
   0.2147335047    0.2147335047    0.2147335047
   0.2151091828    0.2151091828    0.2151091828
   0.2154451927    0.2154451927    0.2154451927
   0.2157951738    0.2157951738    0.2157951738
   0.2161439002    0.2161439002    0.2161439002
   0.2164910295    0.2164910295    0.2164910295
   0.2168365824    0.2168365824    0.2168365824
   0.2171805295    0.2171805295    0.2171805295
   0.2175229631    0.2175229631    0.2175229631
   0.2178640671    0.2178640671    0.2178640671
   0.2182037093    0.2182037093    0.2182037093
   0.2185416871    0.2185416871    0.2185416871
   0.2188781944    0.2188781944    0.2188781944
   0.2192135152    0.2192135152    0.2192135152
   0.2195474803    0.2195474803    0.2195474803
   0.2198799062    0.2198799062    0.2198799062
   0.2202108957    0.2202108957    0.2202108957
   0.2205405299    0.2205405299    0.2205405299
   0.2208688125    0.2208688125    0.2208688125
   0.2211957907    0.2211957907    0.2211957907
   0.2215214511    0.2215214511    0.2215214511
   0.2218457736    0.2218457736    0.2218457736
   0.2221688091    0.2221688091    0.2221688091
   0.2224903857    0.2224903857    0.2224903857
   0.2228111322    0.2228111322    0.2228111322
   0.2231320876    0.2231320876    0.2231320876
   0.2234529839    0.2234529839    0.2234529839
   0.2237738076    0.2237738076    0.2237738076
   0.2240946792    0.2240946792    0.2240946792
   0.2244158432    0.2244158432    0.2244158432
   0.2247371631    0.2247371631    0.2247371631
   0.2250585042    0.2250585042    0.2250585042
   0.2253799283    0.2253799283    0.2253799283
   0.2257014715    0.2257014715    0.2257014715
   0.2260231445    0.2260231445    0.2260231445
   0.226345022    0.226345022    0.226345022
   0.2266669979    0.2266669979    0.2266669979
   0.2269888692    0.2269888692    0.2269888692
   0.2273107978    0.2273107978    0.2273107978
   0.2276330011    0.2276330011    0.2276330011
   0.2279553652    0.2279553652    0.2279553652
   0.228277802    0.228277802    0.228277802
   0.2286003098    0.2286003098    0.2286003098
   0.2289228068    0.2289228068    0.2289228068
   0.229245394    0.229245394    0.229245394
   0.2295682567    0.2295682567    0.2295682567
   0.2298912507    0.2298912507    0.2298912507
   0.2302141706    0.2302141706    0.2302141706
   0.2305371473    0.2305371473    0.2305371473
   0.2308603269    0.2308603269    0.2308603269
   0.2311836525    0.2311836525    0.2311836525
   0.2315071337    0.2315071337    0.2315071337
   0.2318306734    0.2318306734    0.2318306734
   0.2321540359    0.2321540359    0.2321540359
   0.2324774231    0.2324774231    0.2324774231
   0.2328011051    0.2328011051    0.2328011051
   0.2331249759    0.2331249759    0.2331249759
   0.2334490047    0.2334490047    0.2334490047
   0.2337731333    0.2337731333    0.2337731333
   0.2340972175    0.2340972175    0.2340972175
   0.2344213432    0.2344213432    0.2344213432
   0.2347456033    0.2347456033    0.2347456033
   0.2350699596    0.2350699596    0.2350699596
   0.235394375    0.235394375    0.235394375
   0.235718887    0.235718887    0.235718887
   0.2360435657    0.2360435657    0.2360435657
   0.2363683515    0.2363683515    0.2363683515
   0.2366931354    0.2366931354    0.2366931354
   0.2370180204    0.2370180204    0.2370180204
   0.2373431927    0.2373431927    0.2373431927
   0.2376684953    0.2376684953    0.2376684953
   0.2379936931    0.2379936931    0.2379936931
   0.2383189252    0.2383189252    0.2383189252
   0.2386443513    0.2386443513    0.2386443513
   0.2389698916    0.2389698916    0.2389698916
   0.2392954327    0.2392954327    0.2392954327
