ACES2Looks/ACEScct_LUT/T-ARRI_Tone.spi1d
Version 1
From 0 1.4679964
Length 4096
Components 1
{
		 0
		 0.0003460015535
		 0.0006920031873
		 0.001038004989
		 0.001384007045
		 0.001730009443
		 0.00207601227
		 0.002422015693
		 0.002768019953
		 0.003114024759
		 0.00346002977
		 0.003806034644
		 0.00415203904
		 0.004498042617
		 0.004844045218
		 0.005190047126
		 0.005536048685
		 0.005882050241
		 0.00622805214
		 0.006574054728
		 0.006920058296
		 0.007266062706
		 0.00761206761
		 0.00795807266
		 0.008304077506
		 0.008650081799
		 0.008996085219
		 0.009342087882
		 0.009688090021
		 0.01003409182
		 0.01038009347
		 0.01072609516
		 0.01107209706
		 0.01141809903
		 0.01176410081
		 0.01211010258
		 0.01245610451
		 0.01280210674
		 0.01314810946
		 0.01349411286
		 0.01384011711
		 0.01418612191
		 0.01453212694
		 0.01487813185
		 0.0152241363
		 0.01557013998
		 0.01591614287
		 0.01626214522
		 0.0166081472
		 0.01695414899
		 0.01730015076
		 0.01764615269
		 0.01799215475
		 0.01833815661
		 0.01868415841
		 0.0190301603
		 0.01937616243
		 0.01972216496
		 0.02006816807
		 0.02041417195
		 0.0207601764
		 0.02110618112
		 0.02145218583
		 0.02179819022
		 0.02214419402
		 0.02249019699
		 0.02283619932
		 0.02318220129
		 0.02352820317
		 0.02387420525
		 0.02422020782
		 0.02456621114
		 0.0249122152
		 0.02525821972
		 0.02560422444
		 0.02595022908
		 0.02629623335
		 0.02664223699
		 0.02698823992
		 0.02733424234
		 0.02768024445
		 0.02802624644
		 0.02837224853
		 0.0287182509
		 0.02906425368
		 0.02941025675
		 0.02975625997
		 0.03010226324
		 0.03044826647
		 0.03079426954
		 0.03114027235
		 0.03148627495
		 0.03183227741
		 0.03217827976
		 0.03252428201
		 0.0328702842
		 0.03321628636
		 0.03356228835
		 0.03390829002
		 0.03425429158
		 0.03460029321
		 0.03494629512
		 0.03529229751
		 0.03563830059
		 0.03598430451
		 0.03633030901
		 0.03667631377
		 0.03702231849
		 0.03736832285
		 0.03771432655
		 0.03806032959
		 0.0384063322
		 0.0387523345
		 0.03909833661
		 0.03944433863
		 0.03979034067
		 0.04013634272
		 0.04048234445
		 0.04082834601
		 0.04117434761
		 0.04152034944
		 0.0418663517
		 0.0422123546
		 0.04255835831
		 0.04290436264
		 0.04325036731
		 0.04359637203
		 0.04394237654
		 0.04428838054
		 0.04463438396
		 0.04498038706
		 0.04532638992
		 0.04567239257
		 0.04601839507
		 0.04636439747
		 0.04671039978
		 0.04705640168
		 0.04740240327
		 0.0477484048
		 0.0480944065
		 0.04844040859
		 0.0487864113
		 0.04913241481
		 0.04947841898
		 0.04982442355
		 0.05017042826
		 0.05051643285
		 0.05086243707
		 0.05120844076
		 0.05155444423
		 0.05190044752
		 0.05224645064
		 0.05259245358
		 0.05293845634
		 0.05328445892
		 0.05363046104
		 0.05397646276
		 0.0543224643
		 0.05466846591
		 0.05501446781
		 0.05536047024
		 0.05570647338
		 0.0560524771
		 0.05639848119
		 0.05674448546
		 0.0570904897
		 0.05743649371
		 0.05778249732
		 0.05812850076
		 0.05847450408
		 0.05882050726
		 0.05916651029
		 0.05951251314
		 0.05985851578
		 0.06020451815
		 0.06055052023
		 0.06089652211
		 0.06124252388
		 0.06158852562
		 0.06193452743
		 0.06228052929
		 0.06262653085
		 0.06297253227
		 0.06331853379
		 0.06366453563
		 0.06401053804
		 0.06435654124
		 0.06470254561
		 0.06504855091
		 0.06539455669
		 0.06574056249
		 0.06608656786
		 0.06643257234
		 0.0667785756
		 0.06712457792
		 0.06747057962
		 0.06781658102
		 0.06816258243
		 0.06850858419
		 0.06885458656
		 0.06920058936
		 0.06954659241
		 0.06989259561
		 0.07023859889
		 0.07058460216
		 0.07093060534
		 0.07127660843
		 0.07162261153
		 0.07196861463
		 0.07231461774
		 0.07266062084
		 0.07300662394
		 0.07335262703
		 0.07369863016
		 0.07404463332
		 0.07439063646
		 0.07473663958
		 0.07508264264
		 0.07542864561
		 0.07577464846
		 0.0761206512
		 0.07646665388
		 0.07681265656
		 0.07715865929
		 0.07750466211
		 0.07785066507
		 0.07819666811
		 0.07854267122
		 0.07888867436
		 0.07923467752
		 0.07958068065
		 0.07992668375
		 0.08027268685
		 0.08061868995
		 0.08096469306
		 0.08131069616
		 0.08165669926
		 0.08200270236
		 0.08234870546
		 0.0826947086
		 0.08304071175
		 0.08338671489
		 0.08373271799
		 0.08407872102
		 0.08442472397
		 0.08477072687
		 0.08511672971
		 0.0854627325
		 0.08580873522
		 0.08615473787
		 0.08650074044
		 0.08684674285
		 0.0871927451
		 0.08753874727
		 0.08788474942
		 0.08823075164
		 0.088576754
		 0.08892275652
		 0.08926875904
		 0.08961476161
		 0.08996076428
		 0.09030676709
		 0.09065277012
		 0.09099877341
		 0.09134477715
		 0.09169078126
		 0.09203678553
		 0.09238278974
		 0.0927287937
		 0.09307479719
		 0.09342080004
		 0.09376680233
		 0.0941128043
		 0.09445880618
		 0.09480480822
		 0.09515081064
		 0.09549681368
		 0.09584281739
		 0.09618882152
		 0.09653482585
		 0.09688083011
		 0.09722683408
		 0.0975728375
		 0.0979188403
		 0.09826484268
		 0.09861084479
		 0.09895684679
		 0.09930284882
		 0.09964885106
		 0.09999485359
		 0.1003408563
		 0.100686859
		 0.1010328618
		 0.1013788647
		 0.1017248675
		 0.1020708703
		 0.1024168731
		 0.1027628759
		 0.1031088787
		 0.1034548815
		 0.1038008843
		 0.1041468869
		 0.1044928893
		 0.1048388914
		 0.1051848934
		 0.1055308955
		 0.1058768977
		 0.1062229002
		 0.1065689032
		 0.1069149069
		 0.107260911
		 0.1076069154
		 0.1079529196
		 0.1082989236
		 0.1086449271
		 0.1089909299
		 0.1093369323
		 0.1096829344
		 0.1100289364
		 0.1103749384
		 0.1107209407
		 0.1110669432
		 0.1114129457
		 0.1117589482
		 0.1121049509
		 0.1124509537
		 0.1127969567
		 0.11314296
		 0.1134889637
		 0.1138349678
		 0.114180972
		 0.1145269762
		 0.1148729802
		 0.1152189838
		 0.1155649867
		 0.1159109892
		 0.1162569914
		 0.1166029934
		 0.1169489954
		 0.1172949976
		 0.117641
		 0.1179870024
		 0.1183330048
		 0.1186790072
		 0.1190250099
		 0.119371013
		 0.1197170166
		 0.1200630211
		 0.1204090264
		 0.1207550322
		 0.1211010381
		 0.1214470434
		 0.1217930478
		 0.1221390508
		 0.1224850526
		 0.1228310535
		 0.123177054
		 0.1235230544
		 0.1238690552
		 0.1242150568
		 0.124561059
		 0.1249070615
		 0.1252530643
		 0.1255990672
		 0.1259450703
		 0.1262910734
		 0.1266370765
		 0.1269830799
		 0.1273290835
		 0.1276750871
		 0.1280210907
		 0.1283670941
		 0.1287130972
		 0.1290590999
		 0.1294051023
		 0.1297511047
		 0.1300971072
		 0.1304431101
		 0.1307891136
		 0.131135118
		 0.1314811233
		 0.1318271291
		 0.132173135
		 0.1325191403
		 0.1328651448
		 0.1332111479
		 0.1335571497
		 0.1339031507
		 0.1342491511
		 0.1345951516
		 0.1349411523
		 0.1352871539
		 0.135633156
		 0.1359791585
		 0.1363251613
		 0.1366711642
		 0.1370171673
		 0.1373631704
		 0.1377091735
		 0.1380551769
		 0.1384011805
		 0.1387471841
		 0.1390931877
		 0.1394391911
		 0.1397851942
		 0.1401311969
		 0.1404771994
		 0.1408232017
		 0.1411692042
		 0.1415152071
		 0.1418612106
		 0.1422072149
		 0.1425532202
		 0.142899226
		 0.1432452319
		 0.1435912373
		 0.1439372418
		 0.1442832449
		 0.1446292468
		 0.1449752478
		 0.1453212483
		 0.1456672487
		 0.1460132494
		 0.1463592509
		 0.1467052531
		 0.1470512556
		 0.1473972583
		 0.1477432612
		 0.1480892643
		 0.1484352674
		 0.1487812705
		 0.1491272739
		 0.1494732775
		 0.1498192811
		 0.1501652847
		 0.1505112881
		 0.1508572913
		 0.1512032942
		 0.151549297
		 0.1518952997
		 0.1522413024
		 0.152587305
		 0.1529333078
		 0.1532810041
		 0.1536321928
		 0.1539842509
		 0.1543344552
		 0.1546800822
		 0.1550184089
		 0.1553469366
		 0.1556664186
		 0.1559788123
		 0.1562858644
		 0.1565893216
		 0.1568909305
		 0.1571924378
		 0.1574923852
		 0.1577889251
		 0.1580832206
		 0.1583764346
		 0.1586697302
		 0.1589642702
		 0.1592607437
		 0.1595578125
		 0.1598552808
		 0.1601531461
		 0.1604514063
		 0.1607500588
		 0.1610491016
		 0.1613485351
		 0.1616483612
		 0.1619485805
		 0.1622491937
		 0.1625502016
		 0.162851605
		 0.1631534047
		 0.1634556006
		 0.1637581917
		 0.1640611769
		 0.164364555
		 0.1646683249
		 0.1649724859
		 0.1652770404
		 0.1655819884
		 0.1658873284
		 0.1661930591
		 0.1664991793
		 0.1668056876
		 0.1671125831
		 0.1674198668
		 0.1677275397
		 0.1680356032
		 0.1683440586
		 0.168652907
		 0.1689621636
		 0.1692718782
		 0.1695820134
		 0.1698925208
		 0.1702033522
		 0.1705144591
		 0.1708257994
		 0.1711376678
		 0.1714500713
		 0.1717627625
		 0.1720754943
		 0.1723880195
		 0.1727000909
		 0.1730116406
		 0.1733229892
		 0.1736341159
		 0.1739449782
		 0.1742555336
		 0.1745657398
		 0.1748755589
		 0.175185025
		 0.1754941582
		 0.1758029623
		 0.1761114413
		 0.1764195989
		 0.176727439
		 0.177032849
		 0.1773345985
		 0.177635419
		 0.1779380634
		 0.1782452846
		 0.1785598355
		 0.1788835822
		 0.1792131679
		 0.1795481357
		 0.1798887669
		 0.1802353425
		 0.1805881439
		 0.1809474819
		 0.1813165446
		 0.1816950901
		 0.1820799157
		 0.1824678187
		 0.1828555963
		 0.1832400459
		 0.1836197655
		 0.1839984785
		 0.1843765058
		 0.1847538566
		 0.1851305402
		 0.1855065658
		 0.1858819413
		 0.1862566488
		 0.1866306872
		 0.187004065
		 0.1873767909
		 0.1877488733
		 0.1881203209
		 0.1884911285
		 0.1888612823
		 0.1892307905
		 0.1895996613
		 0.1899679031
		 0.1903355241
		 0.1907025289
		 0.1910688993
		 0.1914346385
		 0.1917997546
		 0.192164256
		 0.1925281508
		 0.1928914473
		 0.1932541357
		 0.1936162086
		 0.1939776728
		 0.1943385352
		 0.1946988025
		 0.1950584815
		 0.1954175719
		 0.1957760569
		 0.1961339436
		 0.1964912416
		 0.1968479602
		 0.1972041089
		 0.1975596962
		 0.1979147095
		 0.1982691453
		 0.198623008
		 0.1989763023
		 0.1993290329
		 0.1996812042
		 0.2000328116
		 0.2003838445
		 0.2007343112
		 0.2010842202
		 0.2014335801
		 0.2017823994
		 0.2021306842
		 0.2024784207
		 0.2028256089
		 0.2031722529
		 0.2035183571
		 0.2038639258
		 0.2042089634
		 0.2045534617
		 0.2048974154
		 0.2052408321
		 0.2055837192
		 0.2059260844
		 0.2062679349
		 0.2066092733
		 0.2069500853
		 0.2072903743
		 0.2076301458
		 0.2079694053
		 0.2083081583
		 0.2086464099
		 0.20898415
		 0.2093213766
		 0.2096580952
		 0.2099943113
		 0.2103300304
		 0.2106652581
		 0.2109999931
		 0.2113342261
		 0.2116679611
		 0.2120012023
		 0.212333954
		 0.2126662205
		 0.2129980043
		 0.2133292929
		 0.2136600886
		 0.2139903987
		 0.2143202303
		 0.2146495906
		 0.2149784868
		 0.2153042553
		 0.2156259318
		 0.2159466251
		 0.2162694464
		 0.2165975069
		 0.2169339178
		 0.2172806251
		 0.2176340184
		 0.2179935525
		 0.2183592854
		 0.2187312749
		 0.2191095789
		 0.2194943374
		 0.2198891755
		 0.2202935975
		 0.2207042544
		 0.2211177972
		 0.2215308768
		 0.2219401442
		 0.2223444677
		 0.2227476933
		 0.2231500564
		 0.2235515732
		 0.2239522594
		 0.2243521309
		 0.2247512002
		 0.2251494377
		 0.225546843
		 0.2259434286
		 0.2263392072
		 0.2267341916
		 0.2271283943
		 0.2275218024
		 0.2279143967
		 0.2283061927
		 0.2286972059
		 0.229087452
		 0.2294769464
		 0.2298656974
		 0.2302536769
		 0.2306408885
		 0.2310273421
		 0.2314130475
		 0.2317980144
		 0.2321822522
		 0.232565742
		 0.2329484773
		 0.2333304713
		 0.2337117374
		 0.234092289
		 0.2344721394
		 0.234851289
		 0.2352297128
		 0.2356074196
		 0.2359844201
		 0.2363607251
		 0.2367363457
		 0.2371112904
		 0.2374855367
		 0.2378590842
		 0.2382319442
		 0.2386041283
		 0.238975648
		 0.2393465147
		 0.2397167224
		 0.2400862546
		 0.2404551198
		 0.240823327
		 0.2411908851
		 0.2415578031
		 0.2419240851
		 0.2422897104
		 0.2426546834
		 0.2430190141
		 0.2433827126
		 0.243745789
		 0.2441082531
		 0.2444700913
		 0.2448312952
		 0.2451918742
		 0.2455518378
		 0.2459111953
		 0.2462699563
		 0.2466281219
		 0.2469856736
		 0.2473426175
		 0.2476989615
		 0.2480547135
		 0.2484098815
		 0.2487644725
		 0.2491184707
		 0.2494718748
		 0.2498246928
		 0.2501769327
		 0.2505286026
		 0.2508797106
		 0.2512265188
		 0.2515656153
		 0.2519024983
		 0.2522428144
		 0.2525922104
		 0.2529563327
		 0.2533404933
		 0.2537441564
		 0.2541626046
		 0.2545911301
		 0.2550250251
		 0.2554595819
		 0.2558900976
		 0.2563190692
		 0.2567507047
		 0.2571838954
		 0.2576175323
		 0.2580505067
		 0.2584817096
		 0.2589105246
		 0.2593382216
		 0.2597649762
		 0.260190806
		 0.2606157282
		 0.2610397604
		 0.2614629182
		 0.2618851689
		 0.2623065069
		 0.2627269501
		 0.2631465165
		 0.2635652241
		 0.2639830908
		 0.2644001119
		 0.2648162571
		 0.2652315398
		 0.2656459745
		 0.2660595756
		 0.2664723578
		 0.2668843303
		 0.2672954574
		 0.2677057445
		 0.2681152095
		 0.2685238707
		 0.2689317461
		 0.2693388538
		 0.2697451803
		 0.2701507055
		 0.2705554411
		 0.2709593985
		 0.2713625891
		 0.2717650246
		 0.2721667072
		 0.2725676086
		 0.2729677384
		 0.2733671113
		 0.2737657418
		 0.2741636445
		 0.2745608333
		 0.2749572843
		 0.2753529903
		 0.2757479646
		 0.2761422203
		 0.2765357706
		 0.2769286286
		 0.2773207914
		 0.2777122338
		 0.2781029672
		 0.2784930047
		 0.2788823594
		 0.2792710442
		 0.2796590692
		 0.2800464107
		 0.2804330683
		 0.2808190518
		 0.2812043711
		 0.2815890358
		 0.2819730559
		 0.2823564212
		 0.2827391181
		 0.2831211576
		 0.2835025508
		 0.2838833088
		 0.2842634428
		 0.2846421219
		 0.285016125
		 0.2853876998
		 0.2857598362
		 0.2861355244
		 0.2865177542
		 0.2869094736
		 0.2873097032
		 0.2877162949
		 0.2881286476
		 0.2885461605
		 0.2889682325
		 0.2893942625
		 0.2898252463
		 0.2902639904
		 0.2907082551
		 0.2911555299
		 0.2916033043
		 0.2920490678
		 0.2924905772
		 0.2929300212
		 0.2933685516
		 0.2938061955
		 0.2942429801
		 0.2946789327
		 0.2951140807
		 0.2955484125
		 0.2959818925
		 0.2964145359
		 0.2968463582
		 0.2972773751
		 0.297707602
		 0.2981370466
		 0.2985656744
		 0.2989934925
		 0.2994205165
		 0.2998467619
		 0.3002722444
		 0.3006969793
		 0.3011209498
		 0.3015441439
		 0.301966571
		 0.3023882408
		 0.3028091628
		 0.3032293468
		 0.303648789
		 0.3040674613
		 0.3044853791
		 0.3049025611
		 0.3053190259
		 0.3057347921
		 0.306149876
		 0.3065642478
		 0.3069779027
		 0.3073908531
		 0.3078031116
		 0.3082146909
		 0.3086256034
		 0.309035845
		 0.3094453975
		 0.3098542685
		 0.3102624661
		 0.3106699985
		 0.3110768736
		 0.3114830941
		 0.3118886303
		 0.312293492
		 0.3126976975
		 0.3131012653
		 0.3135042139
		 0.3139065617
		 0.3143082926
		 0.3147093899
		 0.3151098637
		 0.3155097242
		 0.3159089815
		 0.3163076458
		 0.3167056129
		 0.3171025978
		 0.3174988395
		 0.3178946214
		 0.3182902266
		 0.3186859384
		 0.3190819286
		 0.3194759049
		 0.3198682218
		 0.3202607059
		 0.3206551835
		 0.3210534812
		 0.3214574255
		 0.3218687016
		 0.3222866829
		 0.3227092509
		 0.3231342723
		 0.3235596135
		 0.3239831411
		 0.3244031244
		 0.324821718
		 0.325239652
		 0.3256569374
		 0.3260735848
		 0.3264896052
		 0.3269050093
		 0.3273197894
		 0.3277339342
		 0.3281474496
		 0.3285603416
		 0.3289726159
		 0.3293842786
		 0.3297953274
		 0.3302057387
		 0.330615525
		 0.3310247029
		 0.3314332889
		 0.3318412997
		 0.3322487509
		 0.3326556222
		 0.3330619048
		 0.3334676073
		 0.3338727381
		 0.3342773058
		 0.3346813188
		 0.3350847736
		 0.3354876528
		 0.3358899659
		 0.3362917232
		 0.3366929353
		 0.3370936126
		 0.3374937637
		 0.337893375
		 0.3382924441
		 0.3386909739
		 0.3390889671
		 0.3394864266
		 0.3398833552
		 0.3402797374
		 0.3406755641
		 0.3410708536
		 0.3414656241
		 0.341859894
		 0.3422536816
		 0.3426469989
		 0.3430398265
		 0.3434321598
		 0.3438239978
		 0.3442153393
		 0.3446061833
		 0.3449965284
		 0.3453863619
		 0.3457756859
		 0.3461645127
		 0.3465528547
		 0.3469407242
		 0.3473281337
		 0.3477148586
		 0.3481005164
		 0.3484855213
		 0.3488703243
		 0.3492553765
		 0.349641129
		 0.3500278954
		 0.3504143425
		 0.3508006384
		 0.351187576
		 0.351575948
		 0.3519665472
		 0.3523601666
		 0.3527577492
		 0.3531590441
		 0.3535628018
		 0.3539677693
		 0.3543726935
		 0.3547763212
		 0.3551777682
		 0.3555784115
		 0.3559785581
		 0.3563782179
		 0.3567774008
		 0.3571761164
		 0.3575743745
		 0.3579721618
		 0.3583694713
		 0.3587663109
		 0.3591626888
		 0.359558613
		 0.3599540917
		 0.3603491257
		 0.3607437004
		 0.3611378201
		 0.3615314909
		 0.3619247187
		 0.3623175093
		 0.3627098674
		 0.3631017779
		 0.3634932413
		 0.3638842663
		 0.3642748618
		 0.3646650364
		 0.3650547991
		 0.3654441472
		 0.3658330691
		 0.3662215689
		 0.3666096511
		 0.3669973201
		 0.3673845802
		 0.367771433
		 0.3681578638
		 0.3685438772
		 0.368929482
		 0.3693146871
		 0.3696995013
		 0.3700839333
		 0.3704679737
		 0.3708516148
		 0.3712348627
		 0.3716177239
		 0.3720002045
		 0.372382311
		 0.3727640455
		 0.3731453979
		 0.37352637
		 0.3739069642
		 0.3742871834
		 0.3746670302
		 0.3750465066
		 0.3754256001
		 0.3758043121
		 0.3761826517
		 0.3765606279
		 0.3769382496
		 0.3773155259
		 0.3776918553
		 0.3780666343
		 0.3784407726
		 0.3788152095
		 0.3791908842
		 0.3795687361
		 0.3799496399
		 0.3803334405
		 0.3807193996
		 0.381106808
		 0.3814949562
		 0.381883135
		 0.3822706353
		 0.3826578615
		 0.3830454822
		 0.383433268
		 0.3838209896
		 0.3842084178
		 0.3845953232
		 0.3849815732
		 0.3853674283
		 0.3857529282
		 0.3861380777
		 0.3865228814
		 0.3869073443
		 0.3872914705
		 0.3876752501
		 0.3880586816
		 0.3884417709
		 0.3888245241
		 0.389206947
		 0.3895890457
		 0.3899708179
		 0.3903522522
		 0.3907333546
		 0.3911141313
		 0.3914945889
		 0.3918747337
		 0.3922545703
		 0.3926340863
		 0.3930132823
		 0.3933921634
		 0.3937707351
		 0.3941490026
		 0.3945269711
		 0.3949046367
		 0.3952819931
		 0.3956590441
		 0.3960357935
		 0.396412245
		 0.3967884022
		 0.3971642653
		 0.3975398223
		 0.3979150781
		 0.3982900403
		 0.3986647164
		 0.3990391138
		 0.3994132397
		 0.3997870856
		 0.400160647
		 0.4005339276
		 0.4009069312
		 0.4012796615
		 0.4016521222
		 0.402024312
		 0.4023962228
		 0.4027678587
		 0.4031392248
		 0.403510326
		 0.4038811673
		 0.4042517069
		 0.4046214778
		 0.4049906697
		 0.4053596793
		 0.4057289035
		 0.406098739
		 0.4064695827
		 0.4068415303
		 0.4072142453
		 0.4075875765
		 0.407961374
		 0.4083354878
		 0.4087097678
		 0.4090841747
		 0.4094591344
		 0.4098345054
		 0.4102100495
		 0.4105855288
		 0.4109607049
		 0.411335343
		 0.4117095608
		 0.412083531
		 0.4124572572
		 0.4128307433
		 0.4132039929
		 0.4135770098
		 0.4139497934
		 0.414322335
		 0.4146946388
		 0.4150667094
		 0.4154385516
		 0.4158101702
		 0.4161815689
		 0.4165527361
		 0.4169236721
		 0.4172943835
		 0.4176648767
		 0.4180351582
		 0.4184052344
		 0.4187751029
		 0.4191447552
		 0.4195141948
		 0.4198834251
		 0.4202524498
		 0.4206212725
		 0.420989895
		 0.4213583106
		 0.4217265201
		 0.4220945263
		 0.4224623319
		 0.4228299395
		 0.4231973519
		 0.4235645598
		 0.4239315608
		 0.4242983628
		 0.4246649738
		 0.4250314017
		 0.4253976546
		 0.4257637353
		 0.4261296323
		 0.4264953468
		 0.4268608811
		 0.4272262376
		 0.4275914187
		 0.4279564263
		 0.428321253
		 0.4286858991
		 0.4290503695
		 0.4294146688
		 0.4297788019
		 0.4301427735
		 0.430506687
		 0.4308706308
		 0.4312344537
		 0.4315980002
		 0.4319611153
		 0.4323236437
		 0.43268545
		 0.4330466133
		 0.4334072277
		 0.4337673662
		 0.4341271019
		 0.4344865078
		 0.4348456568
		 0.4352044347
		 0.4355627634
		 0.4359207398
		 0.436278461
		 0.4366360238
		 0.4369935253
		 0.4373510169
		 0.437708381
		 0.4380656079
		 0.4384227025
		 0.4387796701
		 0.4391365158
		 0.4394932443
		 0.4398498466
		 0.440206321
		 0.440562672
		 0.4409189043
		 0.4412750223
		 0.4416310307
		 0.4419869297
		 0.4423427132
		 0.4426983823
		 0.4430539384
		 0.4434093828
		 0.4437647169
		 0.4441199408
		 0.4444750457
		 0.4448300348
		 0.4451849145
		 0.4455396913
		 0.4458943717
		 0.446248962
		 0.4466034566
		 0.4469578481
		 0.4473121416
		 0.4476663422
		 0.448020455
		 0.448374485
		 0.448728434
		 0.4490822913
		 0.4494360598
		 0.4497897439
		 0.4501433482
		 0.4504968773
		 0.4508503356
		 0.4512037182
		 0.4515570226
		 0.4519102504
		 0.4522634035
		 0.4526164834
		 0.452969492
		 0.4533224266
		 0.4536752806
		 0.4540280595
		 0.4543807692
		 0.4547334157
		 0.4550860048
		 0.4554385742
		 0.4557914211
		 0.4561444115
		 0.4564972856
		 0.4568497834
		 0.4572016451
		 0.4575526108
		 0.4579025411
		 0.458251616
		 0.4586000368
		 0.4589480047
		 0.4592957207
		 0.4596433859
		 0.4599911144
		 0.4603386012
		 0.4606858584
		 0.461032959
		 0.461379976
		 0.4617269825
		 0.46207405
		 0.4624211348
		 0.4627681858
		 0.4631152069
		 0.4634622023
		 0.4638091761
		 0.4641561323
		 0.4645030711
		 0.4648499854
		 0.4651968775
		 0.4655437502
		 0.4658906064
		 0.4662374489
		 0.4665842795
		 0.4669310861
		 0.467277871
		 0.4676246424
		 0.4679714085
		 0.4683181775
		 0.4686649576
		 0.4690117478
		 0.4693585388
		 0.4697053321
		 0.4700521291
		 0.4703989314
		 0.4707457404
		 0.4710925558
		 0.4714393691
		 0.4717861843
		 0.4721330075
		 0.4724798448
		 0.4728267023
		 0.4731735861
		 0.4735204888
		 0.4738674058
		 0.4742143415
		 0.4745613002
		 0.4749082864
		 0.4752553044
		 0.4756023545
		 0.4759494274
		 0.4762965265
		 0.4766436564
		 0.4769908213
		 0.4773380258
		 0.4776852748
		 0.478032579
		 0.4783799317
		 0.4787273206
		 0.4790747331
		 0.4794221569
		 0.4797695795
		 0.4801171691
		 0.4804650813
		 0.4808130735
		 0.4811608974
		 0.4815083046
		 0.481855047
		 0.4822008782
		 0.4825457484
		 0.4828899104
		 0.48323364
		 0.4835772133
		 0.4839209062
		 0.4842649942
		 0.4846093777
		 0.4849538259
		 0.4852983441
		 0.4856429372
		 0.4859876105
		 0.486332369
		 0.486677214
		 0.4870221365
		 0.4873671385
		 0.4877122234
		 0.4880573947
		 0.4884026558
		 0.4887480095
		 0.4890934442
		 0.4894389604
		 0.4897845659
		 0.4901302683
		 0.4904760756
		 0.4908219956
		 0.4911680285
		 0.4915141643
		 0.4918604047
		 0.4922067517
		 0.4925532073
		 0.4928997736
		 0.4932464507
		 0.4935932258
		 0.4939401037
		 0.4942870936
		 0.4946342051
		 0.4949814472
		 0.4953288295
		 0.4956763465
		 0.496023989
		 0.4963717606
		 0.4967196646
		 0.4970677045
		 0.4974158838
		 0.4977642025
		 0.4981126506
		 0.4984612323
		 0.4988099535
		 0.4991588202
		 0.4995078383
		 0.4998570133
		 0.5002063352
		 0.5005558014
		 0.5009054173
		 0.5012551885
		 0.5016051202
		 0.501955218
		 0.5023055362
		 0.5026561382
		 0.5030069351
		 0.5033578333
		 0.503708739
		 0.5040595584
		 0.5044102183
		 0.5047608646
		 0.5051115083
		 0.5054621019
		 0.5058125978
		 0.5061629485
		 0.5065131063
