ACES2Looks/ACEScct_LUT/T-ARRI_Tone.cube
# This file is automagically generated by clfutil 0.3.0 from T-ARRI_Tone.clf
LUT_1D_SIZE 4096
LUT_1D_INPUT_RANGE 0.0 1.4679964
  
   0    0    0
   0.0003460015535    0.0003460015535    0.0003460015535
   0.0006920031873    0.0006920031873    0.0006920031873
   0.001038004989    0.001038004989    0.001038004989
   0.001384007045    0.001384007045    0.001384007045
   0.001730009443    0.001730009443    0.001730009443
   0.00207601227    0.00207601227    0.00207601227
   0.002422015693    0.002422015693    0.002422015693
   0.002768019953    0.002768019953    0.002768019953
   0.003114024759    0.003114024759    0.003114024759
   0.00346002977    0.00346002977    0.00346002977
   0.003806034644    0.003806034644    0.003806034644
   0.00415203904    0.00415203904    0.00415203904
   0.004498042617    0.004498042617    0.004498042617
   0.004844045218    0.004844045218    0.004844045218
   0.005190047126    0.005190047126    0.005190047126
   0.005536048685    0.005536048685    0.005536048685
   0.005882050241    0.005882050241    0.005882050241
   0.00622805214    0.00622805214    0.00622805214
   0.006574054728    0.006574054728    0.006574054728
   0.006920058296    0.006920058296    0.006920058296
   0.007266062706    0.007266062706    0.007266062706
   0.00761206761    0.00761206761    0.00761206761
   0.00795807266    0.00795807266    0.00795807266
   0.008304077506    0.008304077506    0.008304077506
   0.008650081799    0.008650081799    0.008650081799
   0.008996085219    0.008996085219    0.008996085219
   0.009342087882    0.009342087882    0.009342087882
   0.009688090021    0.009688090021    0.009688090021
   0.01003409182    0.01003409182    0.01003409182
   0.01038009347    0.01038009347    0.01038009347
   0.01072609516    0.01072609516    0.01072609516
   0.01107209706    0.01107209706    0.01107209706
   0.01141809903    0.01141809903    0.01141809903
   0.01176410081    0.01176410081    0.01176410081
   0.01211010258    0.01211010258    0.01211010258
   0.01245610451    0.01245610451    0.01245610451
   0.01280210674    0.01280210674    0.01280210674
   0.01314810946    0.01314810946    0.01314810946
   0.01349411286    0.01349411286    0.01349411286
   0.01384011711    0.01384011711    0.01384011711
   0.01418612191    0.01418612191    0.01418612191
   0.01453212694    0.01453212694    0.01453212694
   0.01487813185    0.01487813185    0.01487813185
   0.0152241363    0.0152241363    0.0152241363
   0.01557013998    0.01557013998    0.01557013998
   0.01591614287    0.01591614287    0.01591614287
   0.01626214522    0.01626214522    0.01626214522
   0.0166081472    0.0166081472    0.0166081472
   0.01695414899    0.01695414899    0.01695414899
   0.01730015076    0.01730015076    0.01730015076
   0.01764615269    0.01764615269    0.01764615269
   0.01799215475    0.01799215475    0.01799215475
   0.01833815661    0.01833815661    0.01833815661
   0.01868415841    0.01868415841    0.01868415841
   0.0190301603    0.0190301603    0.0190301603
   0.01937616243    0.01937616243    0.01937616243
   0.01972216496    0.01972216496    0.01972216496
   0.02006816807    0.02006816807    0.02006816807
   0.02041417195    0.02041417195    0.02041417195
   0.0207601764    0.0207601764    0.0207601764
   0.02110618112    0.02110618112    0.02110618112
   0.02145218583    0.02145218583    0.02145218583
   0.02179819022    0.02179819022    0.02179819022
   0.02214419402    0.02214419402    0.02214419402
   0.02249019699    0.02249019699    0.02249019699
   0.02283619932    0.02283619932    0.02283619932
   0.02318220129    0.02318220129    0.02318220129
   0.02352820317    0.02352820317    0.02352820317
   0.02387420525    0.02387420525    0.02387420525
   0.02422020782    0.02422020782    0.02422020782
   0.02456621114    0.02456621114    0.02456621114
   0.0249122152    0.0249122152    0.0249122152
   0.02525821972    0.02525821972    0.02525821972
   0.02560422444    0.02560422444    0.02560422444
   0.02595022908    0.02595022908    0.02595022908
   0.02629623335    0.02629623335    0.02629623335
   0.02664223699    0.02664223699    0.02664223699
   0.02698823992    0.02698823992    0.02698823992
   0.02733424234    0.02733424234    0.02733424234
   0.02768024445    0.02768024445    0.02768024445
   0.02802624644    0.02802624644    0.02802624644
   0.02837224853    0.02837224853    0.02837224853
   0.0287182509    0.0287182509    0.0287182509
   0.02906425368    0.02906425368    0.02906425368
   0.02941025675    0.02941025675    0.02941025675
   0.02975625997    0.02975625997    0.02975625997
   0.03010226324    0.03010226324    0.03010226324
   0.03044826647    0.03044826647    0.03044826647
   0.03079426954    0.03079426954    0.03079426954
   0.03114027235    0.03114027235    0.03114027235
   0.03148627495    0.03148627495    0.03148627495
   0.03183227741    0.03183227741    0.03183227741
   0.03217827976    0.03217827976    0.03217827976
   0.03252428201    0.03252428201    0.03252428201
   0.0328702842    0.0328702842    0.0328702842
   0.03321628636    0.03321628636    0.03321628636
   0.03356228835    0.03356228835    0.03356228835
   0.03390829002    0.03390829002    0.03390829002
   0.03425429158    0.03425429158    0.03425429158
   0.03460029321    0.03460029321    0.03460029321
   0.03494629512    0.03494629512    0.03494629512
   0.03529229751    0.03529229751    0.03529229751
   0.03563830059    0.03563830059    0.03563830059
   0.03598430451    0.03598430451    0.03598430451
   0.03633030901    0.03633030901    0.03633030901
   0.03667631377    0.03667631377    0.03667631377
   0.03702231849    0.03702231849    0.03702231849
   0.03736832285    0.03736832285    0.03736832285
   0.03771432655    0.03771432655    0.03771432655
   0.03806032959    0.03806032959    0.03806032959
   0.0384063322    0.0384063322    0.0384063322
   0.0387523345    0.0387523345    0.0387523345
   0.03909833661    0.03909833661    0.03909833661
   0.03944433863    0.03944433863    0.03944433863
   0.03979034067    0.03979034067    0.03979034067
   0.04013634272    0.04013634272    0.04013634272
   0.04048234445    0.04048234445    0.04048234445
   0.04082834601    0.04082834601    0.04082834601
   0.04117434761    0.04117434761    0.04117434761
   0.04152034944    0.04152034944    0.04152034944
   0.0418663517    0.0418663517    0.0418663517
   0.0422123546    0.0422123546    0.0422123546
   0.04255835831    0.04255835831    0.04255835831
   0.04290436264    0.04290436264    0.04290436264
   0.04325036731    0.04325036731    0.04325036731
   0.04359637203    0.04359637203    0.04359637203
   0.04394237654    0.04394237654    0.04394237654
   0.04428838054    0.04428838054    0.04428838054
   0.04463438396    0.04463438396    0.04463438396
   0.04498038706    0.04498038706    0.04498038706
   0.04532638992    0.04532638992    0.04532638992
   0.04567239257    0.04567239257    0.04567239257
   0.04601839507    0.04601839507    0.04601839507
   0.04636439747    0.04636439747    0.04636439747
   0.04671039978    0.04671039978    0.04671039978
   0.04705640168    0.04705640168    0.04705640168
   0.04740240327    0.04740240327    0.04740240327
   0.0477484048    0.0477484048    0.0477484048
   0.0480944065    0.0480944065    0.0480944065
   0.04844040859    0.04844040859    0.04844040859
   0.0487864113    0.0487864113    0.0487864113
   0.04913241481    0.04913241481    0.04913241481
   0.04947841898    0.04947841898    0.04947841898
   0.04982442355    0.04982442355    0.04982442355
   0.05017042826    0.05017042826    0.05017042826
   0.05051643285    0.05051643285    0.05051643285
   0.05086243707    0.05086243707    0.05086243707
   0.05120844076    0.05120844076    0.05120844076
   0.05155444423    0.05155444423    0.05155444423
   0.05190044752    0.05190044752    0.05190044752
   0.05224645064    0.05224645064    0.05224645064
   0.05259245358    0.05259245358    0.05259245358
   0.05293845634    0.05293845634    0.05293845634
   0.05328445892    0.05328445892    0.05328445892
   0.05363046104    0.05363046104    0.05363046104
   0.05397646276    0.05397646276    0.05397646276
   0.0543224643    0.0543224643    0.0543224643
   0.05466846591    0.05466846591    0.05466846591
   0.05501446781    0.05501446781    0.05501446781
   0.05536047024    0.05536047024    0.05536047024
   0.05570647338    0.05570647338    0.05570647338
   0.0560524771    0.0560524771    0.0560524771
   0.05639848119    0.05639848119    0.05639848119
   0.05674448546    0.05674448546    0.05674448546
   0.0570904897    0.0570904897    0.0570904897
   0.05743649371    0.05743649371    0.05743649371
   0.05778249732    0.05778249732    0.05778249732
   0.05812850076    0.05812850076    0.05812850076
   0.05847450408    0.05847450408    0.05847450408
   0.05882050726    0.05882050726    0.05882050726
   0.05916651029    0.05916651029    0.05916651029
   0.05951251314    0.05951251314    0.05951251314
   0.05985851578    0.05985851578    0.05985851578
   0.06020451815    0.06020451815    0.06020451815
   0.06055052023    0.06055052023    0.06055052023
   0.06089652211    0.06089652211    0.06089652211
   0.06124252388    0.06124252388    0.06124252388
   0.06158852562    0.06158852562    0.06158852562
   0.06193452743    0.06193452743    0.06193452743
   0.06228052929    0.06228052929    0.06228052929
   0.06262653085    0.06262653085    0.06262653085
   0.06297253227    0.06297253227    0.06297253227
   0.06331853379    0.06331853379    0.06331853379
   0.06366453563    0.06366453563    0.06366453563
   0.06401053804    0.06401053804    0.06401053804
   0.06435654124    0.06435654124    0.06435654124
   0.06470254561    0.06470254561    0.06470254561
   0.06504855091    0.06504855091    0.06504855091
   0.06539455669    0.06539455669    0.06539455669
   0.06574056249    0.06574056249    0.06574056249
   0.06608656786    0.06608656786    0.06608656786
   0.06643257234    0.06643257234    0.06643257234
   0.0667785756    0.0667785756    0.0667785756
   0.06712457792    0.06712457792    0.06712457792
   0.06747057962    0.06747057962    0.06747057962
   0.06781658102    0.06781658102    0.06781658102
   0.06816258243    0.06816258243    0.06816258243
   0.06850858419    0.06850858419    0.06850858419
   0.06885458656    0.06885458656    0.06885458656
   0.06920058936    0.06920058936    0.06920058936
   0.06954659241    0.06954659241    0.06954659241
   0.06989259561    0.06989259561    0.06989259561
   0.07023859889    0.07023859889    0.07023859889
   0.07058460216    0.07058460216    0.07058460216
   0.07093060534    0.07093060534    0.07093060534
   0.07127660843    0.07127660843    0.07127660843
   0.07162261153    0.07162261153    0.07162261153
   0.07196861463    0.07196861463    0.07196861463
   0.07231461774    0.07231461774    0.07231461774
   0.07266062084    0.07266062084    0.07266062084
   0.07300662394    0.07300662394    0.07300662394
   0.07335262703    0.07335262703    0.07335262703
   0.07369863016    0.07369863016    0.07369863016
   0.07404463332    0.07404463332    0.07404463332
   0.07439063646    0.07439063646    0.07439063646
   0.07473663958    0.07473663958    0.07473663958
   0.07508264264    0.07508264264    0.07508264264
   0.07542864561    0.07542864561    0.07542864561
   0.07577464846    0.07577464846    0.07577464846
   0.0761206512    0.0761206512    0.0761206512
   0.07646665388    0.07646665388    0.07646665388
   0.07681265656    0.07681265656    0.07681265656
   0.07715865929    0.07715865929    0.07715865929
   0.07750466211    0.07750466211    0.07750466211
   0.07785066507    0.07785066507    0.07785066507
   0.07819666811    0.07819666811    0.07819666811
   0.07854267122    0.07854267122    0.07854267122
   0.07888867436    0.07888867436    0.07888867436
   0.07923467752    0.07923467752    0.07923467752
   0.07958068065    0.07958068065    0.07958068065
   0.07992668375    0.07992668375    0.07992668375
   0.08027268685    0.08027268685    0.08027268685
   0.08061868995    0.08061868995    0.08061868995
   0.08096469306    0.08096469306    0.08096469306
   0.08131069616    0.08131069616    0.08131069616
   0.08165669926    0.08165669926    0.08165669926
   0.08200270236    0.08200270236    0.08200270236
   0.08234870546    0.08234870546    0.08234870546
   0.0826947086    0.0826947086    0.0826947086
   0.08304071175    0.08304071175    0.08304071175
   0.08338671489    0.08338671489    0.08338671489
   0.08373271799    0.08373271799    0.08373271799
   0.08407872102    0.08407872102    0.08407872102
   0.08442472397    0.08442472397    0.08442472397
   0.08477072687    0.08477072687    0.08477072687
   0.08511672971    0.08511672971    0.08511672971
   0.0854627325    0.0854627325    0.0854627325
   0.08580873522    0.08580873522    0.08580873522
   0.08615473787    0.08615473787    0.08615473787
   0.08650074044    0.08650074044    0.08650074044
   0.08684674285    0.08684674285    0.08684674285
   0.0871927451    0.0871927451    0.0871927451
   0.08753874727    0.08753874727    0.08753874727
   0.08788474942    0.08788474942    0.08788474942
   0.08823075164    0.08823075164    0.08823075164
   0.088576754    0.088576754    0.088576754
   0.08892275652    0.08892275652    0.08892275652
   0.08926875904    0.08926875904    0.08926875904
   0.08961476161    0.08961476161    0.08961476161
   0.08996076428    0.08996076428    0.08996076428
   0.09030676709    0.09030676709    0.09030676709
   0.09065277012    0.09065277012    0.09065277012
   0.09099877341    0.09099877341    0.09099877341
   0.09134477715    0.09134477715    0.09134477715
   0.09169078126    0.09169078126    0.09169078126
   0.09203678553    0.09203678553    0.09203678553
   0.09238278974    0.09238278974    0.09238278974
   0.0927287937    0.0927287937    0.0927287937
   0.09307479719    0.09307479719    0.09307479719
   0.09342080004    0.09342080004    0.09342080004
   0.09376680233    0.09376680233    0.09376680233
   0.0941128043    0.0941128043    0.0941128043
   0.09445880618    0.09445880618    0.09445880618
   0.09480480822    0.09480480822    0.09480480822
   0.09515081064    0.09515081064    0.09515081064
   0.09549681368    0.09549681368    0.09549681368
   0.09584281739    0.09584281739    0.09584281739
   0.09618882152    0.09618882152    0.09618882152
   0.09653482585    0.09653482585    0.09653482585
   0.09688083011    0.09688083011    0.09688083011
   0.09722683408    0.09722683408    0.09722683408
   0.0975728375    0.0975728375    0.0975728375
   0.0979188403    0.0979188403    0.0979188403
   0.09826484268    0.09826484268    0.09826484268
   0.09861084479    0.09861084479    0.09861084479
   0.09895684679    0.09895684679    0.09895684679
   0.09930284882    0.09930284882    0.09930284882
   0.09964885106    0.09964885106    0.09964885106
   0.09999485359    0.09999485359    0.09999485359
   0.1003408563    0.1003408563    0.1003408563
   0.100686859    0.100686859    0.100686859
   0.1010328618    0.1010328618    0.1010328618
   0.1013788647    0.1013788647    0.1013788647
   0.1017248675    0.1017248675    0.1017248675
   0.1020708703    0.1020708703    0.1020708703
   0.1024168731    0.1024168731    0.1024168731
   0.1027628759    0.1027628759    0.1027628759
   0.1031088787    0.1031088787    0.1031088787
   0.1034548815    0.1034548815    0.1034548815
   0.1038008843    0.1038008843    0.1038008843
   0.1041468869    0.1041468869    0.1041468869
   0.1044928893    0.1044928893    0.1044928893
   0.1048388914    0.1048388914    0.1048388914
   0.1051848934    0.1051848934    0.1051848934
   0.1055308955    0.1055308955    0.1055308955
   0.1058768977    0.1058768977    0.1058768977
   0.1062229002    0.1062229002    0.1062229002
   0.1065689032    0.1065689032    0.1065689032
   0.1069149069    0.1069149069    0.1069149069
   0.107260911    0.107260911    0.107260911
   0.1076069154    0.1076069154    0.1076069154
   0.1079529196    0.1079529196    0.1079529196
   0.1082989236    0.1082989236    0.1082989236
   0.1086449271    0.1086449271    0.1086449271
   0.1089909299    0.1089909299    0.1089909299
   0.1093369323    0.1093369323    0.1093369323
   0.1096829344    0.1096829344    0.1096829344
   0.1100289364    0.1100289364    0.1100289364
   0.1103749384    0.1103749384    0.1103749384
   0.1107209407    0.1107209407    0.1107209407
   0.1110669432    0.1110669432    0.1110669432
   0.1114129457    0.1114129457    0.1114129457
   0.1117589482    0.1117589482    0.1117589482
   0.1121049509    0.1121049509    0.1121049509
   0.1124509537    0.1124509537    0.1124509537
   0.1127969567    0.1127969567    0.1127969567
   0.11314296    0.11314296    0.11314296
   0.1134889637    0.1134889637    0.1134889637
   0.1138349678    0.1138349678    0.1138349678
   0.114180972    0.114180972    0.114180972
   0.1145269762    0.1145269762    0.1145269762
   0.1148729802    0.1148729802    0.1148729802
   0.1152189838    0.1152189838    0.1152189838
   0.1155649867    0.1155649867    0.1155649867
   0.1159109892    0.1159109892    0.1159109892
   0.1162569914    0.1162569914    0.1162569914
   0.1166029934    0.1166029934    0.1166029934
   0.1169489954    0.1169489954    0.1169489954
   0.1172949976    0.1172949976    0.1172949976
   0.117641    0.117641    0.117641
   0.1179870024    0.1179870024    0.1179870024
   0.1183330048    0.1183330048    0.1183330048
   0.1186790072    0.1186790072    0.1186790072
   0.1190250099    0.1190250099    0.1190250099
   0.119371013    0.119371013    0.119371013
   0.1197170166    0.1197170166    0.1197170166
   0.1200630211    0.1200630211    0.1200630211
   0.1204090264    0.1204090264    0.1204090264
   0.1207550322    0.1207550322    0.1207550322
   0.1211010381    0.1211010381    0.1211010381
   0.1214470434    0.1214470434    0.1214470434
   0.1217930478    0.1217930478    0.1217930478
   0.1221390508    0.1221390508    0.1221390508
   0.1224850526    0.1224850526    0.1224850526
   0.1228310535    0.1228310535    0.1228310535
   0.123177054    0.123177054    0.123177054
   0.1235230544    0.1235230544    0.1235230544
   0.1238690552    0.1238690552    0.1238690552
   0.1242150568    0.1242150568    0.1242150568
   0.124561059    0.124561059    0.124561059
   0.1249070615    0.1249070615    0.1249070615
   0.1252530643    0.1252530643    0.1252530643
   0.1255990672    0.1255990672    0.1255990672
   0.1259450703    0.1259450703    0.1259450703
   0.1262910734    0.1262910734    0.1262910734
   0.1266370765    0.1266370765    0.1266370765
   0.1269830799    0.1269830799    0.1269830799
   0.1273290835    0.1273290835    0.1273290835
   0.1276750871    0.1276750871    0.1276750871
   0.1280210907    0.1280210907    0.1280210907
   0.1283670941    0.1283670941    0.1283670941
   0.1287130972    0.1287130972    0.1287130972
   0.1290590999    0.1290590999    0.1290590999
   0.1294051023    0.1294051023    0.1294051023
   0.1297511047    0.1297511047    0.1297511047
   0.1300971072    0.1300971072    0.1300971072
   0.1304431101    0.1304431101    0.1304431101
   0.1307891136    0.1307891136    0.1307891136
   0.131135118    0.131135118    0.131135118
   0.1314811233    0.1314811233    0.1314811233
   0.1318271291    0.1318271291    0.1318271291
   0.132173135    0.132173135    0.132173135
   0.1325191403    0.1325191403    0.1325191403
   0.1328651448    0.1328651448    0.1328651448
   0.1332111479    0.1332111479    0.1332111479
   0.1335571497    0.1335571497    0.1335571497
   0.1339031507    0.1339031507    0.1339031507
   0.1342491511    0.1342491511    0.1342491511
   0.1345951516    0.1345951516    0.1345951516
   0.1349411523    0.1349411523    0.1349411523
   0.1352871539    0.1352871539    0.1352871539
   0.135633156    0.135633156    0.135633156
   0.1359791585    0.1359791585    0.1359791585
   0.1363251613    0.1363251613    0.1363251613
   0.1366711642    0.1366711642    0.1366711642
   0.1370171673    0.1370171673    0.1370171673
   0.1373631704    0.1373631704    0.1373631704
   0.1377091735    0.1377091735    0.1377091735
   0.1380551769    0.1380551769    0.1380551769
   0.1384011805    0.1384011805    0.1384011805
   0.1387471841    0.1387471841    0.1387471841
   0.1390931877    0.1390931877    0.1390931877
   0.1394391911    0.1394391911    0.1394391911
   0.1397851942    0.1397851942    0.1397851942
   0.1401311969    0.1401311969    0.1401311969
   0.1404771994    0.1404771994    0.1404771994
   0.1408232017    0.1408232017    0.1408232017
   0.1411692042    0.1411692042    0.1411692042
   0.1415152071    0.1415152071    0.1415152071
   0.1418612106    0.1418612106    0.1418612106
   0.1422072149    0.1422072149    0.1422072149
   0.1425532202    0.1425532202    0.1425532202
   0.142899226    0.142899226    0.142899226
   0.1432452319    0.1432452319    0.1432452319
   0.1435912373    0.1435912373    0.1435912373
   0.1439372418    0.1439372418    0.1439372418
   0.1442832449    0.1442832449    0.1442832449
   0.1446292468    0.1446292468    0.1446292468
   0.1449752478    0.1449752478    0.1449752478
   0.1453212483    0.1453212483    0.1453212483
   0.1456672487    0.1456672487    0.1456672487
   0.1460132494    0.1460132494    0.1460132494
   0.1463592509    0.1463592509    0.1463592509
   0.1467052531    0.1467052531    0.1467052531
   0.1470512556    0.1470512556    0.1470512556
   0.1473972583    0.1473972583    0.1473972583
   0.1477432612    0.1477432612    0.1477432612
   0.1480892643    0.1480892643    0.1480892643
   0.1484352674    0.1484352674    0.1484352674
   0.1487812705    0.1487812705    0.1487812705
   0.1491272739    0.1491272739    0.1491272739
   0.1494732775    0.1494732775    0.1494732775
   0.1498192811    0.1498192811    0.1498192811
   0.1501652847    0.1501652847    0.1501652847
   0.1505112881    0.1505112881    0.1505112881
   0.1508572913    0.1508572913    0.1508572913
   0.1512032942    0.1512032942    0.1512032942
   0.151549297    0.151549297    0.151549297
   0.1518952997    0.1518952997    0.1518952997
   0.1522413024    0.1522413024    0.1522413024
   0.152587305    0.152587305    0.152587305
   0.1529333078    0.1529333078    0.1529333078
   0.1532810041    0.1532810041    0.1532810041
   0.1536321928    0.1536321928    0.1536321928
   0.1539842509    0.1539842509    0.1539842509
   0.1543344552    0.1543344552    0.1543344552
   0.1546800822    0.1546800822    0.1546800822
   0.1550184089    0.1550184089    0.1550184089
   0.1553469366    0.1553469366    0.1553469366
   0.1556664186    0.1556664186    0.1556664186
   0.1559788123    0.1559788123    0.1559788123
   0.1562858644    0.1562858644    0.1562858644
   0.1565893216    0.1565893216    0.1565893216
   0.1568909305    0.1568909305    0.1568909305
   0.1571924378    0.1571924378    0.1571924378
   0.1574923852    0.1574923852    0.1574923852
   0.1577889251    0.1577889251    0.1577889251
   0.1580832206    0.1580832206    0.1580832206
   0.1583764346    0.1583764346    0.1583764346
   0.1586697302    0.1586697302    0.1586697302
   0.1589642702    0.1589642702    0.1589642702
   0.1592607437    0.1592607437    0.1592607437
   0.1595578125    0.1595578125    0.1595578125
   0.1598552808    0.1598552808    0.1598552808
   0.1601531461    0.1601531461    0.1601531461
   0.1604514063    0.1604514063    0.1604514063
   0.1607500588    0.1607500588    0.1607500588
   0.1610491016    0.1610491016    0.1610491016
   0.1613485351    0.1613485351    0.1613485351
   0.1616483612    0.1616483612    0.1616483612
   0.1619485805    0.1619485805    0.1619485805
   0.1622491937    0.1622491937    0.1622491937
   0.1625502016    0.1625502016    0.1625502016
   0.162851605    0.162851605    0.162851605
   0.1631534047    0.1631534047    0.1631534047
   0.1634556006    0.1634556006    0.1634556006
   0.1637581917    0.1637581917    0.1637581917
   0.1640611769    0.1640611769    0.1640611769
   0.164364555    0.164364555    0.164364555
   0.1646683249    0.1646683249    0.1646683249
