ACES2Looks/ACEScct_LUT/T-ARRI_REVEAL_Tone.spi1d
Version 1
From 0 1.4679964
Length 4096
Components 1
{
		 0
		 0.0003446970939
		 0.0006893942705
		 0.001034091616
		 0.001378789216
		 0.001723487158
		 0.002068185526
		 0.002412884489
		 0.002757584291
		 0.003102284641
		 0.003446985196
		 0.003791685613
		 0.004136385552
		 0.004481084669
		 0.004825782811
		 0.005170480262
		 0.005515177365
		 0.005859874466
		 0.006204571908
		 0.006549270037
		 0.006893969145
		 0.007238669097
		 0.007583369545
		 0.007928070139
		 0.008272770528
		 0.008617470364
		 0.008962169323
		 0.009306867528
		 0.009651565211
		 0.009996262556
		 0.01034095975
		 0.01068565698
		 0.01103035442
		 0.01137505193
		 0.01171974926
		 0.01206444657
		 0.01240914404
		 0.01275384182
		 0.01309854008
		 0.01344323902
		 0.01378793881
		 0.01413263916
		 0.01447733973
		 0.01482204018
		 0.01516674018
		 0.01551143939
		 0.01585613782
		 0.01620083571
		 0.01654553324
		 0.01689023058
		 0.01723492789
		 0.01757962536
		 0.01792432304
		 0.01826902076
		 0.01861371848
		 0.01895841619
		 0.01930311387
		 0.01964781152
		 0.0199925091
		 0.02033720659
		 0.02068190401
		 0.02102660142
		 0.02137129884
		 0.02171599633
		 0.02206069394
		 0.02240539157
		 0.02275008913
		 0.02309478673
		 0.02343948447
		 0.02378418248
		 0.02412888085
		 0.02447357976
		 0.02481827936
		 0.02516297943
		 0.02550767969
		 0.02585237987
		 0.02619707968
		 0.02654177887
		 0.02688647742
		 0.02723117556
		 0.0275758734
		 0.02792057104
		 0.0282652686
		 0.02860996619
		 0.02895466375
		 0.02929936095
		 0.02964405797
		 0.02998875507
		 0.03033345245
		 0.03067815036
		 0.03102284904
		 0.03136754876
		 0.03171224923
		 0.03205695008
		 0.03240165089
		 0.03274635127
		 0.03309105083
		 0.03343574927
		 0.03378044682
		 0.03412514383
		 0.03446984069
		 0.03481453776
		 0.03515923543
		 0.03550393403
		 0.03584863351
		 0.03619333355
		 0.03653803385
		 0.0368827341
		 0.037227434
		 0.03757213324
		 0.03791683182
		 0.03826152997
		 0.03860622782
		 0.03895092546
		 0.03929562302
		 0.03964032061
		 0.03998501826
		 0.04032971582
		 0.0406744133
		 0.04101911073
		 0.04136380814
		 0.04170850557
		 0.04205320303
		 0.04239790033
		 0.0427425975
		 0.04308729468
		 0.04343199201
		 0.04377668966
		 0.04412138776
		 0.04446608646
		 0.04481078574
		 0.04515548539
		 0.0455001852
		 0.04584488497
		 0.04618958451
		 0.04653428365
		 0.04687898262
		 0.04722368148
		 0.04756838021
		 0.04791307877
		 0.04825777715
		 0.04860247533
		 0.04894717322
		 0.04929187084
		 0.04963656826
		 0.04998126557
		 0.05032596286
		 0.05067066021
		 0.05101535763
		 0.05136005482
		 0.05170475191
		 0.05204944909
		 0.05239414652
		 0.05273884436
		 0.05308354281
		 0.05342824205
		 0.05377294191
		 0.05411764211
		 0.05446234238
		 0.05480704243
		 0.055151742
		 0.05549644097
		 0.05584113963
		 0.05618583803
		 0.05653053623
		 0.05687523428
		 0.05721993222
		 0.0575646301
		 0.05790932766
		 0.05825402499
		 0.05859872223
		 0.05894341951
		 0.059288117
		 0.05963281483
		 0.05997751306
		 0.06032221156
		 0.06066691025
		 0.06101160905
		 0.06135630788
		 0.06170100665
		 0.0620457053
		 0.06239040385
		 0.06273510236
		 0.06307980089
		 0.0634244995
		 0.06376919827
		 0.06411389725
		 0.06445859662
		 0.06480329632
		 0.06514799614
		 0.06549269588
		 0.06583739534
		 0.06618209431
		 0.0665267926
		 0.06687149026
		 0.06721618752
		 0.06756088461
		 0.06790558177
		 0.06825027921
		 0.06859497718
		 0.06893967563
		 0.0692843744
		 0.06962907331
		 0.0699737722
		 0.07031847089
		 0.07066316924
		 0.07100786716
		 0.07135256479
		 0.07169726222
		 0.07204195954
		 0.07238665683
		 0.07273135418
		 0.07307605161
		 0.07342074885
		 0.07376544601
		 0.07411014322
		 0.07445484063
		 0.07479953839
		 0.07514423664
		 0.07548893553
		 0.07583363493
		 0.07617833464
		 0.07652303446
		 0.07686773419
		 0.07721243362
		 0.07755713269
		 0.07790183163
		 0.07824653045
		 0.07859122913
		 0.07893592765
		 0.07928062598
		 0.07962532408
		 0.07997002177
		 0.08031471913
		 0.08065941634
		 0.08100411356
		 0.08134881097
		 0.08169350875
		 0.0820382069
		 0.08238290526
		 0.08272760381
		 0.08307230252
		 0.08341700137
		 0.08376170033
		 0.08410639945
		 0.08445109905
		 0.08479579894
		 0.08514049887
		 0.08548519857
		 0.08582989779
		 0.08617459625
		 0.08651929374
		 0.08686399044
		 0.08720868667
		 0.08755338278
		 0.08789807907
		 0.08824277589
		 0.08858747343
		 0.08893217142
		 0.08927686972
		 0.08962156821
		 0.08996626678
		 0.0903109653
		 0.09065566366
		 0.0910003619
		 0.09134506009
		 0.09168975828
		 0.09203445653
		 0.09237915489
		 0.09272385342
		 0.09306855217
		 0.09341325115
		 0.09375795026
		 0.0941026494
		 0.09444734849
		 0.09479204741
		 0.0951367461
		 0.09548144462
		 0.09582614302
		 0.09617084132
		 0.09651553953
		 0.09686023767
		 0.09720493576
		 0.09754963372
		 0.09789433152
		 0.09823902924
		 0.09858372694
		 0.09892842471
		 0.09927312261
		 0.09961782069
		 0.0999625189
		 0.1003072172
		 0.1006519155
		 0.1009966139
		 0.1013413123
		 0.1016860106
		 0.1020307088
		 0.102375407
		 0.1027201052
		 0.1030648035
		 0.1034095018
		 0.1037542003
		 0.1040988991
		 0.1044435981
		 0.1047882972
		 0.1051329963
		 0.1054776954
		 0.1058223943
		 0.106167093
		 0.1065117916
		 0.10685649
		 0.1072011883
		 0.1075458865
		 0.1078905846
		 0.1082352827
		 0.1085799807
		 0.1089246785
		 0.1092693762
		 0.1096140739
		 0.1099587717
		 0.1103034696
		 0.1106481676
		 0.1109928658
		 0.1113375641
		 0.1116822625
		 0.1120269609
		 0.1123716592
		 0.1127163576
		 0.1130610558
		 0.113405754
		 0.1137504522
		 0.1140951504
		 0.1144398488
		 0.1147845473
		 0.115129246
		 0.115473945
		 0.1158186441
		 0.1161633432
		 0.1165080423
		 0.1168527413
		 0.1171974399
		 0.1175421382
		 0.1178868361
		 0.118231534
		 0.1185762321
		 0.1189209305
		 0.1192656296
		 0.1196103296
		 0.1199550305
		 0.1202997318
		 0.1206444332
		 0.1209891341
		 0.121333834
		 0.1216785326
		 0.12202323
		 0.1223679264
		 0.1227126225
		 0.1230573184
		 0.1234020147
		 0.1237467118
		 0.1240914096
		 0.1244361076
		 0.1247808059
		 0.1251255044
		 0.125470203
		 0.1258149017
		 0.1261596004
		 0.1265042993
		 0.1268489984
		 0.1271936976
		 0.1275383967
		 0.1278830956
		 0.1282277943
		 0.1285724928
		 0.1289171912
		 0.1292618894
		 0.1296065876
		 0.1299512858
		 0.130295984
		 0.1306406824
		 0.130985381
		 0.1313300795
		 0.131674778
		 0.1320194763
		 0.1323641742
		 0.1327088717
		 0.1330535685
		 0.1333982649
		 0.1337429612
		 0.1340876575
		 0.1344323542
		 0.1347770514
		 0.1351217491
		 0.1354664471
		 0.1358111454
		 0.1361558439
		 0.1365005425
		 0.1368452411
		 0.1371899399
		 0.1375346388
		 0.1378793379
		 0.138224037
		 0.1385687361
		 0.1389134351
		 0.1392581338
		 0.1396028321
		 0.1399475301
		 0.140292228
		 0.140636926
		 0.1409816244
		 0.1413263234
		 0.1416710233
		 0.1420157241
		 0.1423604255
		 0.1427051268
		 0.1430498278
		 0.1433945278
		 0.1437392266
		 0.144083924
		 0.1444286205
		 0.1447733165
		 0.1451180125
		 0.1454627088
		 0.1458074058
		 0.1461521037
		 0.146496802
		 0.1468415007
		 0.1471861994
		 0.1475308978
		 0.1478755959
		 0.1482202933
		 0.1485649901
		 0.1489096865
		 0.1492543827
		 0.1495990791
		 0.1499437758
		 0.1502884731
		 0.1506331709
		 0.1509778691
		 0.1513225675
		 0.151667266
		 0.1520119646
		 0.152356663
		 0.1527013613
		 0.1530460595
		 0.1533907577
		 0.1537354559
		 0.1540801542
		 0.1544248527
		 0.1547695513
		 0.1551142502
		 0.1554589493
		 0.1558036484
		 0.1561483475
		 0.1564930465
		 0.1568377453
		 0.1571824438
		 0.1575271421
		 0.1578718403
		 0.1582165384
		 0.1585612366
		 0.158905935
		 0.1592506337
		 0.1595953326
		 0.1599400317
		 0.1602847309
		 0.16062943
		 0.1609741289
		 0.1613188277
		 0.1616635262
		 0.1620082246
		 0.1623529228
		 0.162697621
		 0.1630423192
		 0.1633870174
		 0.1637317157
		 0.1640764139
		 0.1644211121
		 0.1647658103
		 0.1651105086
		 0.1654552071
		 0.1658001317
		 0.1661472295
		 0.1664956159
		 0.1668436174
		 0.1671895605
		 0.1675317716
		 0.1678685774
		 0.1682017224
		 0.1685334549
		 0.1688619408
		 0.1691853398
		 0.1695018112
		 0.1698095147
		 0.1701062006
		 0.1703901684
		 0.1706645326
		 0.1709328668
		 0.1711987443
		 0.1714657385
		 0.1717373453
		 0.17201152
		 0.1722858232
		 0.1725602531
		 0.1728348083
		 0.173109487
		 0.1733842876
		 0.1736592122
		 0.1739342665
		 0.1742094461
		 0.1744847462
		 0.1747601618
		 0.175035688
		 0.1753113204
		 0.1755870622
		 0.1758629158
		 0.1761388826
		 0.1764149637
		 0.1766911601
		 0.1769674731
		 0.1772407816
		 0.1775092724
		 0.177776981
		 0.1780479749
		 0.1783263211
		 0.1786160868
		 0.178920841
		 0.1792391458
		 0.1795680127
		 0.1799046463
		 0.1802462513
		 0.1805900321
		 0.180933237
		 0.1812786368
		 0.1816283025
		 0.1819808521
		 0.182334904
		 0.1826890764
		 0.1830419875
		 0.1833930371
		 0.1837438408
		 0.1840945279
		 0.1844450919
		 0.1847955265
		 0.1851458252
		 0.185495982
		 0.1858459969
		 0.1861958747
		 0.1865456201
		 0.1868952375
		 0.1872447313
		 0.1875941061
		 0.1879433633
		 0.1882924992
		 0.1886415119
		 0.1889903998
		 0.1893391612
		 0.1896877945
		 0.1900362982
		 0.1903846735
		 0.1907329213
		 0.1910810422
		 0.1914290366
		 0.1917769053
		 0.1921246487
		 0.1924722647
		 0.1928197526
		 0.1931671144
		 0.1935143522
		 0.193861468
		 0.1942084639
		 0.194555342
		 0.1949021029
		 0.1952487437
		 0.1955952614
		 0.195941653
		 0.1962879156
		 0.1966340463
		 0.1969800463
		 0.1973259177
		 0.1976716612
		 0.1980172777
		 0.1983627682
		 0.1987081334
		 0.1990533735
		 0.1993984872
		 0.1997434747
		 0.2000883364
		 0.2004330724
		 0.2007776831
		 0.2011221689
		 0.2014665323
		 0.2018107718
		 0.2021548851
		 0.2024988699
		 0.2028427239
		 0.2031864448
		 0.2035300286
		 0.2038734763
		 0.204216793
		 0.2045599835
		 0.2049030528
		 0.205246006
		 0.2055888468
		 0.2059315723
		 0.2062741794
		 0.2066166653
		 0.2069590272
		 0.2073012622
		 0.2076433677
		 0.2079853471
		 0.2083272019
		 0.2086689307
		 0.2090105322
		 0.2093520051
		 0.2096933481
		 0.2100345584
		 0.2103756342
		 0.2107165798
		 0.2110573996
		 0.2113980981
		 0.2117386797
		 0.2120791493
		 0.2124195103
		 0.2127597573
		 0.2130998836
		 0.2134398821
		 0.213779746
		 0.2141194683
		 0.2144577003
		 0.214793963
		 0.2151298327
		 0.2154668868
		 0.2158067026
		 0.2161508578
		 0.2164999011
		 0.2168505215
		 0.2172035503
		 0.217560432
		 0.2179226114
		 0.2182915332
		 0.2186686825
		 0.2190566092
		 0.2194539291
		 0.2198575122
		 0.2202642287
		 0.2206709488
		 0.2210745426
		 0.221473958
		 0.2218727985
		 0.2222712738
		 0.2226693876
		 0.2230671434
		 0.2234645451
		 0.2238615949
		 0.2242582808
		 0.2246546049
		 0.2250505745
		 0.2254461971
		 0.22584148
		 0.2262364307
		 0.226631046
		 0.227025317
		 0.2274192471
		 0.2278128399
		 0.2282060989
		 0.2285990276
		 0.2289916272
		 0.2293838884
		 0.2297758141
		 0.2301674091
		 0.2305586782
		 0.2309496263
		 0.2313402582
		 0.2317305701
		 0.2321205584
		 0.2325102245
		 0.2328995697
		 0.2332885952
		 0.2336773024
		 0.2340656886
		 0.2344537467
		 0.2348414824
		 0.2352289025
		 0.2356160135
		 0.2360028219
		 0.2363893336
		 0.2367755399
		 0.2371614388
		 0.2375470327
		 0.2379323242
		 0.2383173156
		 0.2387020095
		 0.2390864029
		 0.2394704912
		 0.2398542783
		 0.2402377685
		 0.240620966
		 0.2410038749
		 0.2413864976
		 0.2417688264
		 0.2421508622
		 0.2425326078
		 0.2429140661
		 0.2432952399
		 0.2436761322
		 0.2440567374
		 0.2444370532
		 0.2448170837
		 0.245196833
		 0.2455763054
		 0.245955505
		 0.2463344324
		 0.2467130799
		 0.2470914497
		 0.2474695451
		 0.2478473694
		 0.2482249256
		 0.2486020175
		 0.248975158
		 0.2493453599
		 0.2497156476
		 0.2500890451
		 0.2504685768
		 0.2508572669
		 0.2512573606
		 0.2516672206
		 0.2520840769
		 0.2525051629
		 0.2529277119
		 0.2533489571
		 0.2537667955
		 0.254184494
		 0.2546027018
		 0.2550210925
		 0.2554393394
		 0.2558571162
		 0.2562740965
		 0.2566903761
		 0.2571062336
		 0.257521674
		 0.2579367024
		 0.2583513238
		 0.2587655432
		 0.2591793609
		 0.2595927642
		 0.2600057582
		 0.2604183498
		 0.2608305458
		 0.2612423532
		 0.2616537782
		 0.26206481
		 0.2624754457
		 0.2628856908
		 0.2632955506
		 0.2637050306
		 0.2641141362
		 0.2645228634
		 0.2649312003
		 0.265339155
		 0.2657467357
		 0.266153951
		 0.2665608093
		 0.2669673171
		 0.2673734636
		 0.2677792469
		 0.2681846693
		 0.2685897329
		 0.2689944399
		 0.2693987923
		 0.2698027831
		 0.270206408
		 0.2706096748
		 0.2710125913
		 0.2714151653
		 0.2718174044
		 0.2722193128
		 0.2726208795
		 0.2730221048
		 0.2734229905
		 0.2738235389
		 0.2742237519
		 0.2746236313
		 0.2750231668
		 0.2754223585
		 0.2758212145
		 0.2762197429
		 0.2766179517
		 0.2770158491
		 0.277412707
		 0.2778074863
		 0.278201443
		 0.2785959187
		 0.2789922551
		 0.2793917939
		 0.2797957633
		 0.2802035829
		 0.280614413
		 0.2810276628
		 0.2814427414
		 0.281859058
		 0.2822760217
		 0.282694322
		 0.283114837
		 0.2835367879
		 0.2839593914
		 0.2843818641
		 0.2848034224
		 0.2852235416
		 0.2856430991
		 0.2860622657
		 0.2864810457
		 0.2868994431
		 0.2873174623
		 0.2877351071
		 0.2881523662
		 0.2885692374
		 0.288985729
		 0.2894018496
		 0.2898176076
		 0.2902330115
		 0.2906480618
		 0.2910627442
		 0.291477063
		 0.2918910236
		 0.2923046312
		 0.2927178914
		 0.2931308085
		 0.2935433724
		 0.2939555827
		 0.2943674439
		 0.2947789604
		 0.295190137
		 0.295600978
		 0.2960114799
		 0.296421636
		 0.2968314507
		 0.2972409288
		 0.297650075
		 0.2980588939
		 0.2984673869
		 0.2988755385
		 0.2992833541
		 0.2996908428
		 0.3000980137
		 0.3005048759
		 0.3009114384
		 0.3013176974
		 0.301723646
		 0.3021292838
		 0.3025346107
		 0.3029396265
		 0.3033443309
		 0.3037484471
		 0.3041514018
		 0.3045537538
		 0.3049561367
		 0.3053591839
		 0.305763529
		 0.3061697829
		 0.3065778683
		 0.3069873263
		 0.3073977763
		 0.3078088379
		 0.3082201306
		 0.3086312739
		 0.3090424013
		 0.3094540696
		 0.3098660377
		 0.3102780511
		 0.3106898553
		 0.3111011958
		 0.311511876
		 0.311922158
		 0.3123321212
		 0.3127417721
		 0.3131511173
		 0.3135601634
		 0.3139689169
		 0.3143773716
		 0.3147855217
		 0.315193371
		 0.3156009237
		 0.3160081837
		 0.3164151551
		 0.3168218391
		 0.3172282288
		 0.3176343256
		 0.3180401318
		 0.3184456498
		 0.3188508819
		 0.3192558298
		 0.3196604832
		 0.320064843
		 0.3204689166
		 0.3208727118
		 0.321276236
		 0.3216794969
		 0.3220824947
		 0.3224852198
		 0.3228876736
		 0.3232898582
		 0.3236917757
		 0.3240934278
		 0.3244948158
		 0.3248959332
		 0.3252967816
		 0.3256973647
		 0.3260976862
		 0.3264977496
		 0.3268975588
		 0.3272968072
		 0.3276954117
		 0.3280937115
		 0.3284920458
		 0.3288907539
		 0.3292901747
		 0.3296905748
		 0.33009176
		 0.3304935167
		 0.3308956511
		 0.3312979697
		 0.3317002786
		 0.3321023964
		 0.3325046088
		 0.3329070084
		 0.3333094536
		 0.3337118028
		 0.3341139142
		 0.3345156462
		 0.3349169569
		 0.3353180051
		 0.3357188015
		 0.33611935
		 0.3365196541
		 0.3369197175
		 0.3373195429
		 0.3377191222
		 0.338118456
		 0.3385175482
		 0.3389164026
		 0.3393150231
		 0.3397134136
		 0.3401115722
		 0.3405094946
		 0.3409071824
		 0.3413046374
		 0.341701861
		 0.342098855
		 0.3424956189
		 0.3428921451
		 0.3432884373
		 0.343684501
		 0.3440803415
		 0.3444759642
		 0.3448713743
		 0.345266568
		 0.3456615415
		 0.3460562957
		 0.3464508315
		 0.3468451495
		 0.3472392508
		 0.3476330747
		 0.348026523
		 0.3484197054
		 0.3488127416
		 0.3492057509
		 0.349598853
		 0.3499921418
		 0.350385384
		 0.3507785768
		 0.3511718275
		 0.3515652434
		 0.3519589317
		 0.3523529997
		 0.3527476164
		 0.3531427718
		 0.3535382435
		 0.3539338079
		 0.3543292417
		 0.3547243215
		 0.355118889
		 0.3555131868
		 0.3559072716
		 0.3563011477
		 0.3566948194
		 0.3570882912
		 0.3574815672
		 0.3578746409
		 0.358267509
		 0.358660176
		 0.3590526462
		 0.3594449239
		 0.3598370134
		 0.3602289158
		 0.3606206239
		 0.3610121394
		 0.3614034643
		 0.3617946009
		 0.3621855513
		 0.3625763174
		 0.3629668958
		 0.3633572861
		 0.3637474895
		 0.3641375074
		 0.3645273409
		 0.3649169914
		 0.3653064565
		 0.3656957332
		 0.3660848246
		 0.3664737342
		 0.3668624654
		 0.3672510216
		 0.3676393923
		 0.368027506
		 0.3684154019
		 0.3688031407
		 0.3691907828
		 0.3695783886
		 0.3699660183
		 0.3703536356
		 0.3707411901
		 0.3711286956
		 0.3715161659
		 0.3719036148
		 0.372291056
		 0.3726785259
		 0.3730660772
		 0.3734536456
		 0.3738411583
		 0.3742285426
		 0.3746157257
		 0.3750026388
		 0.3753893255
		 0.3757758288
		 0.3761621592
		 0.3765483277
		 0.3769343449
		 0.3773202215
		 0.3777059612
		 0.3780915543
		 0.3784769974
		 0.3788622873
		 0.3792474212
		 0.3796323959
		 0.3800172082
		 0.3804018556
		 0.3807863422
		 0.3811706727
		 0.3815548519
		 0.3819388844
		 0.3823227751
		 0.3827065211
		 0.3830901178
		 0.3834735671
		 0.3838568705
		 0.3842400299
		 0.3846230467
		 0.3850059213
		 0.3853886493
		 0.3857712323
		 0.3861536727
		 0.386535973
		 0.3869181354
		 0.3873001655
		 0.3876821491
		 0.3880640673
		 0.3884458422
		 0.3888273957
		 0.38920865
		 0.3895895271
		 0.3899699617
		 0.3903499863
		 0.3907296786
		 0.3911091167
		 0.3914883788
		 0.3918675429
		 0.3922466731
		 0.3926256816
		 0.3930045449
		 0.3933832721
		 0.3937618727
		 0.394140356
		 0.3945187314
		 0.3948969995
		 0.395275152
		 0.3956531866
		 0.3960311009
		 0.3964088926
		 0.3967865592
		 0.3971640975
		 0.3975415036
		 0.3979187829
		 0.3982959414
		 0.3986729853
		 0.3990499206
		 0.3994267534
		 0.3998034784
		 0.4001800917
		 0.4005565948
		 0.400932989
		 0.4013092756
		 0.4016854559
		 0.4020615291
		 0.4024374911
		 0.4028133445
		 0.4031890923
		 0.4035647374
		 0.4039402827
		 0.4043157519
		 0.4046913557
		 0.4050670045
		 0.4054425152
		 0.4058177045
		 0.4061923894
		 0.4065663867
		 0.4069396155
		 0.4073122121
		 0.4076842924
		 0.408055972
		 0.4084273668
		 0.4087985923
		 0.409169708
		 0.4095405037
		 0.4099110081
		 0.410281296
		 0.4106514421
		 0.4110215212
		 0.411391607
		 0.4117616565
		 0.4121316159
		 0.4125014895
		 0.4128712819
		 0.4132409973
		 0.4136106403
		 0.4139802129
		 0.4143497106
		 0.4147191324
		 0.4150884776
		 0.4154577456
		 0.4158269356
		 0.4161960466
		 0.4165650723
		 0.4169340156
		 0.4173028821
		 0.4176716777
		 0.4180404081
		 0.4184090791
		 0.418777691
		 0.419146238
		 0.4195147197
		 0.4198831359
		 0.4202514866
		 0.4206197714
		 0.420988052
		 0.421356632
		 0.4217253249
		 0.4220938591
		 0.4224619627
		 0.4228293638
		 0.4231957914
		 0.4235611916
		 0.4239257694
		 0.4242896902
		 0.4246531192
		 0.4250162217
		 0.4253791629
		 0.4257419742
		 0.4261043554
		 0.4264663886
		 0.4268281895
		 0.427189874
		 0.427551558
		 0.4279133486
		 0.4282751486
		 0.4286368987
		 0.4289986037
		 0.4293602682
		 0.4297218971
		 0.4300834951
		 0.4304450615
		 0.4308065899
		 0.4311680821
		 0.4315295403
		 0.4318909663
		 0.4322523623
		 0.4326137293
		 0.4329750617
		 0.4333363607
		 0.4336976295
		 0.434058871
		 0.4344200883
		 0.4347812845
		 0.4351424582
		 0.4355036066
		 0.4358647303
		 0.4362258298
		 0.4365869056
		 0.4369479582
		 0.4373091335
		 0.4376708175
		 0.4380326811
		 0.4383943308
		 0.4387553733
		 0.4391154152
		 0.4394740665
		 0.4398312166
		 0.4401871824
		 0.4405423104
		 0.4408969469
		 0.4412514381
		 0.4416061304
		 0.4419610663
		 0.4423158158
		 0.4426704214
		 0.4430249424
		 0.4433794378
		 0.4437339668
		 0.4440885778
		 0.4444432112
		 0.4447978461
		 0.4451524835
		 0.4455071239
		 0.4458617679
		 0.4462164164
		 0.4465710647
		 0.4469257107
		 0.4472803596
		 0.4476350164
		 0.4479896863
		 0.4483443744
		 0.4486990823
		 0.4490537999
		 0.4494085297
		 0.4497632759
		 0.4501180426
		 0.4504728343
		 0.4508276575
		 0.4511826102
		 0.4515376745
		 0.4518927594
		 0.4522477738
		 0.4526026267
		 0.4529572272
		 0.4533117099
		 0.453666409
		 0.4540210495
		 0.4543753323
		 0.4547289584
		 0.4550816285
		 0.4554330354
		 0.4557829973
		 0.4561318367
		 0.4564799524
		 0.4568277432
		 0.4571756079
		 0.4575239454
		 0.4578727162
		 0.458221526
		 0.4585703772
		 0.4589192735
		 0.4592682186
		 0.4596172163
		 0.4599662683
		 0.4603153675
		 0.4606645151
		 0.4610137139
		 0.4613629666
		 0.4617122759
		 0.4620616444
		 0.4624110681
		 0.4627605453
		 0.4631100783
		 0.4634596696
		 0.4638093214
		 0.4641590363
		 0.4645088115
		 0.4648586382
		 0.4652085228
		 0.4655584726
		 0.4659084948
		 0.4662585969
		 0.4666088187
		 0.4669595549
		 0.4673106519
		 0.4676617657
		 0.4680125521
		 0.468362667
		 0.4687117664
		 0.4690597424
		 0.4694068848
		 0.4697533358
		 0.4700992356
		 0.4704447242
		 0.4707899417
		 0.4711349387
		 0.4714793281
		 0.471823223
		 0.4721668337
		 0.472510371
		 0.4728540456
		 0.4731980662
		 0.4735423315
		 0.4738866796
		 0.474231118
		 0.4745756543
		 0.4749202958
		 0.47526505
		 0.4756099203
		 0.4759548976
		 0.4762999814
		 0.4766451721
		 0.47699047
		 0.4773358754
		 0.4776813882
		 0.4780270009
		 0.4783727155
		 0.4787185384
		 0.4790644757
		 0.4794105338
		 0.4797567189
		 0.4801030939
		 0.4804497045
		 0.4807964612
		 0.4811432727
		 0.4814900475
		 0.4818366944
		 0.4821832317
		 0.4825302534
		 0.4828775012
		 0.4832245368
		 0.4835709216
		 0.4839162174
		 0.4842599855
		 0.4846018536
		 0.4849421189
		 0.4852813226
		 0.4856200058
		 0.4859587096
		 0.4862979753
		 0.4866380881
		 0.4869784168
		 0.4873188898
		 0.4876595088
		 0.4880002754
		 0.4883411915
		 0.4886822582
		 0.4890234664
		 0.4893648173
		 0.4897063175
		 0.4900479739
		 0.4903897933
		 0.4907317824
		 0.4910739404
		 0.4914162577
		 0.4917587371
		 0.4921013821
		 0.4924441961
		 0.4927871825
		 0.4931303427
		 0.4934736646
		 0.4938171515
		 0.494160811
		 0.4945046507
		 0.4948486782
		 0.4951929012
		 0.4955378325
		 0.4958835994
		 0.4962296308
		 0.4965753558
		 0.4969202033
		 0.4972636023
		 0.4976050818
		 0.4979449018
		 0.4982834753
		 0.4986211945
		 0.4989584516
		 0.4992956386
		 0.499633127
		 0.4999704516
		 0.5003074048
		 0.5006441716
		 0.5009809366
		 0.5013178847
		 0.5016552006
		 0.501992931
		 0.5023308577
		 0.5026689804
		 0.5030073089
		 0.5033458532
		 0.503684623
		 0.5040236263
		 0.5043628495
		 0.5047022908
		 0.5050419534
		 0.5053818409
		 0.5057219565
		 0.5060623037
