ACES2Looks/ACEScct_LUT/T-ARRI_Classic_Tone.cube
# This file is automagically generated by clfutil 0.2.0 from T-ARRI_Classic_Tone.clf
LUT_1D_SIZE 4096
LUT_1D_INPUT_RANGE 0.0 1.4679964
  
   0    0    0
   0.0003584304901    0.0003584304901    0.0003584304901
   0.0007168609872    0.0007168609872    0.0007168609872
   0.00107529149    0.00107529149    0.00107529149
   0.001433721998    0.001433721998    0.001433721998
   0.001792152509    0.001792152509    0.001792152509
   0.002150583023    0.002150583023    0.002150583023
   0.002509013596    0.002509013596    0.002509013596
   0.002867444398    0.002867444398    0.002867444398
   0.003225875289    0.003225875289    0.003225875289
   0.0035843061    0.0035843061    0.0035843061
   0.003942736658    0.003942736658    0.003942736658
   0.004301166792    0.004301166792    0.004301166792
   0.004659596319    0.004659596319    0.004659596319
   0.005018024781    0.005018024781    0.005018024781
   0.005376452385    0.005376452385    0.005376452385
   0.00573487965    0.00573487965    0.00573487965
   0.006093307089    0.006093307089    0.006093307089
   0.00645173522    0.00645173522    0.00645173522
   0.006810164558    0.006810164558    0.006810164558
   0.007168595635    0.007168595635    0.007168595635
   0.007527028368    0.007527028368    0.007527028368
   0.007885462081    0.007885462081    0.007885462081
   0.008243896084    0.008243896084    0.008243896084
   0.008602329691    0.008602329691    0.008602329691
   0.008960762211    0.008960762211    0.008960762211
   0.009319192991    0.009319192991    0.009319192991
   0.009677622076    0.009677622076    0.009677622076
   0.01003605001    0.01003605001    0.01003605001
   0.01039447732    0.01039447732    0.01039447732
   0.01075290454    0.01075290454    0.01075290454
   0.01111133218    0.01111133218    0.01111133218
   0.01146976078    0.01146976078    0.01146976078
   0.01182819042    0.01182819042    0.01182819042
   0.01218662065    0.01218662065    0.01218662065
   0.01254505128    0.01254505128    0.01254505128
   0.01290348214    0.01290348214    0.01290348214
   0.01326191307    0.01326191307    0.01326191307
   0.01362034388    0.01362034388    0.01362034388
   0.01397877451    0.01397877451    0.01397877451
   0.01433720532    0.01433720532    0.01433720532
   0.01469563623    0.01469563623    0.01469563623
   0.01505406706    0.01505406706    0.01505406706
   0.01541249766    0.01541249766    0.01541249766
   0.01577092785    0.01577092785    0.01577092785
   0.01612935747    0.01612935747    0.01612935747
   0.01648778623    0.01648778623    0.01648778623
   0.01684621428    0.01684621428    0.01684621428
   0.01720464197    0.01720464197    0.01720464197
   0.01756306963    0.01756306963    0.01756306963
   0.01792149762    0.01792149762    0.01792149762
   0.01827992627    0.01827992627    0.01827992627
   0.0186383558    0.0186383558    0.0186383558
   0.01899678596    0.01899678596    0.01899678596
   0.01935521655    0.01935521655    0.01935521655
   0.01971364739    0.01971364739    0.01971364739
   0.0200720783    0.0200720783    0.0200720783
   0.02043050909    0.02043050909    0.02043050909
   0.02078893962    0.02078893962    0.02078893962
   0.02114737019    0.02114737019    0.02114737019
   0.02150580082    0.02150580082    0.02150580082
   0.02186423139    0.02186423139    0.02186423139
   0.02222266179    0.02222266179    0.02222266179
   0.02258109188    0.02258109188    0.02258109188
   0.02293952156    0.02293952156    0.02293952156
   0.0232979506    0.0232979506    0.0232979506
   0.023656379    0.023656379    0.023656379
   0.02401480704    0.02401480704    0.02401480704
   0.02437323499    0.02437323499    0.02437323499
   0.02473166315    0.02473166315    0.02473166315
   0.02509009179    0.02509009179    0.02509009179
   0.02544852113    0.02544852113    0.02544852113
   0.02580695097    0.02580695097    0.02580695097
   0.02616538117    0.02616538117    0.02616538117
   0.02652381162    0.02652381162    0.02652381162
   0.02688224223    0.02688224223    0.02688224223
   0.02724067288    0.02724067288    0.02724067288
   0.02759910347    0.02759910347    0.02759910347
   0.0279575343    0.0279575343    0.0279575343
   0.02831596542    0.02831596542    0.02831596542
   0.02867439661    0.02867439661    0.02867439661
   0.02903282765    0.02903282765    0.02903282765
   0.0293912583    0.0293912583    0.0293912583
   0.02974968834    0.02974968834    0.02974968834
   0.0301081174    0.0301081174    0.0301081174
   0.03046654523    0.03046654523    0.03046654523
   0.03082497237    0.03082497237    0.03082497237
   0.0311833994    0.0311833994    0.0311833994
   0.03154182689    0.03154182689    0.03154182689
   0.03190025542    0.03190025542    0.03190025542
   0.03225868557    0.03225868557    0.03225868557
   0.0326171177    0.0326171177    0.0326171177
   0.03297555126    0.03297555126    0.03297555126
   0.0333339855    0.0333339855    0.0333339855
   0.03369241967    0.03369241967    0.03369241967
   0.03405085306    0.03405085306    0.03405085306
   0.03440928491    0.03440928491    0.03440928491
   0.03476771479    0.03476771479    0.03476771479
   0.03512614318    0.03512614318    0.03512614318
   0.03548457064    0.03548457064    0.03548457064
   0.0358429977    0.0358429977    0.0358429977
   0.0362014249    0.0362014249    0.0362014249
   0.03655985279    0.03655985279    0.03655985279
   0.03691828181    0.03691828181    0.03691828181
   0.03727671152    0.03727671152    0.03727671152
   0.03763514169    0.03763514169    0.03763514169
   0.03799357218    0.03799357218    0.03799357218
   0.03835200286    0.03835200286    0.03835200286
   0.03871043358    0.03871043358    0.03871043358
   0.0390688642    0.0390688642    0.0390688642
   0.03942729484    0.03942729484    0.03942729484
   0.0397857256    0.0397857256    0.0397857256
   0.04014415643    0.04014415643    0.04014415643
   0.04050258727    0.04050258727    0.04050258727
   0.04086101806    0.04086101806    0.04086101806
   0.04121944874    0.04121944874    0.04121944874
   0.04157787934    0.04157787934    0.04157787934
   0.04193631004    0.04193631004    0.04193631004
   0.04229474074    0.04229474074    0.04229474074
   0.0426531713    0.0426531713    0.0426531713
   0.04301160158    0.04301160158    0.04301160158
   0.04337003145    0.04337003145    0.04337003145
   0.04372846074    0.04372846074    0.04372846074
   0.04408688911    0.04408688911    0.04408688911
   0.04444531677    0.04444531677    0.04444531677
   0.0448037441    0.0448037441    0.0448037441
   0.04516217152    0.04516217152    0.04516217152
   0.04552059942    0.04552059942    0.04552059942
   0.0458790282    0.0458790282    0.0458790282
   0.04623745813    0.04623745813    0.04623745813
   0.04659588894    0.04659588894    0.04659588894
   0.04695432033    0.04695432033    0.04695432033
   0.04731275201    0.04731275201    0.04731275201
   0.04767118369    0.04767118369    0.04767118369
   0.04802961507    0.04802961507    0.04802961507
   0.04838804593    0.04838804593    0.04838804593
   0.04874647659    0.04874647659    0.04874647659
   0.04910490713    0.04910490713    0.04910490713
   0.04946333753    0.04946333753    0.04946333753
   0.04982176777    0.04982176777    0.04982176777
   0.05018019782    0.05018019782    0.05018019782
   0.05053862765    0.05053862765    0.05053862765
   0.05089705722    0.05089705722    0.05089705722
   0.0512554865    0.0512554865    0.0512554865
   0.0516139156    0.0516139156    0.0516139156
   0.0519723446    0.0519723446    0.0519723446
   0.05233077357    0.05233077357    0.05233077357
   0.05268920259    0.05268920259    0.05268920259
   0.0530476317    0.0530476317    0.0530476317
   0.05340606071    0.05340606071    0.05340606071
   0.05376448968    0.05376448968    0.05376448968
   0.05412291868    0.05412291868    0.05412291868
   0.05448134782    0.05448134782    0.05448134782
   0.05483977716    0.05483977716    0.05483977716
   0.05519820679    0.05519820679    0.05519820679
   0.05555663677    0.05555663677    0.05555663677
   0.05591506705    0.05591506705    0.05591506705
   0.0562734975    0.0562734975    0.0562734975
   0.05663192802    0.05663192802    0.05663192802
   0.0569903585    0.0569903585    0.0569903585
   0.05734878883    0.05734878883    0.05734878883
   0.05770721901    0.05770721901    0.05770721901
   0.05806564918    0.05806564918    0.05806564918
   0.05842407932    0.05842407932    0.05842407932
   0.05878250939    0.05878250939    0.05878250939
   0.05914093934    0.05914093934    0.05914093934
   0.05949936914    0.05949936914    0.05949936914
   0.05985779874    0.05985779874    0.05985779874
   0.06021622799    0.06021622799    0.06021622799
   0.060574657    0.060574657    0.060574657
   0.06093308591    0.06093308591    0.06093308591
   0.06129151487    0.06129151487    0.06129151487
   0.06164994402    0.06164994402    0.06164994402
   0.06200837352    0.06200837352    0.06200837352
   0.06236680334    0.06236680334    0.06236680334
   0.06272523334    0.06272523334    0.06272523334
   0.06308366353    0.06308366353    0.06308366353
   0.0634420939    0.0634420939    0.0634420939
   0.06380052445    0.06380052445    0.06380052445
   0.06415895518    0.06415895518    0.06415895518
   0.06451738614    0.06451738614    0.06451738614
   0.06487581755    0.06487581755    0.06487581755
   0.06523424925    0.06523424925    0.06523424925
   0.06559268106    0.06559268106    0.06559268106
   0.06595111277    0.06595111277    0.06595111277
   0.0663095442    0.0663095442    0.0663095442
   0.06666797515    0.06666797515    0.06666797515
   0.06702640579    0.06702640579    0.06702640579
   0.06738483624    0.06738483624    0.06738483624
   0.06774326646    0.06774326646    0.06774326646
   0.06810169641    0.06810169641    0.06810169641
   0.06846012604    0.06846012604    0.06846012604
   0.06881855533    0.06881855533    0.06881855533
   0.06917698405    0.06917698405    0.06917698405
   0.06953541192    0.06953541192    0.06953541192
   0.06989383932    0.06989383932    0.06989383932
   0.07025226664    0.07025226664    0.07025226664
   0.0706106943    0.0706106943    0.0706106943
   0.07096912269    0.07096912269    0.07096912269
   0.07132755222    0.07132755222    0.07132755222
   0.071685983    0.071685983    0.071685983
   0.07204441467    0.07204441467    0.07204441467
   0.0724028468    0.0724028468    0.0724028468
   0.07276127897    0.07276127897    0.07276127897
   0.07311971074    0.07311971074    0.07311971074
   0.07347814169    0.07347814169    0.07347814169
   0.07383657172    0.07383657172    0.07383657172
   0.07419500118    0.07419500118    0.07419500118
   0.07455343025    0.07455343025    0.07455343025
   0.07491185908    0.07491185908    0.07491185908
   0.07527028786    0.07527028786    0.07527028786
   0.07562871675    0.07562871675    0.07562871675
   0.07598714582    0.07598714582    0.07598714582
   0.07634557473    0.07634557473    0.07634557473
   0.07670400356    0.07670400356    0.07670400356
   0.07706243244    0.07706243244    0.07706243244
   0.07742086153    0.07742086153    0.07742086153
   0.07777929097    0.07777929097    0.07777929097
   0.07813772091    0.07813772091    0.07813772091
   0.07849615159    0.07849615159    0.07849615159
   0.07885458288    0.07885458288    0.07885458288
   0.07921301449    0.07921301449    0.07921301449
   0.07957144613    0.07957144613    0.07957144613
   0.0799298775    0.0799298775    0.0799298775
   0.08028830831    0.08028830831    0.08028830831
   0.08064673832    0.08064673832    0.08064673832
   0.08100516769    0.08100516769    0.08100516769
   0.08136359665    0.08136359665    0.08136359665
   0.08172202541    0.08172202541    0.08172202541
   0.08208045423    0.08208045423    0.08208045423
   0.08243888333    0.08243888333    0.08243888333
   0.08279731293    0.08279731293    0.08279731293
   0.08315574303    0.08315574303    0.08315574303
   0.08351417347    0.08351417347    0.08351417347
   0.08387260406    0.08387260406    0.08387260406
   0.08423103463    0.08423103463    0.08423103463
   0.08458946502    0.08458946502    0.08458946502
   0.08494789505    0.08494789505    0.08494789505
   0.08530632454    0.08530632454    0.08530632454
   0.08566475357    0.08566475357    0.08566475357
   0.08602318236    0.08602318236    0.08602318236
   0.08638161114    0.08638161114    0.08638161114
   0.08674004016    0.08674004016    0.08674004016
   0.08709846962    0.08709846962    0.08709846962
   0.0874568998    0.0874568998    0.0874568998
   0.08781533084    0.08781533084    0.08781533084
   0.08817376242    0.08817376242    0.08817376242
   0.0885321942    0.0885321942    0.0885321942
   0.0888906258    0.0888906258    0.0888906258
   0.08924905689    0.08924905689    0.08924905689
   0.08960748709    0.08960748709    0.08960748709
   0.08996591623    0.08996591623    0.08996591623
   0.09032434457    0.09032434457    0.09032434457
   0.09068277244    0.09068277244    0.09068277244
   0.09104120018    0.09104120018    0.09104120018
   0.09139962811    0.09139962811    0.09139962811
   0.09175805657    0.09175805657    0.09175805657
   0.09211648578    0.09211648578    0.09211648578
   0.09247491546    0.09247491546    0.09247491546
   0.09283334546    0.09283334546    0.09283334546
   0.09319177567    0.09319177567    0.09319177567
   0.09355020596    0.09355020596    0.09355020596
   0.09390863621    0.09390863621    0.09390863621
   0.09426706629    0.09426706629    0.09426706629
   0.09462549625    0.09462549625    0.09462549625
   0.09498392616    0.09498392616    0.09498392616
   0.09534235608    0.09534235608    0.09534235608
   0.09570078604    0.09570078604    0.09570078604
   0.0960592161    0.0960592161    0.0960592161
   0.09641764629    0.09641764629    0.09641764629
   0.0967760767    0.0967760767    0.0967760767
   0.09713450732    0.09713450732    0.09713450732
   0.09749293807    0.09749293807    0.09749293807
   0.09785136885    0.09785136885    0.09785136885
   0.09820979957    0.09820979957    0.09820979957
   0.09856823014    0.09856823014    0.09856823014
   0.09892666049    0.09892666049    0.09892666049
   0.0992850907    0.0992850907    0.0992850907
   0.09964352083    0.09964352083    0.09964352083
   0.1000019509    0.1000019509    0.1000019509
   0.1003603808    0.1003603808    0.1003603808
   0.1007188106    0.1007188106    0.1007188106
   0.1010772404    0.1010772404    0.1010772404
   0.10143567    0.10143567    0.10143567
   0.1017940995    0.1017940995    0.1017940995
   0.1021525288    0.1021525288    0.1021525288
   0.1025109582    0.1025109582    0.1025109582
   0.1028693876    0.1028693876    0.1028693876
   0.1032278171    0.1032278171    0.1032278171
   0.1035862468    0.1035862468    0.1035862468
   0.1039446767    0.1039446767    0.1039446767
   0.1043031067    0.1043031067    0.1043031067
   0.1046615368    0.1046615368    0.1046615368
   0.1050199669    0.1050199669    0.1050199669
   0.105378397    0.105378397    0.105378397
   0.105736827    0.105736827    0.105736827
   0.1060952571    0.1060952571    0.1060952571
   0.1064536872    0.1064536872    0.1064536872
   0.1068121173    0.1068121173    0.1068121173
   0.1071705473    0.1071705473    0.1071705473
   0.1075289773    0.1075289773    0.1075289773
   0.1078874071    0.1078874071    0.1078874071
   0.1082458368    0.1082458368    0.1082458368
   0.1086042663    0.1086042663    0.1086042663
   0.1089626956    0.1089626956    0.1089626956
   0.109321125    0.109321125    0.109321125
   0.1096795544    0.1096795544    0.1096795544
   0.1100379839    0.1100379839    0.1100379839
   0.1103964136    0.1103964136    0.1103964136
   0.1107548434    0.1107548434    0.1107548434
   0.1111132733    0.1111132733    0.1111132733
   0.1114717032    0.1114717032    0.1114717032
   0.1118301333    0.1118301333    0.1118301333
   0.1121885635    0.1121885635    0.1121885635
   0.1125469937    0.1125469937    0.1125469937
   0.1129054242    0.1129054242    0.1129054242
   0.113263855    0.113263855    0.113263855
   0.113622286    0.113622286    0.113622286
   0.1139807169    0.1139807169    0.1139807169
   0.1143391475    0.1143391475    0.1143391475
   0.1146975778    0.1146975778    0.1146975778
   0.1150560074    0.1150560074    0.1150560074
   0.1154144364    0.1154144364    0.1154144364
   0.1157728649    0.1157728649    0.1157728649
   0.1161312932    0.1161312932    0.1161312932
   0.1164897217    0.1164897217    0.1164897217
   0.1168481506    0.1168481506    0.1168481506
   0.1172065804    0.1172065804    0.1172065804
   0.117565011    0.117565011    0.117565011
   0.1179234422    0.1179234422    0.1179234422
   0.1182818738    0.1182818738    0.1182818738
   0.1186403055    0.1186403055    0.1186403055
   0.1189987369    0.1189987369    0.1189987369
   0.1193571677    0.1193571677    0.1193571677
   0.119715598    0.119715598    0.119715598
   0.1200740278    0.1200740278    0.1200740278
   0.1204324573    0.1204324573    0.1204324573
   0.1207908867    0.1207908867    0.1207908867
   0.1211493159    0.1211493159    0.1211493159
   0.121507745    0.121507745    0.121507745
   0.1218661741    0.1218661741    0.1218661741
   0.1222246028    0.1222246028    0.1222246028
   0.1225830313    0.1225830313    0.1225830313
   0.1229414598    0.1229414598    0.1229414598
   0.1232998884    0.1232998884    0.1232998884
   0.1236583174    0.1236583174    0.1236583174
   0.124016747    0.124016747    0.124016747
   0.1243751774    0.1243751774    0.1243751774
   0.1247336086    0.1247336086    0.1247336086
   0.1250920401    0.1250920401    0.1250920401
   0.1254504718    0.1254504718    0.1254504718
   0.1258089033    0.1258089033    0.1258089033
   0.1261673343    0.1261673343    0.1261673343
   0.1265257646    0.1265257646    0.1265257646
   0.1268841942    0.1268841942    0.1268841942
   0.1272426234    0.1272426234    0.1272426234
   0.1276010525    0.1276010525    0.1276010525
   0.1279594816    0.1279594816    0.1279594816
   0.1283179111    0.1283179111    0.1283179111
   0.1286763411    0.1286763411    0.1286763411
   0.1290347719    0.1290347719    0.1290347719
   0.1293932032    0.1293932032    0.1293932032
   0.1297516347    0.1297516347    0.1297516347
   0.1301100663    0.1301100663    0.1301100663
   0.1304684976    0.1304684976    0.1304684976
   0.1308269285    0.1308269285    0.1308269285
   0.1311853587    0.1311853587    0.1311853587
   0.1315437886    0.1315437886    0.1315437886
   0.1319022181    0.1319022181    0.1319022181
   0.1322606475    0.1322606475    0.1322606475
   0.1326190766    0.1326190766    0.1326190766
   0.1329775058    0.1329775058    0.1329775058
   0.1333359349    0.1333359349    0.1333359349
   0.1336943637    0.1336943637    0.1336943637
   0.1340527922    0.1340527922    0.1340527922
   0.1344112206    0.1344112206    0.1344112206
   0.1347696492    0.1347696492    0.1347696492
   0.1351280782    0.1351280782    0.1351280782
   0.1354865078    0.1354865078    0.1354865078
   0.1358449382    0.1358449382    0.1358449382
   0.1362033693    0.1362033693    0.1362033693
   0.1365618008    0.1365618008    0.1365618008
   0.1369202325    0.1369202325    0.1369202325
   0.137278664    0.137278664    0.137278664
   0.137637095    0.137637095    0.137637095
   0.1379955254    0.1379955254    0.1379955254
   0.1383539553    0.1383539553    0.1383539553
   0.1387123849    0.1387123849    0.1387123849
   0.1390708143    0.1390708143    0.1390708143
   0.1394292435    0.1394292435    0.1394292435
   0.1397876727    0.1397876727    0.1397876727
   0.1401461018    0.1401461018    0.1401461018
   0.1405045308    0.1405045308    0.1405045308
   0.1408629596    0.1408629596    0.1408629596
   0.1412213883    0.1412213883    0.1412213883
   0.141579817    0.141579817    0.141579817
   0.1419382458    0.1419382458    0.1419382458
   0.1422966747    0.1422966747    0.1422966747
   0.1426551039    0.1426551039    0.1426551039
   0.143013533    0.143013533    0.143013533
   0.1433719622    0.1433719622    0.1433719622
   0.1437303915    0.1437303915    0.1437303915
   0.1440888211    0.1440888211    0.1440888211
   0.1444472509    0.1444472509    0.1444472509
   0.1448056811    0.1448056811    0.1448056811
   0.1451641118    0.1451641118    0.1451641118
   0.1455225429    0.1455225429    0.1455225429
   0.1458809742    0.1458809742    0.1458809742
   0.1462394056    0.1462394056    0.1462394056
   0.146597837    0.146597837    0.146597837
   0.1469562684    0.1469562684    0.1469562684
   0.1473146997    0.1473146997    0.1473146997
   0.1476731315    0.1476731315    0.1476731315
   0.1480315633    0.1480315633    0.1480315633
   0.1483899949    0.1483899949    0.1483899949
   0.148748426    0.148748426    0.148748426
   0.1491068563    0.1491068563    0.1491068563
   0.1494652855    0.1494652855    0.1494652855
   0.1498237131    0.1498237131    0.1498237131
   0.1501821397    0.1501821397    0.1501821397
   0.1505405659    0.1505405659    0.1505405659
   0.1508989922    0.1508989922    0.1508989922
   0.1512574193    0.1512574193    0.1512574193
   0.1516158477    0.1516158477    0.1516158477
   0.1519742776    0.1519742776    0.1519742776
   0.1523327086    0.1523327086    0.1523327086
   0.1526911402    0.1526911402    0.1526911402
   0.1530495721    0.1530495721    0.1530495721
   0.1534080039    0.1534080039    0.1534080039
   0.153766435    0.153766435    0.153766435
   0.1541248653    0.1541248653    0.1541248653
   0.1544832952    0.1544832952    0.1544832952
   0.1548417248    0.1548417248    0.1548417248
   0.1552001541    0.1552001541    0.1552001541
   0.1555585833    0.1555585833    0.1555585833
   0.1559170125    0.1559170125    0.1559170125
   0.1562754416    0.1562754416    0.1562754416
   0.1566338704    0.1566338704    0.1566338704
   0.1569922989    0.1569922989    0.1569922989
   0.1573507274    0.1573507274    0.1573507274
   0.1577091559    0.1577091559    0.1577091559
   0.1580675849    0.1580675849    0.1580675849
   0.1584260144    0.1584260144    0.1584260144
   0.1587844447    0.1587844447    0.1587844447
   0.1591428758    0.1591428758    0.1591428758
   0.1595013073    0.1595013073    0.1595013073
   0.1598597389    0.1598597389    0.1598597389
   0.1602181705    0.1602181705    0.1602181705
   0.1605766016    0.1605766016    0.1605766016
   0.160935032    0.160935032    0.160935032
   0.1612934617    0.1612934617    0.1612934617
   0.1616518909    0.1616518909    0.1616518909
   0.16201032    0.16201032    0.16201032
   0.1623687491    0.1623687491    0.1623687491
   0.1627271785    0.1627271785    0.1627271785
   0.1630856085    0.1630856085    0.1630856085
   0.1634440391    0.1634440391    0.1634440391
   0.1638024704    0.1638024704    0.1638024704
   0.1641609019    0.1641609019    0.1641609019
   0.1645193335    0.1645193335    0.1645193335
   0.1648777648    0.1648777648    0.1648777648
   0.1652361958    0.1652361958    0.1652361958
   0.1655946261    0.1655946261    0.1655946261
   0.165953056    0.165953056    0.165953056
   0.1663114856    0.1663114856    0.1663114856
   0.1666699149    0.1666699149    0.1666699149
   0.1670283441    0.1670283441    0.1670283441
   0.1673867732    0.1673867732    0.1673867732
   0.1677452024    0.1677452024    0.1677452024
   0.1681036312    0.1681036312    0.1681036312
   0.1684620597    0.1684620597    0.1684620597
   0.1688204882    0.1688204882    0.1688204882
   0.1691789167    0.1691789167    0.1691789167
   0.1695373457    0.1695373457    0.1695373457
   0.1698957752    0.1698957752    0.1698957752
   0.1702542054    0.1702542054    0.1702542054
   0.1706126365    0.1706126365    0.1706126365
   0.1709710679    0.1709710679    0.1709710679
   0.1713294996    0.1713294996    0.1713294996
   0.1716879312    0.1716879312    0.1716879312
   0.1720463623    0.1720463623    0.1720463623
   0.1724048735    0.1724048735    0.1724048735
