ACES2Looks/ACEScct_LUT/T-ARRI_REVEAL_Tone.cube
# This file is automagically generated by clfutil 0.3.0 from T-ARRI_REVEAL_Tone.clf
LUT_1D_SIZE 4096
LUT_1D_INPUT_RANGE 0.0 1.4679964
  
   0    0    0
   0.0003446970939    0.0003446970939    0.0003446970939
   0.0006893942705    0.0006893942705    0.0006893942705
   0.001034091616    0.001034091616    0.001034091616
   0.001378789216    0.001378789216    0.001378789216
   0.001723487158    0.001723487158    0.001723487158
   0.002068185526    0.002068185526    0.002068185526
   0.002412884489    0.002412884489    0.002412884489
   0.002757584291    0.002757584291    0.002757584291
   0.003102284641    0.003102284641    0.003102284641
   0.003446985196    0.003446985196    0.003446985196
   0.003791685613    0.003791685613    0.003791685613
   0.004136385552    0.004136385552    0.004136385552
   0.004481084669    0.004481084669    0.004481084669
   0.004825782811    0.004825782811    0.004825782811
   0.005170480262    0.005170480262    0.005170480262
   0.005515177365    0.005515177365    0.005515177365
   0.005859874466    0.005859874466    0.005859874466
   0.006204571908    0.006204571908    0.006204571908
   0.006549270037    0.006549270037    0.006549270037
   0.006893969145    0.006893969145    0.006893969145
   0.007238669097    0.007238669097    0.007238669097
   0.007583369545    0.007583369545    0.007583369545
   0.007928070139    0.007928070139    0.007928070139
   0.008272770528    0.008272770528    0.008272770528
   0.008617470364    0.008617470364    0.008617470364
   0.008962169323    0.008962169323    0.008962169323
   0.009306867528    0.009306867528    0.009306867528
   0.009651565211    0.009651565211    0.009651565211
   0.009996262556    0.009996262556    0.009996262556
   0.01034095975    0.01034095975    0.01034095975
   0.01068565698    0.01068565698    0.01068565698
   0.01103035442    0.01103035442    0.01103035442
   0.01137505193    0.01137505193    0.01137505193
   0.01171974926    0.01171974926    0.01171974926
   0.01206444657    0.01206444657    0.01206444657
   0.01240914404    0.01240914404    0.01240914404
   0.01275384182    0.01275384182    0.01275384182
   0.01309854008    0.01309854008    0.01309854008
   0.01344323902    0.01344323902    0.01344323902
   0.01378793881    0.01378793881    0.01378793881
   0.01413263916    0.01413263916    0.01413263916
   0.01447733973    0.01447733973    0.01447733973
   0.01482204018    0.01482204018    0.01482204018
   0.01516674018    0.01516674018    0.01516674018
   0.01551143939    0.01551143939    0.01551143939
   0.01585613782    0.01585613782    0.01585613782
   0.01620083571    0.01620083571    0.01620083571
   0.01654553324    0.01654553324    0.01654553324
   0.01689023058    0.01689023058    0.01689023058
   0.01723492789    0.01723492789    0.01723492789
   0.01757962536    0.01757962536    0.01757962536
   0.01792432304    0.01792432304    0.01792432304
   0.01826902076    0.01826902076    0.01826902076
   0.01861371848    0.01861371848    0.01861371848
   0.01895841619    0.01895841619    0.01895841619
   0.01930311387    0.01930311387    0.01930311387
   0.01964781152    0.01964781152    0.01964781152
   0.0199925091    0.0199925091    0.0199925091
   0.02033720659    0.02033720659    0.02033720659
   0.02068190401    0.02068190401    0.02068190401
   0.02102660142    0.02102660142    0.02102660142
   0.02137129884    0.02137129884    0.02137129884
   0.02171599633    0.02171599633    0.02171599633
   0.02206069394    0.02206069394    0.02206069394
   0.02240539157    0.02240539157    0.02240539157
   0.02275008913    0.02275008913    0.02275008913
   0.02309478673    0.02309478673    0.02309478673
   0.02343948447    0.02343948447    0.02343948447
   0.02378418248    0.02378418248    0.02378418248
   0.02412888085    0.02412888085    0.02412888085
   0.02447357976    0.02447357976    0.02447357976
   0.02481827936    0.02481827936    0.02481827936
   0.02516297943    0.02516297943    0.02516297943
   0.02550767969    0.02550767969    0.02550767969
   0.02585237987    0.02585237987    0.02585237987
   0.02619707968    0.02619707968    0.02619707968
   0.02654177887    0.02654177887    0.02654177887
   0.02688647742    0.02688647742    0.02688647742
   0.02723117556    0.02723117556    0.02723117556
   0.0275758734    0.0275758734    0.0275758734
   0.02792057104    0.02792057104    0.02792057104
   0.0282652686    0.0282652686    0.0282652686
   0.02860996619    0.02860996619    0.02860996619
   0.02895466375    0.02895466375    0.02895466375
   0.02929936095    0.02929936095    0.02929936095
   0.02964405797    0.02964405797    0.02964405797
   0.02998875507    0.02998875507    0.02998875507
   0.03033345245    0.03033345245    0.03033345245
   0.03067815036    0.03067815036    0.03067815036
   0.03102284904    0.03102284904    0.03102284904
   0.03136754876    0.03136754876    0.03136754876
   0.03171224923    0.03171224923    0.03171224923
   0.03205695008    0.03205695008    0.03205695008
   0.03240165089    0.03240165089    0.03240165089
   0.03274635127    0.03274635127    0.03274635127
   0.03309105083    0.03309105083    0.03309105083
   0.03343574927    0.03343574927    0.03343574927
   0.03378044682    0.03378044682    0.03378044682
   0.03412514383    0.03412514383    0.03412514383
   0.03446984069    0.03446984069    0.03446984069
   0.03481453776    0.03481453776    0.03481453776
   0.03515923543    0.03515923543    0.03515923543
   0.03550393403    0.03550393403    0.03550393403
   0.03584863351    0.03584863351    0.03584863351
   0.03619333355    0.03619333355    0.03619333355
   0.03653803385    0.03653803385    0.03653803385
   0.0368827341    0.0368827341    0.0368827341
   0.037227434    0.037227434    0.037227434
   0.03757213324    0.03757213324    0.03757213324
   0.03791683182    0.03791683182    0.03791683182
   0.03826152997    0.03826152997    0.03826152997
   0.03860622782    0.03860622782    0.03860622782
   0.03895092546    0.03895092546    0.03895092546
   0.03929562302    0.03929562302    0.03929562302
   0.03964032061    0.03964032061    0.03964032061
   0.03998501826    0.03998501826    0.03998501826
   0.04032971582    0.04032971582    0.04032971582
   0.0406744133    0.0406744133    0.0406744133
   0.04101911073    0.04101911073    0.04101911073
   0.04136380814    0.04136380814    0.04136380814
   0.04170850557    0.04170850557    0.04170850557
   0.04205320303    0.04205320303    0.04205320303
   0.04239790033    0.04239790033    0.04239790033
   0.0427425975    0.0427425975    0.0427425975
   0.04308729468    0.04308729468    0.04308729468
   0.04343199201    0.04343199201    0.04343199201
   0.04377668966    0.04377668966    0.04377668966
   0.04412138776    0.04412138776    0.04412138776
   0.04446608646    0.04446608646    0.04446608646
   0.04481078574    0.04481078574    0.04481078574
   0.04515548539    0.04515548539    0.04515548539
   0.0455001852    0.0455001852    0.0455001852
   0.04584488497    0.04584488497    0.04584488497
   0.04618958451    0.04618958451    0.04618958451
   0.04653428365    0.04653428365    0.04653428365
   0.04687898262    0.04687898262    0.04687898262
   0.04722368148    0.04722368148    0.04722368148
   0.04756838021    0.04756838021    0.04756838021
   0.04791307877    0.04791307877    0.04791307877
   0.04825777715    0.04825777715    0.04825777715
   0.04860247533    0.04860247533    0.04860247533
   0.04894717322    0.04894717322    0.04894717322
   0.04929187084    0.04929187084    0.04929187084
   0.04963656826    0.04963656826    0.04963656826
   0.04998126557    0.04998126557    0.04998126557
   0.05032596286    0.05032596286    0.05032596286
   0.05067066021    0.05067066021    0.05067066021
   0.05101535763    0.05101535763    0.05101535763
   0.05136005482    0.05136005482    0.05136005482
   0.05170475191    0.05170475191    0.05170475191
   0.05204944909    0.05204944909    0.05204944909
   0.05239414652    0.05239414652    0.05239414652
   0.05273884436    0.05273884436    0.05273884436
   0.05308354281    0.05308354281    0.05308354281
   0.05342824205    0.05342824205    0.05342824205
   0.05377294191    0.05377294191    0.05377294191
   0.05411764211    0.05411764211    0.05411764211
   0.05446234238    0.05446234238    0.05446234238
   0.05480704243    0.05480704243    0.05480704243
   0.055151742    0.055151742    0.055151742
   0.05549644097    0.05549644097    0.05549644097
   0.05584113963    0.05584113963    0.05584113963
   0.05618583803    0.05618583803    0.05618583803
   0.05653053623    0.05653053623    0.05653053623
   0.05687523428    0.05687523428    0.05687523428
   0.05721993222    0.05721993222    0.05721993222
   0.0575646301    0.0575646301    0.0575646301
   0.05790932766    0.05790932766    0.05790932766
   0.05825402499    0.05825402499    0.05825402499
   0.05859872223    0.05859872223    0.05859872223
   0.05894341951    0.05894341951    0.05894341951
   0.059288117    0.059288117    0.059288117
   0.05963281483    0.05963281483    0.05963281483
   0.05997751306    0.05997751306    0.05997751306
   0.06032221156    0.06032221156    0.06032221156
   0.06066691025    0.06066691025    0.06066691025
   0.06101160905    0.06101160905    0.06101160905
   0.06135630788    0.06135630788    0.06135630788
   0.06170100665    0.06170100665    0.06170100665
   0.0620457053    0.0620457053    0.0620457053
   0.06239040385    0.06239040385    0.06239040385
   0.06273510236    0.06273510236    0.06273510236
   0.06307980089    0.06307980089    0.06307980089
   0.0634244995    0.0634244995    0.0634244995
   0.06376919827    0.06376919827    0.06376919827
   0.06411389725    0.06411389725    0.06411389725
   0.06445859662    0.06445859662    0.06445859662
   0.06480329632    0.06480329632    0.06480329632
   0.06514799614    0.06514799614    0.06514799614
   0.06549269588    0.06549269588    0.06549269588
   0.06583739534    0.06583739534    0.06583739534
   0.06618209431    0.06618209431    0.06618209431
   0.0665267926    0.0665267926    0.0665267926
   0.06687149026    0.06687149026    0.06687149026
   0.06721618752    0.06721618752    0.06721618752
   0.06756088461    0.06756088461    0.06756088461
   0.06790558177    0.06790558177    0.06790558177
   0.06825027921    0.06825027921    0.06825027921
   0.06859497718    0.06859497718    0.06859497718
   0.06893967563    0.06893967563    0.06893967563
   0.0692843744    0.0692843744    0.0692843744
   0.06962907331    0.06962907331    0.06962907331
   0.0699737722    0.0699737722    0.0699737722
   0.07031847089    0.07031847089    0.07031847089
   0.07066316924    0.07066316924    0.07066316924
   0.07100786716    0.07100786716    0.07100786716
   0.07135256479    0.07135256479    0.07135256479
   0.07169726222    0.07169726222    0.07169726222
   0.07204195954    0.07204195954    0.07204195954
   0.07238665683    0.07238665683    0.07238665683
   0.07273135418    0.07273135418    0.07273135418
   0.07307605161    0.07307605161    0.07307605161
   0.07342074885    0.07342074885    0.07342074885
   0.07376544601    0.07376544601    0.07376544601
   0.07411014322    0.07411014322    0.07411014322
   0.07445484063    0.07445484063    0.07445484063
   0.07479953839    0.07479953839    0.07479953839
   0.07514423664    0.07514423664    0.07514423664
   0.07548893553    0.07548893553    0.07548893553
   0.07583363493    0.07583363493    0.07583363493
   0.07617833464    0.07617833464    0.07617833464
   0.07652303446    0.07652303446    0.07652303446
   0.07686773419    0.07686773419    0.07686773419
   0.07721243362    0.07721243362    0.07721243362
   0.07755713269    0.07755713269    0.07755713269
   0.07790183163    0.07790183163    0.07790183163
   0.07824653045    0.07824653045    0.07824653045
   0.07859122913    0.07859122913    0.07859122913
   0.07893592765    0.07893592765    0.07893592765
   0.07928062598    0.07928062598    0.07928062598
   0.07962532408    0.07962532408    0.07962532408
   0.07997002177    0.07997002177    0.07997002177
   0.08031471913    0.08031471913    0.08031471913
   0.08065941634    0.08065941634    0.08065941634
   0.08100411356    0.08100411356    0.08100411356
   0.08134881097    0.08134881097    0.08134881097
   0.08169350875    0.08169350875    0.08169350875
   0.0820382069    0.0820382069    0.0820382069
   0.08238290526    0.08238290526    0.08238290526
   0.08272760381    0.08272760381    0.08272760381
   0.08307230252    0.08307230252    0.08307230252
   0.08341700137    0.08341700137    0.08341700137
   0.08376170033    0.08376170033    0.08376170033
   0.08410639945    0.08410639945    0.08410639945
   0.08445109905    0.08445109905    0.08445109905
   0.08479579894    0.08479579894    0.08479579894
   0.08514049887    0.08514049887    0.08514049887
   0.08548519857    0.08548519857    0.08548519857
   0.08582989779    0.08582989779    0.08582989779
   0.08617459625    0.08617459625    0.08617459625
   0.08651929374    0.08651929374    0.08651929374
   0.08686399044    0.08686399044    0.08686399044
   0.08720868667    0.08720868667    0.08720868667
   0.08755338278    0.08755338278    0.08755338278
   0.08789807907    0.08789807907    0.08789807907
   0.08824277589    0.08824277589    0.08824277589
   0.08858747343    0.08858747343    0.08858747343
   0.08893217142    0.08893217142    0.08893217142
   0.08927686972    0.08927686972    0.08927686972
   0.08962156821    0.08962156821    0.08962156821
   0.08996626678    0.08996626678    0.08996626678
   0.0903109653    0.0903109653    0.0903109653
   0.09065566366    0.09065566366    0.09065566366
   0.0910003619    0.0910003619    0.0910003619
   0.09134506009    0.09134506009    0.09134506009
   0.09168975828    0.09168975828    0.09168975828
   0.09203445653    0.09203445653    0.09203445653
   0.09237915489    0.09237915489    0.09237915489
   0.09272385342    0.09272385342    0.09272385342
   0.09306855217    0.09306855217    0.09306855217
   0.09341325115    0.09341325115    0.09341325115
   0.09375795026    0.09375795026    0.09375795026
   0.0941026494    0.0941026494    0.0941026494
   0.09444734849    0.09444734849    0.09444734849
   0.09479204741    0.09479204741    0.09479204741
   0.0951367461    0.0951367461    0.0951367461
   0.09548144462    0.09548144462    0.09548144462
   0.09582614302    0.09582614302    0.09582614302
   0.09617084132    0.09617084132    0.09617084132
   0.09651553953    0.09651553953    0.09651553953
   0.09686023767    0.09686023767    0.09686023767
   0.09720493576    0.09720493576    0.09720493576
   0.09754963372    0.09754963372    0.09754963372
   0.09789433152    0.09789433152    0.09789433152
   0.09823902924    0.09823902924    0.09823902924
   0.09858372694    0.09858372694    0.09858372694
   0.09892842471    0.09892842471    0.09892842471
   0.09927312261    0.09927312261    0.09927312261
   0.09961782069    0.09961782069    0.09961782069
   0.0999625189    0.0999625189    0.0999625189
   0.1003072172    0.1003072172    0.1003072172
   0.1006519155    0.1006519155    0.1006519155
   0.1009966139    0.1009966139    0.1009966139
   0.1013413123    0.1013413123    0.1013413123
   0.1016860106    0.1016860106    0.1016860106
   0.1020307088    0.1020307088    0.1020307088
   0.102375407    0.102375407    0.102375407
   0.1027201052    0.1027201052    0.1027201052
   0.1030648035    0.1030648035    0.1030648035
   0.1034095018    0.1034095018    0.1034095018
   0.1037542003    0.1037542003    0.1037542003
   0.1040988991    0.1040988991    0.1040988991
   0.1044435981    0.1044435981    0.1044435981
   0.1047882972    0.1047882972    0.1047882972
   0.1051329963    0.1051329963    0.1051329963
   0.1054776954    0.1054776954    0.1054776954
   0.1058223943    0.1058223943    0.1058223943
   0.106167093    0.106167093    0.106167093
   0.1065117916    0.1065117916    0.1065117916
   0.10685649    0.10685649    0.10685649
   0.1072011883    0.1072011883    0.1072011883
   0.1075458865    0.1075458865    0.1075458865
   0.1078905846    0.1078905846    0.1078905846
   0.1082352827    0.1082352827    0.1082352827
   0.1085799807    0.1085799807    0.1085799807
   0.1089246785    0.1089246785    0.1089246785
   0.1092693762    0.1092693762    0.1092693762
   0.1096140739    0.1096140739    0.1096140739
   0.1099587717    0.1099587717    0.1099587717
   0.1103034696    0.1103034696    0.1103034696
   0.1106481676    0.1106481676    0.1106481676
   0.1109928658    0.1109928658    0.1109928658
   0.1113375641    0.1113375641    0.1113375641
   0.1116822625    0.1116822625    0.1116822625
   0.1120269609    0.1120269609    0.1120269609
   0.1123716592    0.1123716592    0.1123716592
   0.1127163576    0.1127163576    0.1127163576
   0.1130610558    0.1130610558    0.1130610558
   0.113405754    0.113405754    0.113405754
   0.1137504522    0.1137504522    0.1137504522
   0.1140951504    0.1140951504    0.1140951504
   0.1144398488    0.1144398488    0.1144398488
   0.1147845473    0.1147845473    0.1147845473
   0.115129246    0.115129246    0.115129246
   0.115473945    0.115473945    0.115473945
   0.1158186441    0.1158186441    0.1158186441
   0.1161633432    0.1161633432    0.1161633432
   0.1165080423    0.1165080423    0.1165080423
   0.1168527413    0.1168527413    0.1168527413
   0.1171974399    0.1171974399    0.1171974399
   0.1175421382    0.1175421382    0.1175421382
   0.1178868361    0.1178868361    0.1178868361
   0.118231534    0.118231534    0.118231534
   0.1185762321    0.1185762321    0.1185762321
   0.1189209305    0.1189209305    0.1189209305
   0.1192656296    0.1192656296    0.1192656296
   0.1196103296    0.1196103296    0.1196103296
   0.1199550305    0.1199550305    0.1199550305
   0.1202997318    0.1202997318    0.1202997318
   0.1206444332    0.1206444332    0.1206444332
   0.1209891341    0.1209891341    0.1209891341
   0.121333834    0.121333834    0.121333834
   0.1216785326    0.1216785326    0.1216785326
   0.12202323    0.12202323    0.12202323
   0.1223679264    0.1223679264    0.1223679264
   0.1227126225    0.1227126225    0.1227126225
   0.1230573184    0.1230573184    0.1230573184
   0.1234020147    0.1234020147    0.1234020147
   0.1237467118    0.1237467118    0.1237467118
   0.1240914096    0.1240914096    0.1240914096
   0.1244361076    0.1244361076    0.1244361076
   0.1247808059    0.1247808059    0.1247808059
   0.1251255044    0.1251255044    0.1251255044
   0.125470203    0.125470203    0.125470203
   0.1258149017    0.1258149017    0.1258149017
   0.1261596004    0.1261596004    0.1261596004
   0.1265042993    0.1265042993    0.1265042993
   0.1268489984    0.1268489984    0.1268489984
   0.1271936976    0.1271936976    0.1271936976
   0.1275383967    0.1275383967    0.1275383967
   0.1278830956    0.1278830956    0.1278830956
   0.1282277943    0.1282277943    0.1282277943
   0.1285724928    0.1285724928    0.1285724928
   0.1289171912    0.1289171912    0.1289171912
   0.1292618894    0.1292618894    0.1292618894
   0.1296065876    0.1296065876    0.1296065876
   0.1299512858    0.1299512858    0.1299512858
   0.130295984    0.130295984    0.130295984
   0.1306406824    0.1306406824    0.1306406824
   0.130985381    0.130985381    0.130985381
   0.1313300795    0.1313300795    0.1313300795
   0.131674778    0.131674778    0.131674778
   0.1320194763    0.1320194763    0.1320194763
   0.1323641742    0.1323641742    0.1323641742
   0.1327088717    0.1327088717    0.1327088717
   0.1330535685    0.1330535685    0.1330535685
   0.1333982649    0.1333982649    0.1333982649
   0.1337429612    0.1337429612    0.1337429612
   0.1340876575    0.1340876575    0.1340876575
   0.1344323542    0.1344323542    0.1344323542
   0.1347770514    0.1347770514    0.1347770514
   0.1351217491    0.1351217491    0.1351217491
   0.1354664471    0.1354664471    0.1354664471
   0.1358111454    0.1358111454    0.1358111454
   0.1361558439    0.1361558439    0.1361558439
   0.1365005425    0.1365005425    0.1365005425
   0.1368452411    0.1368452411    0.1368452411
   0.1371899399    0.1371899399    0.1371899399
   0.1375346388    0.1375346388    0.1375346388
   0.1378793379    0.1378793379    0.1378793379
   0.138224037    0.138224037    0.138224037
   0.1385687361    0.1385687361    0.1385687361
   0.1389134351    0.1389134351    0.1389134351
   0.1392581338    0.1392581338    0.1392581338
   0.1396028321    0.1396028321    0.1396028321
   0.1399475301    0.1399475301    0.1399475301
   0.140292228    0.140292228    0.140292228
   0.140636926    0.140636926    0.140636926
   0.1409816244    0.1409816244    0.1409816244
   0.1413263234    0.1413263234    0.1413263234
   0.1416710233    0.1416710233    0.1416710233
   0.1420157241    0.1420157241    0.1420157241
   0.1423604255    0.1423604255    0.1423604255
   0.1427051268    0.1427051268    0.1427051268
   0.1430498278    0.1430498278    0.1430498278
   0.1433945278    0.1433945278    0.1433945278
   0.1437392266    0.1437392266    0.1437392266
   0.144083924    0.144083924    0.144083924
   0.1444286205    0.1444286205    0.1444286205
   0.1447733165    0.1447733165    0.1447733165
   0.1451180125    0.1451180125    0.1451180125
   0.1454627088    0.1454627088    0.1454627088
   0.1458074058    0.1458074058    0.1458074058
   0.1461521037    0.1461521037    0.1461521037
   0.146496802    0.146496802    0.146496802
   0.1468415007    0.1468415007    0.1468415007
   0.1471861994    0.1471861994    0.1471861994
   0.1475308978    0.1475308978    0.1475308978
   0.1478755959    0.1478755959    0.1478755959
   0.1482202933    0.1482202933    0.1482202933
   0.1485649901    0.1485649901    0.1485649901
   0.1489096865    0.1489096865    0.1489096865
   0.1492543827    0.1492543827    0.1492543827
   0.1495990791    0.1495990791    0.1495990791
   0.1499437758    0.1499437758    0.1499437758
   0.1502884731    0.1502884731    0.1502884731
   0.1506331709    0.1506331709    0.1506331709
   0.1509778691    0.1509778691    0.1509778691
   0.1513225675    0.1513225675    0.1513225675
   0.151667266    0.151667266    0.151667266
   0.1520119646    0.1520119646    0.1520119646
   0.152356663    0.152356663    0.152356663
   0.1527013613    0.1527013613    0.1527013613
   0.1530460595    0.1530460595    0.1530460595
   0.1533907577    0.1533907577    0.1533907577
   0.1537354559    0.1537354559    0.1537354559
   0.1540801542    0.1540801542    0.1540801542
   0.1544248527    0.1544248527    0.1544248527
   0.1547695513    0.1547695513    0.1547695513
   0.1551142502    0.1551142502    0.1551142502
   0.1554589493    0.1554589493    0.1554589493
   0.1558036484    0.1558036484    0.1558036484
   0.1561483475    0.1561483475    0.1561483475
   0.1564930465    0.1564930465    0.1564930465
   0.1568377453    0.1568377453    0.1568377453
   0.1571824438    0.1571824438    0.1571824438
   0.1575271421    0.1575271421    0.1575271421
   0.1578718403    0.1578718403    0.1578718403
   0.1582165384    0.1582165384    0.1582165384
   0.1585612366    0.1585612366    0.1585612366
   0.158905935    0.158905935    0.158905935
   0.1592506337    0.1592506337    0.1592506337
   0.1595953326    0.1595953326    0.1595953326
   0.1599400317    0.1599400317    0.1599400317
   0.1602847309    0.1602847309    0.1602847309
   0.16062943    0.16062943    0.16062943
   0.1609741289    0.1609741289    0.1609741289
   0.1613188277    0.1613188277    0.1613188277
   0.1616635262    0.1616635262    0.1616635262
   0.1620082246    0.1620082246    0.1620082246
   0.1623529228    0.1623529228    0.1623529228
   0.162697621    0.162697621    0.162697621
   0.1630423192    0.1630423192    0.1630423192
   0.1633870174    0.1633870174    0.1633870174
   0.1637317157    0.1637317157    0.1637317157
   0.1640764139    0.1640764139    0.1640764139
   0.1644211121    0.1644211121    0.1644211121
   0.1647658103    0.1647658103    0.1647658103
   0.1651105086    0.1651105086    0.1651105086
