ACES2Looks/ACEScct_LUT/T-ARRI_Classic_Tone.spi1d
Version 1
From 0 1.4679964
Length 4096
Components 1
{
		 0
		 0.0003584304901
		 0.0007168609872
		 0.00107529149
		 0.001433721998
		 0.001792152509
		 0.002150583023
		 0.002509013596
		 0.002867444398
		 0.003225875289
		 0.0035843061
		 0.003942736658
		 0.004301166792
		 0.004659596319
		 0.005018024781
		 0.005376452385
		 0.00573487965
		 0.006093307089
		 0.00645173522
		 0.006810164558
		 0.007168595635
		 0.007527028368
		 0.007885462081
		 0.008243896084
		 0.008602329691
		 0.008960762211
		 0.009319192991
		 0.009677622076
		 0.01003605001
		 0.01039447732
		 0.01075290454
		 0.01111133218
		 0.01146976078
		 0.01182819042
		 0.01218662065
		 0.01254505128
		 0.01290348214
		 0.01326191307
		 0.01362034388
		 0.01397877451
		 0.01433720532
		 0.01469563623
		 0.01505406706
		 0.01541249766
		 0.01577092785
		 0.01612935747
		 0.01648778623
		 0.01684621428
		 0.01720464197
		 0.01756306963
		 0.01792149762
		 0.01827992627
		 0.0186383558
		 0.01899678596
		 0.01935521655
		 0.01971364739
		 0.0200720783
		 0.02043050909
		 0.02078893962
		 0.02114737019
		 0.02150580082
		 0.02186423139
		 0.02222266179
		 0.02258109188
		 0.02293952156
		 0.0232979506
		 0.023656379
		 0.02401480704
		 0.02437323499
		 0.02473166315
		 0.02509009179
		 0.02544852113
		 0.02580695097
		 0.02616538117
		 0.02652381162
		 0.02688224223
		 0.02724067288
		 0.02759910347
		 0.0279575343
		 0.02831596542
		 0.02867439661
		 0.02903282765
		 0.0293912583
		 0.02974968834
		 0.0301081174
		 0.03046654523
		 0.03082497237
		 0.0311833994
		 0.03154182689
		 0.03190025542
		 0.03225868557
		 0.0326171177
		 0.03297555126
		 0.0333339855
		 0.03369241967
		 0.03405085306
		 0.03440928491
		 0.03476771479
		 0.03512614318
		 0.03548457064
		 0.0358429977
		 0.0362014249
		 0.03655985279
		 0.03691828181
		 0.03727671152
		 0.03763514169
		 0.03799357218
		 0.03835200286
		 0.03871043358
		 0.0390688642
		 0.03942729484
		 0.0397857256
		 0.04014415643
		 0.04050258727
		 0.04086101806
		 0.04121944874
		 0.04157787934
		 0.04193631004
		 0.04229474074
		 0.0426531713
		 0.04301160158
		 0.04337003145
		 0.04372846074
		 0.04408688911
		 0.04444531677
		 0.0448037441
		 0.04516217152
		 0.04552059942
		 0.0458790282
		 0.04623745813
		 0.04659588894
		 0.04695432033
		 0.04731275201
		 0.04767118369
		 0.04802961507
		 0.04838804593
		 0.04874647659
		 0.04910490713
		 0.04946333753
		 0.04982176777
		 0.05018019782
		 0.05053862765
		 0.05089705722
		 0.0512554865
		 0.0516139156
		 0.0519723446
		 0.05233077357
		 0.05268920259
		 0.0530476317
		 0.05340606071
		 0.05376448968
		 0.05412291868
		 0.05448134782
		 0.05483977716
		 0.05519820679
		 0.05555663677
		 0.05591506705
		 0.0562734975
		 0.05663192802
		 0.0569903585
		 0.05734878883
		 0.05770721901
		 0.05806564918
		 0.05842407932
		 0.05878250939
		 0.05914093934
		 0.05949936914
		 0.05985779874
		 0.06021622799
		 0.060574657
		 0.06093308591
		 0.06129151487
		 0.06164994402
		 0.06200837352
		 0.06236680334
		 0.06272523334
		 0.06308366353
		 0.0634420939
		 0.06380052445
		 0.06415895518
		 0.06451738614
		 0.06487581755
		 0.06523424925
		 0.06559268106
		 0.06595111277
		 0.0663095442
		 0.06666797515
		 0.06702640579
		 0.06738483624
		 0.06774326646
		 0.06810169641
		 0.06846012604
		 0.06881855533
		 0.06917698405
		 0.06953541192
		 0.06989383932
		 0.07025226664
		 0.0706106943
		 0.07096912269
		 0.07132755222
		 0.071685983
		 0.07204441467
		 0.0724028468
		 0.07276127897
		 0.07311971074
		 0.07347814169
		 0.07383657172
		 0.07419500118
		 0.07455343025
		 0.07491185908
		 0.07527028786
		 0.07562871675
		 0.07598714582
		 0.07634557473
		 0.07670400356
		 0.07706243244
		 0.07742086153
		 0.07777929097
		 0.07813772091
		 0.07849615159
		 0.07885458288
		 0.07921301449
		 0.07957144613
		 0.0799298775
		 0.08028830831
		 0.08064673832
		 0.08100516769
		 0.08136359665
		 0.08172202541
		 0.08208045423
		 0.08243888333
		 0.08279731293
		 0.08315574303
		 0.08351417347
		 0.08387260406
		 0.08423103463
		 0.08458946502
		 0.08494789505
		 0.08530632454
		 0.08566475357
		 0.08602318236
		 0.08638161114
		 0.08674004016
		 0.08709846962
		 0.0874568998
		 0.08781533084
		 0.08817376242
		 0.0885321942
		 0.0888906258
		 0.08924905689
		 0.08960748709
		 0.08996591623
		 0.09032434457
		 0.09068277244
		 0.09104120018
		 0.09139962811
		 0.09175805657
		 0.09211648578
		 0.09247491546
		 0.09283334546
		 0.09319177567
		 0.09355020596
		 0.09390863621
		 0.09426706629
		 0.09462549625
		 0.09498392616
		 0.09534235608
		 0.09570078604
		 0.0960592161
		 0.09641764629
		 0.0967760767
		 0.09713450732
		 0.09749293807
		 0.09785136885
		 0.09820979957
		 0.09856823014
		 0.09892666049
		 0.0992850907
		 0.09964352083
		 0.1000019509
		 0.1003603808
		 0.1007188106
		 0.1010772404
		 0.10143567
		 0.1017940995
		 0.1021525288
		 0.1025109582
		 0.1028693876
		 0.1032278171
		 0.1035862468
		 0.1039446767
		 0.1043031067
		 0.1046615368
		 0.1050199669
		 0.105378397
		 0.105736827
		 0.1060952571
		 0.1064536872
		 0.1068121173
		 0.1071705473
		 0.1075289773
		 0.1078874071
		 0.1082458368
		 0.1086042663
		 0.1089626956
		 0.109321125
		 0.1096795544
		 0.1100379839
		 0.1103964136
		 0.1107548434
		 0.1111132733
		 0.1114717032
		 0.1118301333
		 0.1121885635
		 0.1125469937
		 0.1129054242
		 0.113263855
		 0.113622286
		 0.1139807169
		 0.1143391475
		 0.1146975778
		 0.1150560074
		 0.1154144364
		 0.1157728649
		 0.1161312932
		 0.1164897217
		 0.1168481506
		 0.1172065804
		 0.117565011
		 0.1179234422
		 0.1182818738
		 0.1186403055
		 0.1189987369
		 0.1193571677
		 0.119715598
		 0.1200740278
		 0.1204324573
		 0.1207908867
		 0.1211493159
		 0.121507745
		 0.1218661741
		 0.1222246028
		 0.1225830313
		 0.1229414598
		 0.1232998884
		 0.1236583174
		 0.124016747
		 0.1243751774
		 0.1247336086
		 0.1250920401
		 0.1254504718
		 0.1258089033
		 0.1261673343
		 0.1265257646
		 0.1268841942
		 0.1272426234
		 0.1276010525
		 0.1279594816
		 0.1283179111
		 0.1286763411
		 0.1290347719
		 0.1293932032
		 0.1297516347
		 0.1301100663
		 0.1304684976
		 0.1308269285
		 0.1311853587
		 0.1315437886
		 0.1319022181
		 0.1322606475
		 0.1326190766
		 0.1329775058
		 0.1333359349
		 0.1336943637
		 0.1340527922
		 0.1344112206
		 0.1347696492
		 0.1351280782
		 0.1354865078
		 0.1358449382
		 0.1362033693
		 0.1365618008
		 0.1369202325
		 0.137278664
		 0.137637095
		 0.1379955254
		 0.1383539553
		 0.1387123849
		 0.1390708143
		 0.1394292435
		 0.1397876727
		 0.1401461018
		 0.1405045308
		 0.1408629596
		 0.1412213883
		 0.141579817
		 0.1419382458
		 0.1422966747
		 0.1426551039
		 0.143013533
		 0.1433719622
		 0.1437303915
		 0.1440888211
		 0.1444472509
		 0.1448056811
		 0.1451641118
		 0.1455225429
		 0.1458809742
		 0.1462394056
		 0.146597837
		 0.1469562684
		 0.1473146997
		 0.1476731315
		 0.1480315633
		 0.1483899949
		 0.148748426
		 0.1491068563
		 0.1494652855
		 0.1498237131
		 0.1501821397
		 0.1505405659
		 0.1508989922
		 0.1512574193
		 0.1516158477
		 0.1519742776
		 0.1523327086
		 0.1526911402
		 0.1530495721
		 0.1534080039
		 0.153766435
		 0.1541248653
		 0.1544832952
		 0.1548417248
		 0.1552001541
		 0.1555585833
		 0.1559170125
		 0.1562754416
		 0.1566338704
		 0.1569922989
		 0.1573507274
		 0.1577091559
		 0.1580675849
		 0.1584260144
		 0.1587844447
		 0.1591428758
		 0.1595013073
		 0.1598597389
		 0.1602181705
		 0.1605766016
		 0.160935032
		 0.1612934617
		 0.1616518909
		 0.16201032
		 0.1623687491
		 0.1627271785
		 0.1630856085
		 0.1634440391
		 0.1638024704
		 0.1641609019
		 0.1645193335
		 0.1648777648
		 0.1652361958
		 0.1655946261
		 0.165953056
		 0.1663114856
		 0.1666699149
		 0.1670283441
		 0.1673867732
		 0.1677452024
		 0.1681036312
		 0.1684620597
		 0.1688204882
		 0.1691789167
		 0.1695373457
		 0.1698957752
		 0.1702542054
		 0.1706126365
		 0.1709710679
		 0.1713294996
		 0.1716879312
		 0.1720463623
		 0.1724048735
		 0.1727641611
		 0.1731239089
		 0.1734835189
		 0.1738423928
		 0.1741999326
		 0.17455554
		 0.1749097608
		 0.1752633665
		 0.1756157949
		 0.1759664815
		 0.176314862
		 0.176660372
		 0.1770022673
		 0.1773398304
		 0.1776741582
		 0.1780065316
		 0.178338231
		 0.178670537
		 0.1790047081
		 0.1793402972
		 0.179676402
		 0.1800127575
		 0.1803490986
		 0.1806851604
		 0.1810206777
		 0.1813555766
		 0.181690199
		 0.1820245245
		 0.1823585102
		 0.1826921128
		 0.1830252894
		 0.1833580017
		 0.183690286
		 0.1840221622
		 0.1843536327
		 0.1846846995
		 0.185015365
		 0.1853456315
		 0.1856733869
		 0.1859974028
		 0.18632041
		 0.1866451607
		 0.1869744072
		 0.1873109017
		 0.1876565111
		 0.1880078857
		 0.1883645647
		 0.1887268237
		 0.1890949382
		 0.1894691839
		 0.1898498662
		 0.190240172
		 0.1906398638
		 0.1910457423
		 0.1914546084
		 0.1918632628
		 0.1922685065
		 0.192668937
		 0.19306827
		 0.1934668296
		 0.1938646295
		 0.1942616831
		 0.194658004
		 0.1950536038
		 0.195448461
		 0.1958425723
		 0.1962359465
		 0.1966285924
		 0.1970205187
		 0.1974117343
		 0.197802232
		 0.1981919967
		 0.1985810389
		 0.1989693694
		 0.1993569991
		 0.1997439388
		 0.2001301942
		 0.2005157408
		 0.2009005831
		 0.2012847328
		 0.2016682012
		 0.2020509998
		 0.2024331401
		 0.2028146073
		 0.2031953911
		 0.2035755021
		 0.2039549509
		 0.2043337479
		 0.2047119037
		 0.2050894207
		 0.2054662801
		 0.2058424866
		 0.2062180472
		 0.2065929689
		 0.2069672589
		 0.2073409234
		 0.2077139486
		 0.2080863331
		 0.2084580838
		 0.2088292081
		 0.2091997128
		 0.2095696053
		 0.2099388795
		 0.2103075206
		 0.2106755391
		 0.2110429461
		 0.2114097528
		 0.2117759703
		 0.2121416064
		 0.2125066422
		 0.212871078
		 0.2132349202
		 0.2135981753
		 0.2139608494
		 0.2143229491
		 0.2146844628
		 0.2150453828
		 0.2154057197
		 0.2157654841
		 0.2161246864
		 0.2164833372
		 0.2168414423
		 0.2171989887
		 0.2175559754
		 0.2179124032
		 0.2182682727
		 0.2186235849
		 0.2189783398
		 0.2193325234
		 0.2196861379
		 0.2200391955
		 0.2203917083
		 0.2207436884
		 0.221095148
		 0.2214460881
		 0.2217964925
		 0.222146364
		 0.222495706
		 0.2228445218
		 0.223192815
		 0.2235405871
		 0.2238878248
		 0.2242345315
		 0.2245807159
		 0.2249263865
		 0.2252715519
		 0.2256162206
		 0.2259593588
		 0.2263005871
		 0.226641111
		 0.226982137
		 0.2273248716
		 0.2276705212
		 0.2280198376
		 0.2283714114
		 0.2287250381
		 0.2290807495
		 0.2294385768
		 0.2297985517
		 0.2301607371
		 0.2305265246
		 0.2308957171
		 0.2312670237
		 0.2316391538
		 0.2320108166
		 0.2323807212
		 0.2327484296
		 0.2331154212
		 0.2334817901
		 0.2338475463
		 0.2342126993
		 0.2345772589
		 0.234941233
		 0.2353046047
		 0.235667373
		 0.2360295448
		 0.2363911266
		 0.2367521253
		 0.2371125475
		 0.2374723846
		 0.2378316256
		 0.2381902809
		 0.2385483607
		 0.2389058755
		 0.2392628357
		 0.2396192466
		 0.2399750897
		 0.2403303675
		 0.2406850863
		 0.2410392523
		 0.2413928721
		 0.2417459518
		 0.2420984816
		 0.2424504572
		 0.2428018848
		 0.2431527705
		 0.2435031206
		 0.2438529412
		 0.2442022308
		 0.244550975
		 0.2448991808
		 0.2452468568
		 0.2455940115
		 0.2459406534
		 0.2462867897
		 0.2466324075
		 0.2469775048
		 0.2473220864
		 0.2476661572
		 0.2480097219
		 0.2483527853
		 0.2486953417
		 0.2490373817
		 0.2493789133
		 0.2497199452
		 0.2500604855
		 0.2504005428
		 0.2507401223
		 0.2510792102
		 0.2514178071
		 0.2517559173
		 0.2520935447
		 0.2524306935
		 0.2527673678
		 0.253103558
		 0.2534392607
		 0.2537744833
		 0.2541092338
		 0.2544435196
		 0.2547773487
		 0.2551107231
		 0.2554436304
		 0.2557760729
		 0.2561080544
		 0.2564395786
		 0.2567706493
		 0.2571012695
		 0.257431429
		 0.2577611278
		 0.2580903724
		 0.2584191691
		 0.2587475242
		 0.2590754441
		 0.2594013652
		 0.2597238567
		 0.2600452191
		 0.2603678149
		 0.2606940067
		 0.2610261573
		 0.2613664857
		 0.2617147477
		 0.2620689805
		 0.262427232
		 0.2627875503
		 0.2631479832
		 0.2635065806
		 0.2638643799
		 0.2642231262
		 0.2645823578
		 0.2649416129
		 0.2653004298
		 0.2656583466
		 0.2660151073
		 0.2663712423
		 0.2667268234
		 0.2670818562
		 0.2674363464
		 0.2677902996
		 0.2681437207
		 0.2684965953
		 0.2688489226
		 0.2692007116
		 0.2695519713
		 0.269902711
		 0.2702529395
		 0.2706026543
		 0.2709518394
		 0.2713005022
		 0.2716486508
		 0.2719962933
		 0.2723434376
		 0.2726900897
		 0.2730362358
		 0.2733818758
		 0.2737270147
		 0.2740716575
		 0.2744158091
		 0.2747594744
		 0.2751026463
		 0.2754453184
		 0.2757874976
		 0.2761291909
		 0.2764704055
		 0.2768111484
		 0.2771514216
		 0.2774912101
		 0.277830518
		 0.2781693522
		 0.2785077193
		 0.2788456263
		 0.2791830796
		 0.2795200697
		 0.279856593
		 0.2801926543
		 0.2805282581
		 0.2808634091
		 0.2811981119
		 0.2815323643
		 0.281866156
		 0.2821994928
		 0.2825323815
		 0.2828648287
		 0.283196841
		 0.2835284234
		 0.2838595613
		 0.2841902556
		 0.2845205134
		 0.2848503417
		 0.2851797474
		 0.2855087377
		 0.2858373097
		 0.2861654556
		 0.2864931779
		 0.2868204793
		 0.2871473622
		 0.2874738295
		 0.2877992279
		 0.2881210484
		 0.2884410479
		 0.2887615619
		 0.2890849259
		 0.2894134752
		 0.2897495122
		 0.2900922643
		 0.290440054
		 0.2907924193
		 0.2911488981
		 0.2915090282
		 0.2918723475
		 0.2922396316
		 0.2926130551
		 0.2929908776
		 0.2933711488
		 0.2937519183
		 0.2941312358
		 0.2945073598
		 0.2948820062
		 0.2952560639
		 0.2956295408
		 0.2960024448
		 0.296374784
		 0.2967465664
		 0.2971177834
		 0.2974884213
		 0.2978584914
		 0.2982280052
		 0.2985969741
		 0.2989654096
		 0.2993333182
		 0.2997006796
		 0.3000674959
		 0.300433774
		 0.3007995211
		 0.3011647441
		 0.3015294501
		 0.3018936295
		 0.3022572766
		 0.3026203979
		 0.3029829995
		 0.3033450878
		 0.3037066691
		 0.3040677421
		 0.304428291
		 0.3047883234
		 0.3051478488
		 0.3055068765
		 0.3058654161
		 0.3062234756
		 0.3065810386
		 0.3069381032
		 0.3072946767
		 0.3076507667
		 0.3080063806
		 0.3083615259
		 0.3087161995
		 0.3090703901
		 0.309424103
		 0.3097773441
		 0.3101301188
		 0.310482433
		 0.3108342896
		 0.3111856746
		 0.3115365909
		 0.3118870455
		 0.3122370454
		 0.3125865975
		 0.3129357088
		 0.3132843718
		 0.3136325799
		 0.3139803386
		 0.3143276531
		 0.3146745289
		 0.3150209711
		 0.3153667417
		 0.3157112335
		 0.3160549746
		 0.3163985883
		 0.3167426978
		 0.3170879265
		 0.3174346546
		 0.3177778899
		 0.3181183999
		 0.3184601582
		 0.3188071383
		 0.3191633138
		 0.3195326582
		 0.3199188668
		 0.3203206065
		 0.3207332241
		 0.3211520324
		 0.3215723439
		 0.3219894711
		 0.3223996133
		 0.322807518
		 0.3232147825
		 0.3236214189
		 0.3240274395
		 0.3244328565
		 0.3248376819
		 0.3252419046
		 0.3256455113
		 0.3260485115
		 0.3264509143
		 0.3268527291
		 0.3272539652
		 0.3276546237
		 0.3280546814
		 0.3284541468
		 0.3288530324
		 0.3292513507
		 0.3296491143
		 0.3300463349
		 0.3304429979
		 0.3308390966
		 0.3312346368
		 0.3316296243
		 0.3320240648
		 0.3324179642
		 0.3328113176
		 0.3332041098
		 0.3335963514
		 0.333988054
		 0.3343792289
		 0.3347698877
		 0.335160039
		 0.335549662
		 0.3359387568
		 0.3363273315
		 0.3367153945
		 0.3371029541
		 0.3374900186
		 0.3378765807
		 0.3382626299
		 0.3386481736
		 0.3390332192
		 0.3394177741
		 0.3398018457
		 0.3401854368
		 0.340568532
		 0.3409511348
		 0.341333252
		 0.3417148903
		 0.3420960565
		 0.3424767569
		 0.3428569772
		 0.3432367138
		 0.3436159765
		 0.3439947748
		 0.3443731184
		 0.3447510171
		 0.3451280407
		 0.3455034805
		 0.3458781221
		 0.3462528196
		 0.3466284274
		 0.3470057998
		 0.3473855286
		 0.3477650658
		 0.3481447387
		 0.3485260689
		 0.3489105778
		 0.349299787
		 0.3496952179
		 0.3500986885
		 0.3505097215
		 0.3509259091
		 0.3513448364
		 0.3517640884
		 0.3521812502
		 0.3525946206
		 0.3530068651
		 0.3534185678
		 0.3538297366
		 0.354240379
		 0.354650503
		 0.3550601161
		 0.3554692
		 0.3558777493
		 0.3562857778
		 0.3566932993
		 0.3571003277
		 0.3575068769
		 0.3579129515
		 0.3583185325
		 0.3587236214
		 0.3591282214
		 0.3595323356
		 0.3599359672
		 0.3603391183
		 0.3607417727
		 0.3611439334
		 0.3615456118
		 0.3619468196
		 0.3623475681
		 0.3627478688
		 0.3631477181
		 0.3635471002
		 0.3639460213
		 0.3643444877
		 0.3647425061
		 0.3651400827
		 0.3655372208
		 0.3659339048
		 0.3663301379
		 0.366725928
		 0.3671212829
		 0.3675162105
		 0.3679107184
		 0.3683047962
		 0.3686984369
		 0.3690916481
		 0.3694844374
		 0.3698768127
		 0.3702687814
		 0.3706603462
		 0.3710514944
		 0.3714422284
		 0.3718325518
		 0.3722224683
		 0.3726119814
		 0.3730010942
		 0.3733897931
		 0.3737780789
		 0.3741659611
		 0.3745534489
		 0.3749405519
		 0.3753272793
		 0.3757128101
		 0.3760963243
		 0.376479063
		 0.3768623074
		 0.377247339
		 0.3776354392
		 0.378027802
		 0.3784242202
		 0.3788236845
		 0.3792252231
		 0.3796278645
		 0.3800306371
		 0.3804325696
		 0.3808342166
		 0.3812364938
		 0.3816390865
		 0.3820416803
		 0.3824439606
		 0.3828456127
		 0.3832464546
		 0.3836468436
		 0.3840468341
		 0.3844464331
		 0.3848456473
		 0.3852444835
		 0.3856429479
		 0.3860410259
		 0.3864387156
		 0.3868360255
		 0.3872329644
		 0.387629541
		 0.388025764
		 0.388421634
		 0.3888171393
		 0.3892122821
		 0.3896070649
		 0.3900014904
		 0.3903955612
		 0.3907892782
		 0.3911826279
		 0.3915756144
		 0.3919682473
		 0.3923605357
		 0.3927524892
		 0.3931441171
		 0.3935354144
		 0.393926371
		 0.394316991
		 0.3947072783
		 0.3950972372
		 0.3954868716
		 0.3958761818
		 0.3962651554
		 0.3966537975
		 0.3970421155
		 0.3974301168
		 0.3978178091
		 0.3982051994
		 0.3985922799
		 0.3989790461
		 0.399365501
		 0.3997516477
		 0.4001374893
		 0.4005230288
		 0.400908262
		 0.4012931773
		 0.401677784
		 0.4020620919
		 0.4024461113
		 0.4028298522
		 0.4032133053
		 0.4035962808
		 0.4039788493
		 0.4043611658
		 0.4047433851
		 0.4051256621
		 0.4055081516
		 0.4058908875
		 0.4062737369
		 0.4066566448
		 0.4070395573
		 0.4074224201
		 0.4078051791
		 0.408187821
		 0.4085705031
		 0.408953172
		 0.4093357382
		 0.4097181125
		 0.4101002055
		 0.410481929
		 0.4108633248
		 0.4112444577
		 0.4116253314
		 0.4120059497
		 0.4123863163
		 0.412766435
		 0.4131463039
		 0.4135259125
		 0.413905267
		 0.4142843744
		 0.414663242
		 0.4150418768
		 0.4154202849
		 0.4157984558
		 0.4161763878
		 0.4165540846
		 0.4169315498
		 0.4173087872
		 0.4176858006
		 0.4180625863
		 0.4184391377
		 0.4188154599
		 0.4191915582
		 0.4195674379
		 0.4199431043
		 0.4203185604
		 0.4206937968
		 0.4210688144
		 0.4214436166
		 0.4218182067
		 0.4221925881
		 0.4225667641
		 0.4229407264
		 0.4233144718
		 0.4236880075
		 0.4240613402
		 0.4244344771
		 0.4248074251
		 0.4251801853
		 0.4255527451
		 0.4259251079
		 0.426297279
		 0.4266692633
		 0.4270410661
		 0.4274126918
		 0.4277841341
		 0.428155391
		 0.4285264646
		 0.4288973568
		 0.4292680698
		 0.4296386056
		 0.4300091288
		 0.4303797869
		 0.430750338
		 0.4311205339
		 0.4314901262
		 0.4318588665
		 0.4322265392
		 0.4325932763
		 0.4329592253
		 0.4333244982
		 0.4336892072
		 0.4340534644
		 0.4344173817
		 0.4347807786
		 0.4351435341
		 0.4355058028
		 0.4358677389
		 0.4362294969
		 0.4365912312
		 0.436953025
		 0.4373146949
		 0.437676222
		 0.4380376108
		 0.4383988658
		 0.4387599913
		 0.4391209914
		 0.4394818569
		 0.4398425865
		 0.4402031856
		 0.4405636593
		 0.440924013
		 0.4412842519
		 0.4416443752
		 0.4420043745
		 0.442364253
		 0.4427240139
		 0.4430836609
		 0.4434431971
		 0.4438026247
		 0.4441619343
		 0.4445211276
		 0.4448802098
		 0.4452391859
		 0.445598061
		 0.4459568403
		 0.4463155182
		 0.4466740887
		 0.4470325567
		 0.4473909276
		 0.4477492062
		 0.4481073978
		 0.4484655039
		 0.4488235141
		 0.449181431
		 0.4495392591
		 0.4498970032
		 0.4502546677
		 0.4506122571
		 0.4509697661
		 0.4513271922
		 0.4516845374
		 0.4520418038
		 0.4523989934
		 0.4527561084
		 0.4531131457
		 0.4534700979
		 0.4538269711
		 0.4541837719
		 0.4545405069
		 0.4548971828
		 0.455253841
		 0.4556108085
		 0.4559679378
		 0.456324943
		 0.4566815379
		 0.4570374366
		 0.457392353
		 0.457746134
		 0.4580989782
		 0.4584511064
		 0.4588027394
		 0.4591540982
		 0.4595054035
		 0.4598567806
		 0.4602078951
		 0.4605587599
		 0.4609094548
		 0.4612600596
		 0.4616106543
		 0.4619613171
		 0.4623120004
		 0.4626626484
		 0.4630132652
		 0.4633638548
		 0.4637144213
		 0.4640649688
		 0.4644154968
		 0.464765997
		 0.465116473
		 0.4654669289
		 0.465817369
		 0.4661677975
		 0.4665182176
		 0.4668686174
		 0.4672189982
		 0.4675693666
		 0.4679197296
		 0.468270094
		 0.4686204666
		 0.4689708474
		 0.4693212292
		 0.4696716122
		 0.4700219963
		 0.4703723819
		 0.470722769
		 0.4710731555
		 0.4714235301
		 0.4717738998
		 0.4721242746
		 0.4724746641
		 0.4728250783
		 0.4731755269
		 0.4735260035
		 0.4738765005
		 0.4742270198
		 0.4745775636
		 0.4749281338
		 0.4752787325
		 0.4756293582
		 0.4759800031
		 0.4763306723
		 0.4766813714
		 0.4770321063
		 0.4773828827
		 0.4777337069
		 0.4780845893
		 0.4784355223
		 0.4787864928
		 0.4791374876
		 0.4794884937
		 0.4798394979
		 0.4801906865
		 0.480542231
		 0.4808938628
		 0.4812453072
		 0.4815962892
		 0.4819465342
		 0.4822957697
		 0.4826439418
		 0.4829913294
		 0.4833382371
		 0.4836849693
		 0.4840318306
		 0.4843791249
		 0.4847267444
		 0.4850744349
		 0.4854221999
		 0.4857700427
		 0.4861179667
		 0.4864659753
		 0.4868140682
		 0.4871622363
		 0.4875104836
		 0.4878588156
		 0.4882072378
		 0.4885557555
		 0.4889043737
		 0.489253083
		 0.4896018814
		 0.489950774
		 0.4902997653
		 0.4906488601
		 0.4909980633
		 0.4913473726
		 0.4916967792
		 0.492046288
		 0.492395904
		 0.4927456324
		 0.4930954782
		 0.4934454441
		 0.4937955155
		 0.4941456955
		 0.4944959925
		 0.4948464146
		 0.4951969703
		 0.4955476678
		 0.4958985042
		 0.4962494718
		 0.4966005716
		 0.4969518048
		 0.4973031723
		 0.4976546753
		 0.4980063094
		 0.4983580588
		 0.4987099351
		 0.4990619525
		 0.4994141256
		 0.4997664688
		 0.500118996
		 0.5004717024
		 0.500824578
		 0.501177619
		 0.5015308211
		 0.5018841804
		 0.5022376927
		 0.5025914108
		 0.5029454105
		 0.5032996016
		 0.5036538883
		 0.5040081747
		 0.5043623652
		 0.5047163854
		 0.5050703896
		 0.5054243867
		 0.5057783236
		 0.5061321475
		 0.5064858054
		 0.5068392441
		 0.5071923251
		 0.5075450398
