ACES2Looks/ACEScct_LUT/T-RED_Tone.cube
# This file is automagically generated by clfutil 0.3.0 from T-RED_Tone.clf
LUT_1D_SIZE 4096
LUT_1D_INPUT_RANGE 0.0 1.4679964
  
   0    0    0
   0.0004243747555    0.0004243747555    0.0004243747555
   0.0008487494332    0.0008487494332    0.0008487494332
   0.001273123947    0.001273123947    0.001273123947
   0.00169749821    0.00169749821    0.00169749821
   0.002121872137    0.002121872137    0.002121872137
   0.002546245641    0.002546245641    0.002546245641
   0.002970618554    0.002970618554    0.002970618554
   0.003394990631    0.003394990631    0.003394990631
   0.003819362158    0.003819362158    0.003819362158
   0.004243733474    0.004243733474    0.004243733474
   0.004668104916    0.004668104916    0.004668104916
   0.005092476822    0.005092476822    0.005092476822
   0.005516849517    0.005516849517    0.005516849517
   0.005941222772    0.005941222772    0.005941222772
   0.006365596379    0.006365596379    0.006365596379
   0.006789970346    0.006789970346    0.006789970346
   0.007214344681    0.007214344681    0.007214344681
   0.007638719391    0.007638719391    0.007638719391
   0.008063094485    0.008063094485    0.008063094485
   0.008487470255    0.008487470255    0.008487470255
   0.008911847074    0.008911847074    0.008911847074
   0.009336224449    0.009336224449    0.009336224449
   0.009760601862    0.009760601862    0.009760601862
   0.01018497879    0.01018497879    0.01018497879
   0.01060935472    0.01060935472    0.01060935472
   0.01103372913    0.01103372913    0.01103372913
   0.0114581019    0.0114581019    0.0114581019
   0.01188247352    0.01188247352    0.01188247352
   0.0123068445    0.0123068445    0.0123068445
   0.01273121539    0.01273121539    0.01273121539
   0.01315558672    0.01315558672    0.01315558672
   0.01357995902    0.01357995902    0.01357995902
   0.01400433235    0.01400433235    0.01400433235
   0.01442870628    0.01442870628    0.01442870628
   0.01485308062    0.01485308062    0.01485308062
   0.01527745519    0.01527745519    0.01527745519
   0.01570182982    0.01570182982    0.01570182982
   0.01612620433    0.01612620433    0.01612620433
   0.0165505786    0.0165505786    0.0165505786
   0.01697495284    0.01697495284    0.01697495284
   0.01739932707    0.01739932707    0.01739932707
   0.0178237013    0.0178237013    0.0178237013
   0.01824807553    0.01824807553    0.01824807553
   0.01867244976    0.01867244976    0.01867244976
   0.01909682401    0.01909682401    0.01909682401
   0.01952119844    0.01952119844    0.01952119844
   0.01994557303    0.01994557303    0.01994557303
   0.02036994762    0.02036994762    0.02036994762
   0.02079432204    0.02079432204    0.02079432204
   0.02121869612    0.02121869612    0.02121869612
   0.02164306969    0.02164306969    0.02164306969
   0.02206744245    0.02206744245    0.02206744245
   0.02249181418    0.02249181418    0.02249181418
   0.02291618534    0.02291618534    0.02291618534
   0.02334055644    0.02334055644    0.02334055644
   0.02376492795    0.02376492795    0.02376492795
   0.02418930037    0.02418930037    0.02418930037
   0.0246136742    0.0246136742    0.0246136742
   0.02503804973    0.02503804973    0.02503804973
   0.02546242645    0.02546242645    0.02546242645
   0.02588680374    0.02588680374    0.02588680374
   0.02631118099    0.02631118099    0.02631118099
   0.02673555755    0.02673555755    0.02673555755
   0.02715993282    0.02715993282    0.02715993282
   0.02758430633    0.02758430633    0.02758430633
   0.02800867845    0.02800867845    0.02800867845
   0.02843304978    0.02843304978    0.02843304978
   0.02885742094    0.02885742094    0.02885742094
   0.02928179254    0.02928179254    0.02928179254
   0.02970616517    0.02970616517    0.02970616517
   0.03013053942    0.03013053942    0.03013053942
   0.03055491528    0.03055491528    0.03055491528
   0.03097929216    0.03097929216    0.03097929216
   0.03140366946    0.03140366946    0.03140366946
   0.03182804658    0.03182804658    0.03182804658
   0.03225242291    0.03225242291    0.03225242291
   0.03267679786    0.03267679786    0.03267679786
   0.03310117107    0.03310117107    0.03310117107
   0.033525543    0.033525543    0.033525543
   0.03394991426    0.03394991426    0.03394991426
   0.03437428545    0.03437428545    0.03437428545
   0.03479865719    0.03479865719    0.03479865719
   0.03522303008    0.03522303008    0.03522303008
   0.03564740465    0.03564740465    0.03564740465
   0.03607178074    0.03607178074    0.03607178074
   0.03649615775    0.03649615775    0.03649615775
   0.03692053506    0.03692053506    0.03692053506
   0.03734491208    0.03734491208    0.03734491208
   0.03776928821    0.03776928821    0.03776928821
   0.03819366285    0.03819366285    0.03819366285
   0.038618036    0.038618036    0.038618036
   0.03904240813    0.03904240813    0.03904240813
   0.03946677968    0.03946677968    0.03946677968
   0.03989115108    0.03989115108    0.03989115108
   0.04031552277    0.04031552277    0.04031552277
   0.04073989518    0.04073989518    0.04073989518
   0.04116426845    0.04116426845    0.04116426845
   0.04158864217    0.04158864217    0.04158864217
   0.04201301621    0.04201301621    0.04201301621
   0.04243739044    0.04243739044    0.04243739044
   0.04286176471    0.04286176471    0.04286176471
   0.04328613891    0.04328613891    0.04328613891
   0.04371051292    0.04371051292    0.04371051292
   0.04413488684    0.04413488684    0.04413488684
   0.04455926074    0.04455926074    0.04455926074
   0.04498363465    0.04498363465    0.04498363465
   0.04540800861    0.04540800861    0.04540800861
   0.04583238266    0.04583238266    0.04583238266
   0.04625675683    0.04625675683    0.04625675683
   0.04668113119    0.04668113119    0.04668113119
   0.04710550569    0.04710550569    0.04710550569
   0.04752988029    0.04752988029    0.04752988029
   0.04795425489    0.04795425489    0.04795425489
   0.04837862943    0.04837862943    0.04837862943
   0.04880300383    0.04880300383    0.04880300383
   0.04922737806    0.04922737806    0.04922737806
   0.04965175214    0.04965175214    0.04965175214
   0.05007612612    0.05007612612    0.05007612612
   0.05050050004    0.05050050004    0.05050050004
   0.05092487394    0.05092487394    0.05092487394
   0.05134924785    0.05134924785    0.05134924785
   0.0517736218    0.0517736218    0.0517736218
   0.05219799569    0.05219799569    0.05219799569
   0.05262236952    0.05262236952    0.05262236952
   0.05304674335    0.05304674335    0.05304674335
   0.05347111727    0.05347111727    0.05347111727
   0.05389549133    0.05389549133    0.05389549133
   0.05431986562    0.05431986562    0.05431986562
   0.05474424035    0.05474424035    0.05474424035
   0.05516861565    0.05516861565    0.05516861565
   0.05559299122    0.05559299122    0.05559299122
   0.05601736672    0.05601736672    0.05601736672
   0.05644174184    0.05644174184    0.05644174184
   0.05686611625    0.05686611625    0.05686611625
   0.05729048961    0.05729048961    0.05729048961
   0.05771486157    0.05771486157    0.05771486157
   0.0581392326    0.0581392326    0.0581392326
   0.05856360328    0.05856360328    0.05856360328
   0.05898797419    0.05898797419    0.05898797419
   0.05941234591    0.05941234591    0.05941234591
   0.05983671903    0.05983671903    0.05983671903
   0.06026109385    0.06026109385    0.06026109385
   0.06068546997    0.06068546997    0.06068546997
   0.06110984688    0.06110984688    0.06110984688
   0.06153422407    0.06153422407    0.06153422407
   0.06195860103    0.06195860103    0.06195860103
   0.06238297725    0.06238297725    0.06238297725
   0.06280735237    0.06280735237    0.06280735237
   0.06323172683    0.06323172683    0.06323172683
   0.06365610083    0.06365610083    0.06365610083
   0.06408047454    0.06408047454    0.06408047454
   0.06450484815    0.06450484815    0.06450484815
   0.06492922181    0.06492922181    0.06492922181
   0.06535359569    0.06535359569    0.06535359569
   0.06577796979    0.06577796979    0.06577796979
   0.06620234398    0.06620234398    0.06620234398
   0.06662671816    0.06662671816    0.06662671816
   0.06705109224    0.06705109224    0.06705109224
   0.06747546612    0.06747546612    0.06747546612
   0.0678998397    0.0678998397    0.0678998397
   0.06832421275    0.06832421275    0.06832421275
   0.06874858513    0.06874858513    0.06874858513
   0.06917295718    0.06917295718    0.06917295718
   0.06959732927    0.06959732927    0.06959732927
   0.07002170174    0.07002170174    0.07002170174
   0.07044607497    0.07044607497    0.07044607497
   0.07087044933    0.07087044933    0.07087044933
   0.07129482519    0.07129482519    0.07129482519
   0.07171920208    0.07171920208    0.07171920208
   0.07214357939    0.07214357939    0.07214357939
   0.07256795652    0.07256795652    0.07256795652
   0.07299233286    0.07299233286    0.07299233286
   0.0734167078    0.0734167078    0.0734167078
   0.073841081    0.073841081    0.073841081
   0.07426545289    0.07426545289    0.07426545289
   0.07468982396    0.07468982396    0.07468982396
   0.07511419474    0.07511419474    0.07511419474
   0.07553856573    0.07553856573    0.07553856573
   0.07596293743    0.07596293743    0.07596293743
   0.0763873102    0.0763873102    0.0763873102
   0.07681168357    0.07681168357    0.07681168357
   0.07723605735    0.07723605735    0.07723605735
   0.07766043146    0.07766043146    0.07766043146
   0.07808480579    0.07808480579    0.07808480579
   0.07850918025    0.07850918025    0.07850918025
   0.07893355474    0.07893355474    0.07893355474
   0.07935792949    0.07935792949    0.07935792949
   0.07978230455    0.07978230455    0.07978230455
   0.08020667978    0.08020667978    0.08020667978
   0.080631055    0.080631055    0.080631055
   0.08105543009    0.08105543009    0.08105543009
   0.08147980488    0.08147980488    0.08147980488
   0.08190417938    0.08190417938    0.08190417938
   0.08232855384    0.08232855384    0.08232855384
   0.08275292819    0.08275292819    0.08275292819
   0.08317730232    0.08317730232    0.08317730232
   0.08360167615    0.08360167615    0.08360167615
   0.08402604956    0.08402604956    0.08402604956
   0.08445042241    0.08445042241    0.08445042241
   0.08487479422    0.08487479422    0.08487479422
   0.08529916525    0.08529916525    0.08529916525
   0.08572353602    0.08572353602    0.08572353602
   0.08614790705    0.08614790705    0.08614790705
   0.08657227883    0.08657227883    0.08657227883
   0.08699665188    0.08699665188    0.08699665188
   0.08742102657    0.08742102657    0.08742102657
   0.0878454026    0.0878454026    0.0878454026
   0.08826977947    0.08826977947    0.08826977947
   0.08869415665    0.08869415665    0.08869415665
   0.08911853365    0.08911853365    0.08911853365
   0.08954290995    0.08954290995    0.08954290995
   0.08996728518    0.08996728518    0.08996728518
   0.09039165984    0.09039165984    0.09039165984
   0.09081603409    0.09081603409    0.09081603409
   0.091240408    0.091240408    0.091240408
   0.09166478166    0.09166478166    0.09166478166
   0.09208915512    0.09208915512    0.09208915512
   0.09251352845    0.09251352845    0.09251352845
   0.09293790144    0.09293790144    0.09293790144
   0.09336227403    0.09336227403    0.09336227403
   0.09378664641    0.09378664641    0.09378664641
   0.09421101878    0.09421101878    0.09421101878
   0.09463539132    0.09463539132    0.09463539132
   0.09505976422    0.09505976422    0.09505976422
   0.09548413752    0.09548413752    0.09548413752
   0.09590851095    0.09590851095    0.09590851095
   0.09633288456    0.09633288456    0.09633288456
   0.09675725842    0.09675725842    0.09675725842
   0.09718163261    0.09718163261    0.09718163261
   0.09760600719    0.09760600719    0.09760600719
   0.09803038226    0.09803038226    0.09803038226
   0.09845475826    0.09845475826    0.09845475826
   0.09887913498    0.09887913498    0.09887913498
   0.099303512    0.099303512    0.099303512
   0.09972788889    0.09972788889    0.09972788889
   0.1001522652    0.1001522652    0.1001522652
   0.1005766406    0.1005766406    0.1005766406
   0.1010010147    0.1010010147    0.1010010147
   0.1014253879    0.1014253879    0.1014253879
   0.1018497604    0.1018497604    0.1018497604
   0.1022741326    0.1022741326    0.1022741326
   0.1026985049    0.1026985049    0.1026985049
   0.1031228775    0.1031228775    0.1031228775
   0.1035472508    0.1035472508    0.1035472508
   0.1039716243    0.1039716243    0.1039716243
   0.1043959981    0.1043959981    0.1043959981
   0.104820372    0.104820372    0.104820372
   0.105244746    0.105244746    0.105244746
   0.10566912    0.10566912    0.10566912
   0.106093494    0.106093494    0.106093494
   0.106517868    0.106517868    0.106517868
   0.1069422422    0.1069422422    0.1069422422
   0.1073666164    0.1073666164    0.1073666164
   0.1077909906    0.1077909906    0.1077909906
   0.1082153648    0.1082153648    0.1082153648
   0.1086397388    0.1086397388    0.1086397388
   0.1090641128    0.1090641128    0.1090641128
   0.1094884867    0.1094884867    0.1094884867
   0.1099128605    0.1099128605    0.1099128605
   0.1103372343    0.1103372343    0.1103372343
   0.1107616081    0.1107616081    0.1107616081
   0.1111859819    0.1111859819    0.1111859819
   0.1116103557    0.1116103557    0.1116103557
   0.1120347295    0.1120347295    0.1120347295
   0.1124591033    0.1124591033    0.1124591033
   0.1128834771    0.1128834771    0.1128834771
   0.1133078509    0.1133078509    0.1133078509
   0.1137322247    0.1137322247    0.1137322247
   0.1141565986    0.1141565986    0.1141565986
   0.1145809727    0.1145809727    0.1145809727
   0.1150053468    0.1150053468    0.1150053468
   0.115429721    0.115429721    0.115429721
   0.1158540952    0.1158540952    0.1158540952
   0.1162784694    0.1162784694    0.1162784694
   0.1167028435    0.1167028435    0.1167028435
   0.1171272175    0.1171272175    0.1171272175
   0.1175515913    0.1175515913    0.1175515913
   0.1179759651    0.1179759651    0.1179759651
   0.1184003389    0.1184003389    0.1184003389
   0.1188247127    0.1188247127    0.1188247127
   0.1192490865    0.1192490865    0.1192490865
   0.1196734604    0.1196734604    0.1196734604
   0.1200978344    0.1200978344    0.1200978344
   0.1205222083    0.1205222083    0.1205222083
   0.1209465824    0.1209465824    0.1209465824
   0.1213709565    0.1213709565    0.1213709565
   0.1217953307    0.1217953307    0.1217953307
   0.1222197051    0.1222197051    0.1222197051
   0.1226440797    0.1226440797    0.1226440797
   0.1230684548    0.1230684548    0.1230684548
   0.1234928302    0.1234928302    0.1234928302
   0.1239172056    0.1239172056    0.1239172056
   0.1243415808    0.1243415808    0.1243415808
   0.1247659555    0.1247659555    0.1247659555
   0.1251903296    0.1251903296    0.1251903296
   0.1256147027    0.1256147027    0.1256147027
   0.1260390751    0.1260390751    0.1260390751
   0.1264634472    0.1264634472    0.1264634472
   0.1268878193    0.1268878193    0.1268878193
   0.1273121918    0.1273121918    0.1273121918
   0.1277365651    0.1277365651    0.1277365651
   0.1281609394    0.1281609394    0.1281609394
   0.1285853147    0.1285853147    0.1285853147
   0.1290096904    0.1290096904    0.1290096904
   0.1294340664    0.1294340664    0.1294340664
   0.1298584421    0.1298584421    0.1298584421
   0.1302828172    0.1302828172    0.1302828172
   0.1307071913    0.1307071913    0.1307071913
   0.1311315643    0.1311315643    0.1311315643
   0.1315559367    0.1315559367    0.1315559367
   0.1319803087    0.1319803087    0.1319803087
   0.1324046808    0.1324046808    0.1324046808
   0.1328290534    0.1328290534    0.1328290534
   0.1332534268    0.1332534268    0.1332534268
   0.1336778013    0.1336778013    0.1336778013
   0.1341021767    0.1341021767    0.1341021767
   0.1345265526    0.1345265526    0.1345265526
   0.1349509285    0.1349509285    0.1349509285
   0.1353753041    0.1353753041    0.1353753041
   0.135799679    0.135799679    0.135799679
   0.136224053    0.136224053    0.136224053
   0.1366484262    0.1366484262    0.1366484262
   0.1370727989    0.1370727989    0.1370727989
   0.1374971713    0.1374971713    0.1374971713
   0.1379215435    0.1379215435    0.1379215435
   0.1383459158    0.1383459158    0.1383459158
   0.1387702884    0.1387702884    0.1387702884
   0.1391946608    0.1391946608    0.1391946608
   0.1396190331    0.1396190331    0.1396190331
   0.1400434053    0.1400434053    0.1400434053
   0.1404677778    0.1404677778    0.1404677778
   0.1408921506    0.1408921506    0.1408921506
   0.1413165241    0.1413165241    0.1413165241
   0.1417408984    0.1417408984    0.1417408984
   0.1421652736    0.1421652736    0.1421652736
   0.1425896493    0.1425896493    0.1425896493
   0.1430140253    0.1430140253    0.1430140253
   0.143438401    0.143438401    0.143438401
   0.1438627761    0.1438627761    0.1438627761
   0.1442871502    0.1442871502    0.1442871502
   0.1447115231    0.1447115231    0.1447115231
   0.1451358952    0.1451358952    0.1451358952
   0.1455602669    0.1455602669    0.1455602669
   0.1459846389    0.1459846389    0.1459846389
   0.1464090117    0.1464090117    0.1464090117
   0.1468333857    0.1468333857    0.1468333857
   0.1472577617    0.1472577617    0.1472577617
   0.1476821394    0.1476821394    0.1476821394
   0.148106518    0.148106518    0.148106518
   0.1485308966    0.1485308966    0.1485308966
   0.1489552745    0.1489552745    0.1489552745
   0.1493796508    0.1493796508    0.1493796508
   0.1498040247    0.1498040247    0.1498040247
   0.1502283963    0.1502283963    0.1502283963
   0.1506527663    0.1506527663    0.1506527663
   0.1510771357    0.1510771357    0.1510771357
   0.1515015051    0.1515015051    0.1515015051
   0.1519258754    0.1519258754    0.1519258754
   0.1523502474    0.1523502474    0.1523502474
   0.1527746212    0.1527746212    0.1527746212
   0.1531989961    0.1531989961    0.1531989961
   0.1536233717    0.1536233717    0.1536233717
   0.1540477475    0.1540477475    0.1540477475
   0.154472123    0.154472123    0.154472123
   0.1548964979    0.1548964979    0.1548964979
   0.1553208717    0.1553208717    0.1553208717
   0.1557452447    0.1557452447    0.1557452447
   0.1561696174    0.1561696174    0.1561696174
   0.1565939898    0.1565939898    0.1565939898
   0.1570183625    0.1570183625    0.1570183625
   0.1574427355    0.1574427355    0.1574427355
   0.1578671093    0.1578671093    0.1578671093
   0.1582914838    0.1582914838    0.1582914838
   0.1587158587    0.1587158587    0.1587158587
   0.1591402338    0.1591402338    0.1591402338
   0.1595646091    0.1595646091    0.1595646091
   0.1599889844    0.1599889844    0.1599889844
   0.1604133596    0.1604133596    0.1604133596
   0.1608377347    0.1608377347    0.1608377347
   0.16126211    0.16126211    0.16126211
   0.1616864853    0.1616864853    0.1616864853
   0.1621108605    0.1621108605    0.1621108605
   0.1625352354    0.1625352354    0.1625352354
   0.16295961    0.16295961    0.16295961
   0.1633839839    0.1633839839    0.1633839839
   0.1638083571    0.1638083571    0.1638083571
   0.1642327298    0.1642327298    0.1642327298
   0.1646571023    0.1646571023    0.1646571023
   0.1650814749    0.1650814749    0.1650814749
   0.1655058478    0.1655058478    0.1655058478
   0.1659302214    0.1659302214    0.1659302214
   0.1663545959    0.1663545959    0.1663545959
   0.166778971    0.166778971    0.166778971
   0.1672033464    0.1672033464    0.1672033464
   0.1676277219    0.1676277219    0.1676277219
   0.1680520971    0.1680520971    0.1680520971
   0.1684764717    0.1684764717    0.1684764717
   0.1689008456    0.1689008456    0.1689008456
   0.1693252187    0.1693252187    0.1693252187
   0.1697495913    0.1697495913    0.1697495913
   0.1701739638    0.1701739638    0.1701739638
   0.1705983364    0.1705983364    0.1705983364
   0.1710227094    0.1710227094    0.1710227094
   0.1714470832    0.1714470832    0.1714470832
   0.1718714576    0.1718714576    0.1718714576
   0.1722958325    0.1722958325    0.1722958325
   0.1727202076    0.1727202076    0.1727202076
   0.1731445829    0.1731445829    0.1731445829
   0.1735689582    0.1735689582    0.1735689582
   0.1739933334    0.1739933334    0.1739933334
   0.1744177085    0.1744177085    0.1744177085
   0.1748420838    0.1748420838    0.1748420838
   0.1752664591    0.1752664591    0.1752664591
   0.1756908343    0.1756908343    0.1756908343
   0.1761152093    0.1761152093    0.1761152093
   0.1765395838    0.1765395838    0.1765395838
   0.1769639578    0.1769639578    0.1769639578
   0.1773883313    0.1773883313    0.1773883313
   0.1778127044    0.1778127044    0.1778127044
   0.1782370772    0.1782370772    0.1782370772
   0.1786614499    0.1786614499    0.1786614499
   0.1790858225    0.1790858225    0.1790858225
   0.1795101953    0.1795101953    0.1795101953
   0.1799345678    0.1799345678    0.1799345678
   0.1803589401    0.1803589401    0.1803589401
   0.1807833124    0.1807833124    0.1807833124
   0.1812076848    0.1812076848    0.1812076848
   0.1816320575    0.1816320575    0.1816320575
   0.1820564308    0.1820564308    0.1820564308
   0.182480805    0.182480805    0.182480805
   0.1829051801    0.1829051801    0.1829051801
   0.1833295558    0.1833295558    0.1833295558
   0.1837539318    0.1837539318    0.1837539318
   0.1841783075    0.1841783075    0.1841783075
   0.1846026827    0.1846026827    0.1846026827
   0.185027057    0.185027057    0.185027057
   0.1854514303    0.1854514303    0.1854514303
   0.1858758028    0.1858758028    0.1858758028
   0.1863001749    0.1863001749    0.1863001749
   0.186724547    0.186724547    0.186724547
   0.1871489194    0.1871489194    0.1871489194
   0.1875732926    0.1875732926    0.1875732926
   0.1879976667    0.1879976667    0.1879976667
   0.1884220416    0.1884220416    0.1884220416
   0.188846417    0.188846417    0.188846417
   0.1892707925    0.1892707925    0.1892707925
   0.1896951679    0.1896951679    0.1896951679
   0.1901195427    0.1901195427    0.1901195427
   0.1905439168    0.1905439168    0.1905439168
   0.19096829    0.19096829    0.19096829
   0.1913926628    0.1913926628    0.1913926628
   0.1918170353    0.1918170353    0.1918170353
   0.1922414078    0.1922414078    0.1922414078
   0.1926657807    0.1926657807    0.1926657807
   0.1930901543    0.1930901543    0.1930901543
   0.1935145287    0.1935145287    0.1935145287
   0.1939389037    0.1939389037    0.1939389037
   0.1943632792    0.1943632792    0.1943632792
   0.1947876546    0.1947876546    0.1947876546
   0.1952120299    0.1952120299    0.1952120299
   0.1956364046    0.1956364046    0.1956364046
   0.1960607785    0.1960607785    0.1960607785
   0.1964851516    0.1964851516    0.1964851516
   0.1969095243    0.1969095243    0.1969095243
   0.1973338967    0.1973338967    0.1973338967
   0.1977582693    0.1977582693    0.1977582693
   0.1981826423    0.1981826423    0.1981826423
   0.1986070161    0.1986070161    0.1986070161
   0.1990313906    0.1990313906    0.1990313906
   0.1994557658    0.1994557658    0.1994557658
   0.1998801413    0.1998801413    0.1998801413
   0.2003045168    0.2003045168    0.2003045168
   0.2007288919    0.2007288919    0.2007288919
   0.2011532664    0.2011532664    0.2011532664
   0.20157764    0.20157764    0.20157764
   0.2020020126    0.2020020126    0.2020020126
   0.2024263848    0.2024263848    0.2024263848
   0.2028507569    0.2028507569    0.2028507569
   0.2032751292    0.2032751292    0.2032751292
   0.2036995021    0.2036995021    0.2036995021
   0.2041238759    0.2041238759    0.2041238759
   0.2045482508    0.2045482508    0.2045482508
   0.2049726264    0.2049726264    0.2049726264
