ACES2Looks/ACEScct_LUT/T-RED_Tone.spi1d
Version 1
From 0 1.468
Length 4096
Components 1
{
		 0
		 0.0004243747555
		 0.0008487494332
		 0.001273123947
		 0.00169749821
		 0.002121872137
		 0.002546245641
		 0.002970618554
		 0.003394990631
		 0.003819362158
		 0.004243733474
		 0.004668104916
		 0.005092476822
		 0.005516849517
		 0.005941222772
		 0.006365596379
		 0.006789970346
		 0.007214344681
		 0.007638719391
		 0.008063094485
		 0.008487470255
		 0.008911847074
		 0.009336224449
		 0.009760601862
		 0.01018497879
		 0.01060935472
		 0.01103372913
		 0.0114581019
		 0.01188247352
		 0.0123068445
		 0.01273121539
		 0.01315558672
		 0.01357995902
		 0.01400433235
		 0.01442870628
		 0.01485308062
		 0.01527745519
		 0.01570182982
		 0.01612620433
		 0.0165505786
		 0.01697495284
		 0.01739932707
		 0.0178237013
		 0.01824807553
		 0.01867244976
		 0.01909682401
		 0.01952119844
		 0.01994557303
		 0.02036994762
		 0.02079432204
		 0.02121869612
		 0.02164306969
		 0.02206744245
		 0.02249181418
		 0.02291618534
		 0.02334055644
		 0.02376492795
		 0.02418930037
		 0.0246136742
		 0.02503804973
		 0.02546242645
		 0.02588680374
		 0.02631118099
		 0.02673555755
		 0.02715993282
		 0.02758430633
		 0.02800867845
		 0.02843304978
		 0.02885742094
		 0.02928179254
		 0.02970616517
		 0.03013053942
		 0.03055491528
		 0.03097929216
		 0.03140366946
		 0.03182804658
		 0.03225242291
		 0.03267679786
		 0.03310117107
		 0.033525543
		 0.03394991426
		 0.03437428545
		 0.03479865719
		 0.03522303008
		 0.03564740465
		 0.03607178074
		 0.03649615775
		 0.03692053506
		 0.03734491208
		 0.03776928821
		 0.03819366285
		 0.038618036
		 0.03904240813
		 0.03946677968
		 0.03989115108
		 0.04031552277
		 0.04073989518
		 0.04116426845
		 0.04158864217
		 0.04201301621
		 0.04243739044
		 0.04286176471
		 0.04328613891
		 0.04371051292
		 0.04413488684
		 0.04455926074
		 0.04498363465
		 0.04540800861
		 0.04583238266
		 0.04625675683
		 0.04668113119
		 0.04710550569
		 0.04752988029
		 0.04795425489
		 0.04837862943
		 0.04880300383
		 0.04922737806
		 0.04965175214
		 0.05007612612
		 0.05050050004
		 0.05092487394
		 0.05134924785
		 0.0517736218
		 0.05219799569
		 0.05262236952
		 0.05304674335
		 0.05347111727
		 0.05389549133
		 0.05431986562
		 0.05474424035
		 0.05516861565
		 0.05559299122
		 0.05601736672
		 0.05644174184
		 0.05686611625
		 0.05729048961
		 0.05771486157
		 0.0581392326
		 0.05856360328
		 0.05898797419
		 0.05941234591
		 0.05983671903
		 0.06026109385
		 0.06068546997
		 0.06110984688
		 0.06153422407
		 0.06195860103
		 0.06238297725
		 0.06280735237
		 0.06323172683
		 0.06365610083
		 0.06408047454
		 0.06450484815
		 0.06492922181
		 0.06535359569
		 0.06577796979
		 0.06620234398
		 0.06662671816
		 0.06705109224
		 0.06747546612
		 0.0678998397
		 0.06832421275
		 0.06874858513
		 0.06917295718
		 0.06959732927
		 0.07002170174
		 0.07044607497
		 0.07087044933
		 0.07129482519
		 0.07171920208
		 0.07214357939
		 0.07256795652
		 0.07299233286
		 0.0734167078
		 0.073841081
		 0.07426545289
		 0.07468982396
		 0.07511419474
		 0.07553856573
		 0.07596293743
		 0.0763873102
		 0.07681168357
		 0.07723605735
		 0.07766043146
		 0.07808480579
		 0.07850918025
		 0.07893355474
		 0.07935792949
		 0.07978230455
		 0.08020667978
		 0.080631055
		 0.08105543009
		 0.08147980488
		 0.08190417938
		 0.08232855384
		 0.08275292819
		 0.08317730232
		 0.08360167615
		 0.08402604956
		 0.08445042241
		 0.08487479422
		 0.08529916525
		 0.08572353602
		 0.08614790705
		 0.08657227883
		 0.08699665188
		 0.08742102657
		 0.0878454026
		 0.08826977947
		 0.08869415665
		 0.08911853365
		 0.08954290995
		 0.08996728518
		 0.09039165984
		 0.09081603409
		 0.091240408
		 0.09166478166
		 0.09208915512
		 0.09251352845
		 0.09293790144
		 0.09336227403
		 0.09378664641
		 0.09421101878
		 0.09463539132
		 0.09505976422
		 0.09548413752
		 0.09590851095
		 0.09633288456
		 0.09675725842
		 0.09718163261
		 0.09760600719
		 0.09803038226
		 0.09845475826
		 0.09887913498
		 0.099303512
		 0.09972788889
		 0.1001522652
		 0.1005766406
		 0.1010010147
		 0.1014253879
		 0.1018497604
		 0.1022741326
		 0.1026985049
		 0.1031228775
		 0.1035472508
		 0.1039716243
		 0.1043959981
		 0.104820372
		 0.105244746
		 0.10566912
		 0.106093494
		 0.106517868
		 0.1069422422
		 0.1073666164
		 0.1077909906
		 0.1082153648
		 0.1086397388
		 0.1090641128
		 0.1094884867
		 0.1099128605
		 0.1103372343
		 0.1107616081
		 0.1111859819
		 0.1116103557
		 0.1120347295
		 0.1124591033
		 0.1128834771
		 0.1133078509
		 0.1137322247
		 0.1141565986
		 0.1145809727
		 0.1150053468
		 0.115429721
		 0.1158540952
		 0.1162784694
		 0.1167028435
		 0.1171272175
		 0.1175515913
		 0.1179759651
		 0.1184003389
		 0.1188247127
		 0.1192490865
		 0.1196734604
		 0.1200978344
		 0.1205222083
		 0.1209465824
		 0.1213709565
		 0.1217953307
		 0.1222197051
		 0.1226440797
		 0.1230684548
		 0.1234928302
		 0.1239172056
		 0.1243415808
		 0.1247659555
		 0.1251903296
		 0.1256147027
		 0.1260390751
		 0.1264634472
		 0.1268878193
		 0.1273121918
		 0.1277365651
		 0.1281609394
		 0.1285853147
		 0.1290096904
		 0.1294340664
		 0.1298584421
		 0.1302828172
		 0.1307071913
		 0.1311315643
		 0.1315559367
		 0.1319803087
		 0.1324046808
		 0.1328290534
		 0.1332534268
		 0.1336778013
		 0.1341021767
		 0.1345265526
		 0.1349509285
		 0.1353753041
		 0.135799679
		 0.136224053
		 0.1366484262
		 0.1370727989
		 0.1374971713
		 0.1379215435
		 0.1383459158
		 0.1387702884
		 0.1391946608
		 0.1396190331
		 0.1400434053
		 0.1404677778
		 0.1408921506
		 0.1413165241
		 0.1417408984
		 0.1421652736
		 0.1425896493
		 0.1430140253
		 0.143438401
		 0.1438627761
		 0.1442871502
		 0.1447115231
		 0.1451358952
		 0.1455602669
		 0.1459846389
		 0.1464090117
		 0.1468333857
		 0.1472577617
		 0.1476821394
		 0.148106518
		 0.1485308966
		 0.1489552745
		 0.1493796508
		 0.1498040247
		 0.1502283963
		 0.1506527663
		 0.1510771357
		 0.1515015051
		 0.1519258754
		 0.1523502474
		 0.1527746212
		 0.1531989961
		 0.1536233717
		 0.1540477475
		 0.154472123
		 0.1548964979
		 0.1553208717
		 0.1557452447
		 0.1561696174
		 0.1565939898
		 0.1570183625
		 0.1574427355
		 0.1578671093
		 0.1582914838
		 0.1587158587
		 0.1591402338
		 0.1595646091
		 0.1599889844
		 0.1604133596
		 0.1608377347
		 0.16126211
		 0.1616864853
		 0.1621108605
		 0.1625352354
		 0.16295961
		 0.1633839839
		 0.1638083571
		 0.1642327298
		 0.1646571023
		 0.1650814749
		 0.1655058478
		 0.1659302214
		 0.1663545959
		 0.166778971
		 0.1672033464
		 0.1676277219
		 0.1680520971
		 0.1684764717
		 0.1689008456
		 0.1693252187
		 0.1697495913
		 0.1701739638
		 0.1705983364
		 0.1710227094
		 0.1714470832
		 0.1718714576
		 0.1722958325
		 0.1727202076
		 0.1731445829
		 0.1735689582
		 0.1739933334
		 0.1744177085
		 0.1748420838
		 0.1752664591
		 0.1756908343
		 0.1761152093
		 0.1765395838
		 0.1769639578
		 0.1773883313
		 0.1778127044
		 0.1782370772
		 0.1786614499
		 0.1790858225
		 0.1795101953
		 0.1799345678
		 0.1803589401
		 0.1807833124
		 0.1812076848
		 0.1816320575
		 0.1820564308
		 0.182480805
		 0.1829051801
		 0.1833295558
		 0.1837539318
		 0.1841783075
		 0.1846026827
		 0.185027057
		 0.1854514303
		 0.1858758028
		 0.1863001749
		 0.186724547
		 0.1871489194
		 0.1875732926
		 0.1879976667
		 0.1884220416
		 0.188846417
		 0.1892707925
		 0.1896951679
		 0.1901195427
		 0.1905439168
		 0.19096829
		 0.1913926628
		 0.1918170353
		 0.1922414078
		 0.1926657807
		 0.1930901543
		 0.1935145287
		 0.1939389037
		 0.1943632792
		 0.1947876546
		 0.1952120299
		 0.1956364046
		 0.1960607785
		 0.1964851516
		 0.1969095243
		 0.1973338967
		 0.1977582693
		 0.1981826423
		 0.1986070161
		 0.1990313906
		 0.1994557658
		 0.1998801413
		 0.2003045168
		 0.2007288919
		 0.2011532664
		 0.20157764
		 0.2020020126
		 0.2024263848
		 0.2028507569
		 0.2032751292
		 0.2036995021
		 0.2041238759
		 0.2045482508
		 0.2049726264
		 0.2053970023
		 0.2058213782
		 0.2062457536
		 0.2066701282
		 0.2070945015
		 0.2075188738
		 0.2079432456
		 0.2083676175
		 0.2087919899
		 0.2092163633
		 0.2096407385
		 0.2100651156
		 0.210489494
		 0.2109138727
		 0.2113382509
		 0.2117626279
		 0.2121870028
		 0.2126113752
		 0.2130357457
		 0.2134601152
		 0.2138844845
		 0.2143088544
		 0.2147332257
		 0.2151575991
		 0.215581974
		 0.2160063498
		 0.216430726
		 0.2168551021
		 0.2172794774
		 0.2177038516
		 0.2181282244
		 0.2185525965
		 0.2189769681
		 0.2194013399
		 0.2198257121
		 0.2202500852
		 0.2206744595
		 0.2210988348
		 0.2215232105
		 0.2219475865
		 0.2223719622
		 0.2227963373
		 0.2232233794
		 0.2236646594
		 0.2241125763
		 0.2245565799
		 0.22498612
		 0.2253906465
		 0.2257596205
		 0.2260879435
		 0.2263835819
		 0.2266563155
		 0.2269159241
		 0.2271721873
		 0.227434885
		 0.2277079257
		 0.2279792132
		 0.2282485006
		 0.2285165805
		 0.2287842455
		 0.2290522881
		 0.229321431
		 0.2295910114
		 0.2298606406
		 0.2301303159
		 0.2304000345
		 0.2306697938
		 0.230939591
		 0.2312094281
		 0.2314793094
		 0.2317492321
		 0.2320191934
		 0.2322891902
		 0.2325592198
		 0.2328292801
		 0.2330993758
		 0.2333695068
		 0.2336396718
		 0.2339098695
		 0.2341800985
		 0.2344503575
		 0.2347206481
		 0.2349909716
		 0.2352613267
		 0.2355317123
		 0.2358021272
		 0.2360725702
		 0.2363430417
		 0.2366135455
		 0.2368840795
		 0.2371546413
		 0.2374252283
		 0.2376958379
		 0.2379664681
		 0.2382371236
		 0.238507805
		 0.2387785098
		 0.2390492353
		 0.239319979
		 0.2395907384
		 0.2398615151
		 0.2401323145
		 0.240403133
		 0.2406739672
		 0.2409448134
		 0.2412156682
		 0.2414865134
		 0.2417572546
		 0.2420279451
		 0.2422986707
		 0.242569517
		 0.2428405695
		 0.2431119138
		 0.2433825032
		 0.2436520435
		 0.2439216421
		 0.2441924064
		 0.2444654438
		 0.2447418617
		 0.2450227247
		 0.2453079678
		 0.2455964157
		 0.2458868512
		 0.2461780567
		 0.2464688152
		 0.2467579611
		 0.2470463305
		 0.2473346568
		 0.2476229418
		 0.2479111875
		 0.2481993957
		 0.2484875683
		 0.248775708
		 0.2490638148
		 0.2493518856
		 0.2496399168
		 0.249927905
		 0.2502158467
		 0.2505037391
		 0.2507915867
		 0.2510793901
		 0.2513671487
		 0.2516548616
		 0.2519425279
		 0.2522301469
		 0.2525177169
		 0.2528052381
		 0.2530927126
		 0.2533801422
		 0.2536675292
		 0.2539548755
		 0.2542421853
		 0.2545294654
		 0.2548167087
		 0.255103906
		 0.2553910484
		 0.2556781269
		 0.2559651327
		 0.2562520641
		 0.256538928
		 0.2568257308
		 0.2571124788
		 0.2573991785
		 0.2576858362
		 0.2579724576
		 0.2582590405
		 0.2585455784
		 0.2588320646
		 0.2591184927
		 0.2594048559
		 0.2596911483
		 0.2599773729
		 0.2602635338
		 0.2605496335
		 0.2608356747
		 0.2611216598
		 0.2614075915
		 0.2616932038
		 0.2619783551
		 0.2622633807
		 0.2625486175
		 0.2628344023
		 0.2631210722
		 0.2634085142
		 0.2636949503
		 0.2639812558
		 0.2642687221
		 0.2645586405
		 0.2648523026
		 0.2651510041
		 0.265455838
		 0.2657657975
		 0.2660792184
		 0.2663944363
		 0.2667097867
		 0.2670236055
		 0.2673352046
		 0.2676465164
		 0.2679576934
		 0.2682687397
		 0.2685796597
		 0.2688904578
		 0.2692011383
		 0.2695117036
		 0.2698221494
		 0.2701324705
		 0.2704426618
		 0.2707527179
		 0.2710626338
		 0.2713724099
		 0.2716820524
		 0.2719915602
		 0.2723009322
		 0.2726101672
		 0.2729192641
		 0.2732282206
		 0.2735370308
		 0.2738456993
		 0.2741542327
		 0.2744626372
		 0.2747709191
		 0.2750790849
		 0.2753871379
		 0.2756950733
		 0.2760028853
		 0.276310568
		 0.2766181154
		 0.2769255217
		 0.2772327823
		 0.2775399003
		 0.2778468799
		 0.2781537253
		 0.2784604404
		 0.2787670294
		 0.2790734963
		 0.2793798401
		 0.2796860582
		 0.2799921483
		 0.2802981083
		 0.2806039359
		 0.2809096291
		 0.2812145967
		 0.2815183031
		 0.2818216175
		 0.2821254322
		 0.2824306394
		 0.2827381316
		 0.2830486329
		 0.2833613649
		 0.2836759658
		 0.2839922996
		 0.2843102304
		 0.2846296221
		 0.2849503395
		 0.2852731587
		 0.2855983218
		 0.2859250521
		 0.2862525727
		 0.2865801072
		 0.2869068787
		 0.2872324629
		 0.2875577691
		 0.2878829036
		 0.2882078584
		 0.2885326256
		 0.2888571972
		 0.2891815653
		 0.2895057245
		 0.2898296819
		 0.2901534473
		 0.2904770303
		 0.2908004408
		 0.2911236884
		 0.2914467808
		 0.2917697132
		 0.2920924765
		 0.2924150619
		 0.2927374603
		 0.293059663
		 0.2933816609
		 0.2937034522
		 0.2940250455
		 0.29434645
		 0.2946676753
		 0.2949887308
		 0.2953096257
		 0.295630363
		 0.2959509352
		 0.2962713372
		 0.2965915637
		 0.2969116096
		 0.2972314697
		 0.2975511383
		 0.2978706143
		 0.2981899041
		 0.2985090149
		 0.2988279538
		 0.299146728
		 0.2994653041
		 0.2997821782
		 0.3000975724
		 0.3004128443
		 0.3007293515
		 0.3010484519
		 0.3013715031
		 0.3016994385
		 0.3020314257
		 0.3023665008
		 0.3027037201
		 0.3030421395
		 0.3033808153
		 0.3037189908
		 0.3040580745
		 0.3043982225
		 0.3047389921
		 0.3050799405
		 0.3054206249
		 0.3057606027
		 0.3060999115
		 0.3064389864
		 0.306777832
		 0.3071164516
		 0.3074548487
		 0.3077930264
		 0.3081309866
		 0.3084687243
		 0.3088062397
		 0.309143534
		 0.3094806085
		 0.3098174644
		 0.3101541028
		 0.3104905226
		 0.3108267229
		 0.3111627042
		 0.3114984672
		 0.3118340124
		 0.3121693404
		 0.3125044484
		 0.3128393308
		 0.313173993
		 0.313508441
		 0.3138426808
		 0.3141767184
		 0.3145105599
		 0.314844208
		 0.3151776568
		 0.3155108996
		 0.3158439295
		 0.3161767394
		 0.3165093224
		 0.3168409389
		 0.3171711214
		 0.3175008514
		 0.3178311209
		 0.3181629216
		 0.3184972454
		 0.3188348876
		 0.3191751332
		 0.3195174944
		 0.3198616347
		 0.320207217
		 0.3205539049
		 0.320901369
		 0.3212504398
		 0.3216013911
		 0.3219535566
		 0.32230627
		 0.3226588648
		 0.3230106748
		 0.3233613942
		 0.3237118019
		 0.324061967
		 0.3244118873
		 0.3247615607
		 0.325110985
		 0.3254601582
		 0.3258090787
		 0.3261577487
		 0.3265061709
		 0.326854348
		 0.3272022827
		 0.3275499777
		 0.3278974287
		 0.3282446291
		 0.3285915852
		 0.3289383038
		 0.3292847915
		 0.3296310551
		 0.3299771001
		 0.330322922
		 0.3306685172
		 0.3310138837
		 0.3313590192
		 0.3317039217
		 0.3320485888
		 0.3323930158
		 0.332737204
		 0.3330811589
		 0.3334248862
		 0.3337683916
		 0.3341116807
		 0.3344540447
		 0.3347937011
		 0.3351322118
		 0.3354714183
		 0.3358131622
		 0.3361592847
		 0.3365116104
		 0.3368706512
		 0.3372349056
		 0.3376027263
		 0.3379724656
		 0.3383424762
		 0.3387111106
		 0.3390781791
		 0.3394456601
		 0.3398134038
		 0.3401811949
		 0.3405488184
		 0.3409160592
		 0.3412827435
		 0.3416490937
		 0.3420151809
		 0.3423810016
		 0.3427465522
		 0.3431118293
		 0.3434768294
		 0.343841548
		 0.3442059868
		 0.3445701517
		 0.3449340487
		 0.3452976838
		 0.3456610629
		 0.3460241876
		 0.3463870458
		 0.3467496408
		 0.3471119778
		 0.3474740623
		 0.3478358996
		 0.3481974948
		 0.3485588453
		 0.3489199475
		 0.3492808008
		 0.3496414044
		 0.3500017578
		 0.3503618602
		 0.3507211397
		 0.3510788444
		 0.3514359319
		 0.3517934168
		 0.3521523139
		 0.3525136377
		 0.352878275
		 0.3532454684
		 0.3536147252
		 0.3539858554
		 0.3543586689
		 0.3547329756
		 0.3551085854
		 0.3554862199
		 0.3558663499
		 0.3562481403
		 0.3566307539
		 0.3570133536
		 0.3573951023
		 0.357775456
		 0.3581553652
		 0.3585349978
		 0.3589143528
		 0.359293429
		 0.3596722254
		 0.3600507407
		 0.3604289696
		 0.3608069134
		 0.3611845776
		 0.3615619679
		 0.3619390898
		 0.362315949
		 0.3626925439
		 0.3630688622
		 0.3634449101
		 0.3638206946
		 0.3641962227
		 0.3645715015
		 0.3649465372
		 0.3653213227
		 0.3656958552
		 0.3660701353
		 0.3664441635
		 0.3668179405
		 0.3671914669
		 0.3675640241
		 0.3679351943
		 0.3683059066
		 0.3686770974
		 0.3690497032
		 0.3694246604
		 0.3698026034
		 0.3701823886
		 0.3705638619
		 0.3709471202
		 0.3713322606
		 0.3717193802
		 0.3721085859
		 0.3725009241
		 0.3728963118
		 0.3732936954
		 0.3736920216
		 0.3740902366
		 0.3744872872
		 0.374882706
		 0.3752777065
		 0.3756724057
		 0.3760668198
		 0.3764609649
		 0.376854857
		 0.3772485112
		 0.3776419179
		 0.3780350679
		 0.3784279577
		 0.3788205839
		 0.3792129431
		 0.3796050317
		 0.3799968456
		 0.3803883857
		 0.3807796574
		 0.3811706659
		 0.3815614169
		 0.3819519157
		 0.3823421657
		 0.3827321572
		 0.383121891
		 0.3835113705
		 0.3839005991
		 0.3842895802
		 0.3846783126
		 0.3850654842
		 0.3854509709
		 0.3858361033
		 0.3862222117
		 0.3866106268
		 0.387002679
		 0.3873992508
		 0.3877992816
		 0.3882021593
		 0.3886073662
		 0.3890143843
		 0.3894226958
		 0.3898318643
		 0.3902432296
		 0.3906568197
		 0.3910718127
		 0.3914873867
		 0.39190272
		 0.3923169906
		 0.3927300589
		 0.3931428298
		 0.3935553317
		 0.3939675686
		 0.3943795447
		 0.394791264
		 0.3952027291
		 0.3956139315
		 0.3960248722
		 0.3964355549
		 0.3968459833
		 0.3972561611
		 0.3976660923
		 0.3980757715
		 0.3984851947
		 0.3988943662
		 0.3993032906
		 0.3997119721
		 0.4001204153
		 0.4005286194
		 0.4009365701
		 0.4013442743
		 0.4017517412
		 0.4021589798
		 0.4025659995
		 0.4029727287
		 0.4033769189
		 0.4037790141
		 0.4041810089
		 0.4045848979
		 0.404992676
		 0.4054063378
		 0.4058274757
		 0.4062551648
		 0.4066875406
		 0.4071227389
		 0.4075588954
		 0.4079941459
		 0.4084269515
		 0.4088593047
		 0.4092918198
		 0.4097243577
		 0.4101567794
		 0.4105889459
		 0.4110207182
		 0.4114521141
		 0.4118832633
		 0.4123141714
		 0.4127448439
		 0.4131752862
		 0.4136055037
		 0.4140354974
		 0.414465253
		 0.4148947755
		 0.4153240727
		 0.4157531525
		 0.4161820227
		 0.4166106909
		 0.4170391492
		 0.417467393
		 0.4178954249
		 0.4183232478
		 0.4187508642
		 0.4191782769
		 0.4196049338
		 0.4200299984
		 0.4204544471
		 0.4208793315
		 0.4213057034
		 0.4217346143
		 0.422166918
		 0.4226010058
		 0.4230366997
		 0.423474544
		 0.4239150831
		 0.4243588613
		 0.4248064231
		 0.4252589958
		 0.4257166901
		 0.4261779169
		 0.4266410815
		 0.4271045894
		 0.4275668459
		 0.4280267542
		 0.4284860856
		 0.4289452081
		 0.429404131
		 0.4298628634
		 0.4303214144
		 0.4307797932
		 0.4312379899
		 0.4316959981
		 0.4321538227
		 0.4326114683
		 0.4330689397
		 0.4335262417
		 0.4339833725
		 0.4344403198
		 0.4348970904
		 0.4353536919
		 0.4358101323
		 0.4362664193
		 0.4367225587
		 0.4371785272
		 0.4376343269
		 0.4380899722
		 0.4385454773
		 0.4390008564
		 0.4394561239
		 0.4399099292
		 0.4403613051
		 0.4408120906
		 0.4412641507
		 0.4417193503
		 0.4421795546
		 0.4426465476
		 0.4431203269
		 0.4435991534
		 0.4440812175
		 0.4445647095
		 0.4450478196
		 0.4455287481
		 0.4460082786
		 0.4464878409
		 0.4469673978
		 0.4474469117
		 0.4479263454
		 0.4484056615
		 0.4488848383
		 0.4493639115
		 0.4498428929
		 0.450321791
		 0.4508006142
		 0.451279371
		 0.4517580694
		 0.4522367026
		 0.4527152661
		 0.45319376
		 0.4536721842
		 0.4541505387
		 0.4546288235
		 0.4551070232
		 0.4555851236
		 0.4560631474
		 0.4565411183
		 0.4570190595
		 0.4574969945
		 0.4579751018
		 0.4584543192
		 0.4589341071
		 0.4594136219
		 0.4598920202
		 0.4603684585
		 0.4608420937
		 0.4613128165
		 0.4617812858
		 0.4622478916
		 0.4627130237
		 0.4631770722
		 0.463640427
		 0.4641031247
		 0.4645642406
		 0.4650241198
		 0.4654832429
		 0.4659420904
		 0.4664011425
		 0.4668608557
		 0.4673208721
		 0.4677809152
		 0.4682409969
		 0.4687011296
		 0.4691613255
		 0.4696215966
		 0.4700819394
		 0.470542333
		 0.4710027869
		 0.4714633117
		 0.471923918
		 0.4723846161
		 0.4728454131
		 0.473306285
		 0.4737672347
		 0.4742282738
		 0.4746894137
		 0.475150666
		 0.4756120424
		 0.4760741952
		 0.4765373162
		 0.4770006602
		 0.4774634818
		 0.4779250359
		 0.4783845769
		 0.4788417807
		 0.4792979214
		 0.4797528081
		 0.4802060343
		 0.4806571938
		 0.4811058802
		 0.4815516649
		 0.4819935089
		 0.4824318686
		 0.4828679177
		 0.4833028297
		 0.4837377782
		 0.4841739367
		 0.4846116586
		 0.485049586
		 0.4854876649
		 0.4859259116
		 0.4863643423
		 0.4868029732
		 0.4872418173
		 0.4876808502
		 0.4881200693
		 0.4885594823
		 0.4889990972
		 0.4894389217
		 0.4898789636
		 0.4903192142
		 0.4907596622
		 0.4912003172
		 0.4916411892
		 0.492082288
		 0.4925236235
		 0.4929653438
		 0.49340798
		 0.4938511498
		 0.494294348
		 0.4947370696
		 0.4951788093
		 0.4956190958
		 0.4960597889
		 0.4965011332
		 0.4969416425
		 0.4973798304
		 0.4978142108
		 0.4982432975
		 0.4986655335
		 0.4990809586
		 0.4994915216
		 0.4998992285
		 0.5003060851
		 0.5007140972
		 0.5011250539
		 0.5015371648
		 0.5019495254
		 0.5023621493
		 0.5027750505
		 0.5031882427
		 0.5036017398
		 0.5040155357
		 0.5044296125
		 0.5048439778
		 0.5052586399
		 0.5056736066
		 0.5060888861
		 0.5065044813
		 0.5069203707
		 0.5073365604
		 0.5077530619
		 0.5081698867
		 0.5085870465
		 0.5090045535
		 0.5094225233
		 0.5098409498
		 0.5102597147
		 0.5106787
		 0.5110977872
		 0.5115168582
		 0.5119365022
		 0.5123581915
		 0.5127806387
		 0.5132023701
		 0.513621912
		 0.5140377908
		 0.5144485319
		 0.5148534722
		 0.515253943
		 0.5156515577
		 0.5160479297
		 0.5164446727
		 0.5168434002
		 0.5172442838
		 0.5176455808
		 0.5180472567
		 0.5184493103
		 0.5188517406
		 0.5192545464
		 0.5196577232
		 0.5200612514
		 0.5204651433
		 0.5208694171
		 0.521274091
		 0.5216791832
		 0.522084712
		 0.5224906591
		 0.522897008
		 0.5233037708
		 0.5237109598
		 0.5241185872
		 0.5245266652
		 0.5249351964
		 0.5253441566
		 0.525753553
		 0.5261633956
		 0.5265736947
		 0.5269844605
		 0.5273958437
		 0.5278109119
		 0.5282288998
		 0.52864711
		 0.5290628453
		 0.5294734084
		 0.5298761019
		 0.5302687457
		 0.5306525936
		 0.5310302953
		 0.5314045046
		 0.5317778755
		 0.5321530617
		 0.532532207
		 0.5329125665
		 0.533293265
		 0.5336743452
		 0.5340558498
		 0.5344378214
		 0.5348203027
		 0.5352032803
		 0.5355867149
		 0.5359706104
		 0.5363549702
		 0.5367397981
		 0.5371250978
		 0.5375108642
		 0.537897071
		 0.5382837351
		 0.5386708782
		 0.5390585218
		 0.5394466875
		 0.5398353958
		 0.5402246218
		 0.540614354
		 0.5410046019
		 0.5413953749
		 0.5417866827
		 0.5421785346
		 0.5425723837
		 0.5429701283
		 0.5433693388
		 0.5437674416
		 0.5441618629
		 0.5445500292
		 0.5449294335
		 0.5452997763
		 0.545663316
		 0.5460224435
		 0.5463795498
		 0.5467370257
		 0.5470972621
		 0.547459811
		 0.5478223028
		 0.5481849083
