ACES2Looks/ACEScct_LUT/T-SONY_Tone.cube
# This file is automagically generated by clfutil 0.3.0 from T-SONY_Tone.clf
LUT_1D_SIZE 4096
LUT_1D_INPUT_RANGE 0.0 1.4679964

		 0	 1.490116119e-08	 0
		 0.0004133839343	 0.0004136005609	 0.0004014624507
		 0.0008267677035	 0.0008271861428	 0.0008029247338
		 0.001240151137	 0.001240771561	 0.00120438668
		 0.001653534065	 0.001654356728	 0.00160584812
		 0.002066916317	 0.002067941559	 0.002007308885
		 0.002480297722	 0.002481525967	 0.002408768806
		 0.002893678007	 0.002895109727	 0.002810227608
		 0.003307056847	 0.00330869242	 0.003211684962
		 0.003720434681	 0.00372227447	 0.003613141309
		 0.004133812017	 0.004135856386	 0.004014597158
		 0.004547189364	 0.004549438677	 0.004416053018
		 0.004960567229	 0.004963021849	 0.004817509398
		 0.005373946103	 0.005376606404	 0.005218966788
		 0.005787325642	 0.005790192377	 0.005620424848
		 0.006200705533	 0.006203779388	 0.006021883263
		 0.006614085784	 0.006617367106	 0.006423342037
		 0.007027466403	 0.007030955198	 0.006824801174
		 0.007440847398	 0.007444543334	 0.007226260679
		 0.007854228776	 0.007858131182	 0.007627720556
		 0.008267610734	 0.008271718748	 0.008029181105
		 0.008680993517	 0.008685306535	 0.008430642719
		 0.009094376795	 0.009098894392	 0.008832104898
		 0.009507760219	 0.009512482141	 0.009233567118
		 0.009921143439	 0.0099260696	 0.009635028851
		 0.01033452611	 0.01033965659	 0.01003648957
		 0.0107479079	 0.01075324294	 0.01043794876
		 0.01116128892	 0.01116682858	 0.01083940632
		 0.01157466941	 0.01158041369	 0.01124086273
		 0.01198804955	 0.01199399846	 0.01164231853
		 0.01240142955	 0.01240758307	 0.01204377423
		 0.01281480958	 0.01282116773	 0.01244523037
		 0.01322818985	 0.01323475262	 0.01284668747
		 0.01364157033	 0.01364833772	 0.01324814561
		 0.01405495083	 0.01406192284	 0.01364960433
		 0.01446833135	 0.01447550798	 0.01405106346
		 0.01488171188	 0.01488909313	 0.01445252283
		 0.01529509241	 0.01530267828	 0.01485398225
		 0.01570847294	 0.01571626343	 0.01525544156
		 0.01612185347	 0.01612984858	 0.01565690063
		 0.01653523399	 0.01654343372	 0.01605835967
		 0.0169486145	 0.01695701885	 0.01645981869
		 0.01736199501	 0.01737060399	 0.01686127771
		 0.01777537553	 0.01778418912	 0.01726273674
		 0.01818875604	 0.01819777426	 0.01766419577
		 0.01860213656	 0.0186113594	 0.01806565481
		 0.01901551709	 0.01902494454	 0.01846711384
		 0.0194288976	 0.01943852968	 0.01886857287
		 0.01984227811	 0.01985211481	 0.0192700319
		 0.02025565863	 0.02026569994	 0.01967149092
		 0.02066903914	 0.02067928508	 0.02007294995
		 0.02108241966	 0.02109287022	 0.02047440898
		 0.02149580011	 0.02150645529	 0.02087586803
		 0.02190918035	 0.02192004015	 0.0212773271
		 0.02232256053	 0.02233362496	 0.02167878617
		 0.0227359408	 0.02274720984	 0.02208024523
		 0.02314932131	 0.02316079497	 0.02248170426
		 0.02356270221	 0.02357438049	 0.02288316323
		 0.02397608368	 0.02398796656	 0.02328462214
		 0.02438946612	 0.02440155339	 0.02368608094
		 0.02480284926	 0.02481514078	 0.02408753966
		 0.02521623265	 0.02522872845	 0.02448899836
		 0.02562961582	 0.0256423161	 0.02489045709
		 0.02604299832	 0.02605590346	 0.0252919159
		 0.02645637969	 0.02646949023	 0.02569337484
		 0.02686975948	 0.02688307621	 0.02609483383
		 0.02728313788	 0.02729666158	 0.02649629278
		 0.02769651549	 0.02771024659	 0.02689775177
		 0.02810989292	 0.02812383153	 0.02729921091
		 0.02852327078	 0.02853741666	 0.0277006703
		 0.02893664969	 0.02895100225	 0.02810213004
		 0.02935003019	 0.02936458857	 0.02850359031
		 0.02976341206	 0.02977817559	 0.02890505149
		 0.03017679485	 0.03019176305	 0.02930651323
		 0.03059017813	 0.03060535071	 0.02970797511
		 0.03100356146	 0.03101893828	 0.03010943668
		 0.0314169444	 0.03143252551	 0.03051089749
		 0.03183032652	 0.03184611213	 0.03091235712
		 0.03224370775	 0.03225969816	 0.03131381512
		 0.03265708841	 0.0326732838	 0.03171527183
		 0.03307046877	 0.03308686914	 0.03211672786
		 0.03348384911	 0.03350045429	 0.03251818383
		 0.03389722968	 0.03391403935	 0.03291964034
		 0.03431061077	 0.03432762442	 0.03332109802
		 0.0347239926	 0.03474120951	 0.03372255733
		 0.0351373751	 0.03515479442	 0.03412401793
		 0.035550758	 0.03556837923	 0.03452547937
		 0.03596414104	 0.035981964	 0.03492694122
		 0.03637752395	 0.0363955488	 0.03532840303
		 0.03679090647	 0.03680913371	 0.03572986437
		 0.03720428835	 0.03722271881	 0.03613132483
		 0.03761766991	 0.03763630411	 0.03653278488
		 0.03803105123	 0.03804988954	 0.03693424471
		 0.03844443226	 0.03846347503	 0.03733570424
		 0.03885781292	 0.03887706052	 0.0377371634
		 0.03927119313	 0.03929064593	 0.03813862214
		 0.03968457284	 0.0397042312	 0.03854008036
		 0.04009795166	 0.04011781617	 0.0389415377
		 0.04051132935	 0.0405314008	 0.03934299391
		 0.04092470645	 0.0409449853	 0.03974444953
		 0.04133808352	 0.04135856988	 0.04014590512
		 0.04175146109	 0.04177215473	 0.04054736121
		 0.04216483972	 0.04218574007	 0.04094881836
		 0.0425782199	 0.04259932611	 0.0413502771
		 0.0429916016	 0.04301291298	 0.04175173758
		 0.04340498435	 0.04342650042	 0.04215319923
		 0.04381836767	 0.04384008812	 0.04255466139
		 0.04423175109	 0.04425367579	 0.04295612343
		 0.04464513413	 0.04466726311	 0.04335758469
		 0.04505851633	 0.0450808498	 0.04375904454
		 0.04547189776	 0.04549443585	 0.04416050278
		 0.04588527879	 0.0459080215	 0.04456195989
		 0.04629865952	 0.04632160685	 0.0449634163
		 0.04671204006	 0.04673519201	 0.04536487247
		 0.0471254205	 0.04714877707	 0.04576632883
		 0.04753880094	 0.04756236214	 0.04616778583
		 0.04795218143	 0.04797594717	 0.04656924368
		 0.0483655618	 0.04838953187	 0.04697070183
		 0.04877894207	 0.04880311638	 0.04737216024
		 0.04919232229	 0.04921670092	 0.04777361895
		 0.04960570247	 0.04963028569	 0.048175078
		 0.05001908267	 0.0500438709	 0.04857653743
		 0.05043246291	 0.05045745677	 0.04897799729
		 0.05084584309	 0.05087104364	 0.04937945806
		 0.0512592232	 0.05128463127	 0.04978091959
		 0.05167260333	 0.05169821922	 0.05018238144
		 0.05208598353	 0.05211180705	 0.05058384317
		 0.05249936389	 0.05252539433	 0.05098530434
		 0.05291274446	 0.0529389806	 0.05138676452
		 0.05332612536	 0.05335256557	 0.05178822338
		 0.0537395066	 0.05376614949	 0.05218968117
		 0.05415288805	 0.05417973273	 0.05259113827
		 0.05456626954	 0.05459331565	 0.05299259505
		 0.05497965095	 0.05500689862	 0.05339405188
		 0.05539303211	 0.055420482	 0.05379550914
		 0.05580641289	 0.05583406607	 0.0541969671
		 0.05621979315	 0.05624765037	 0.0545984253
		 0.05663317308	 0.05666123484	 0.05499988367
		 0.05704655293	 0.05707481953	 0.05540134226
		 0.05745993293	 0.05748840453	 0.05580280116
		 0.05787331334	 0.0579019899	 0.05620426043
		 0.05828669438	 0.05831557571	 0.05660572014
		 0.05870007631	 0.05872916211	 0.05700718059
		 0.05911345899	 0.05914274906	 0.05740864179
		 0.05952684207	 0.05955633639	 0.05781010339
		 0.05994022522	 0.05996992394	 0.05821156506
		 0.06035360809	 0.06038351154	 0.05861302646
		 0.06076699035	 0.060797099	 0.05901448723
		 0.06118037173	 0.0612106863	 0.05941594713
		 0.06159375247	 0.06162427381	 0.05981740639
		 0.06200713276	 0.06203786141	 0.06021886521
		 0.06242051277	 0.06245144893	 0.06062032374
		 0.06283389267	 0.06286503619	 0.06102178215
		 0.06324727261	 0.06327862304	 0.06142324062
		 0.06366065277	 0.06369220929	 0.06182469931
		 0.06407403295	 0.0641057948	 0.06222615821
		 0.06448741307	 0.06451937972	 0.06262761721
		 0.06490079319	 0.06493296429	 0.06302907621
		 0.06531417339	 0.06534654876	 0.06343053511
		 0.06572755374	 0.06576013336	 0.0638319938
		 0.0661409343	 0.06617371834	 0.06423345218
		 0.06655431509	 0.06658730384	 0.06463491002
		 0.066967696	 0.06700088969	 0.06503636716
		 0.06738107706	 0.06741447575	 0.06543782395
		 0.06779445828	 0.06782806186	 0.06583928076
		 0.06820783971	 0.0682416479	 0.06624073798
		 0.06862122136	 0.0686552337	 0.06664219597
		 0.06903460328	 0.06906881914	 0.0670436551
		 0.06944798578	 0.06948240428	 0.06744511552
		 0.06986136869	 0.06989598922	 0.06784657684
		 0.07027475175	 0.07030957402	 0.06824803864
		 0.07068813468	 0.07072315876	 0.06864950046
		 0.07110151722	 0.0711367435	 0.06905096187
		 0.07151489909	 0.07155032832	 0.06945242242
		 0.07192828035	 0.07196391321	 0.0698538822
		 0.07234166125	 0.0723774981	 0.07025534162
		 0.07275504179	 0.07279108299	 0.07065680068
		 0.07316842197	 0.07320466789	 0.07105825938
		 0.07358180178	 0.07361825278	 0.07145971771
		 0.07399518122	 0.07403183767	 0.07186117568
		 0.07440856012	 0.07444542248	 0.07226263309
		 0.07482193787	 0.07485900697	 0.07266408936
		 0.07523531493	 0.07527259132	 0.07306554494
		 0.07564869188	 0.07568617577	 0.07346700041
		 0.07606206929	 0.07609976058	 0.07386845635
		 0.07647544775	 0.07651334596	 0.07426991333
		 0.07688882784	 0.07692693218	 0.07467137193
		 0.07730220992	 0.07734051962	 0.07507283252
		 0.07771559353	 0.07775410804	 0.07547429462
		 0.078128978	 0.07816769698	 0.07587575757
		 0.07854236269	 0.07858128594	 0.07627722074
		 0.07895574694	 0.07899487444	 0.07667868347
		 0.07936913009	 0.079408462	 0.07708014513
		 0.0797825118	 0.07982204832	 0.07748160545
		 0.08019589264	 0.08023563377	 0.07788306512
		 0.08060927287	 0.08064921862	 0.07828452424
		 0.08102265272	 0.0810628031	 0.0786859829
		 0.08143603245	 0.08147638745	 0.07908744115
		 0.0818494123	 0.08188997191	 0.07948889907
		 0.08226279244	 0.08230355668	 0.07989035666
		 0.08267617247	 0.08271714133	 0.08029181327
		 0.08308955237	 0.08313072585	 0.08069326912
		 0.0835029323	 0.0835443104	 0.0810947247
		 0.08391631244	 0.08395789516	 0.08149618054
		 0.08432969295	 0.0843714803	 0.08189763713
		 0.084743074	 0.08478506597	 0.08229909499
		 0.08515645586	 0.08519865244	 0.08270055448
		 0.08556983848	 0.08561223969	 0.08310201533
		 0.08598322155	 0.08602582737	 0.083503477
		 0.0863966047	 0.08643941515	 0.083904939
		 0.08680998761	 0.08685300268	 0.08430640081
		 0.08722336993	 0.08726658962	 0.08470786192
		 0.08763675141	 0.08768017572	 0.08510932195
		 0.08805013236	 0.08809376129	 0.08551078142
		 0.0884635129	 0.08850734645	 0.08591224048
		 0.08887689311	 0.08892093128	 0.08631369921
		 0.08929027305	 0.08933451584	 0.08671515767
		 0.0897036528	 0.08974810021	 0.08711661594
		 0.09011703242	 0.09016168445	 0.08751807408
		 0.09053041149	 0.09057526814	 0.08791953175
		 0.09094378998	 0.09098885126	 0.08832098891
		 0.09135716826	 0.09140243416	 0.08872244585
		 0.09177054669	 0.0918160172	 0.08912390286
		 0.09218392562	 0.09222960076	 0.08952536021
		 0.09259730544	 0.0926431852	 0.0899268182
		 0.09301068645	 0.09305677079	 0.090328277
		 0.09342406854	 0.09347035735	 0.09072973635
		 0.09383745135	 0.09388394459	 0.09113119613
		 0.09425083454	 0.09429753226	 0.09153265625
		 0.09466421774	 0.09471112007	 0.09193411661
		 0.09507760061	 0.09512470777	 0.0923355771
		 0.09549098283	 0.09553829513	 0.09273703767
		 0.0959043647	 0.09595188257	 0.0931384988
		 0.09631774639	 0.09636547016	 0.09353996041
		 0.0967311279	 0.09677905772	 0.09394142214
		 0.09714450922	 0.09719264509	 0.09434288366
		 0.09755789037	 0.09760623208	 0.09474434462
		 0.09797127133	 0.09801981854	 0.09514580469
		 0.09838465205	 0.09843340427	 0.09554726361
		 0.09879803251	 0.09884698935	 0.09594872159
		 0.09921141277	 0.09926057401	 0.09635017895
		 0.09962479291	 0.09967415848	 0.096751636
		 0.100038173	 0.100087743	 0.09715309309
		 0.1004515531	 0.1005013279	 0.09755455052
		 0.1008649332	 0.1009149132	 0.09795600855
		 0.1012783132	 0.1013284989	 0.09835746687
		 0.101691693	 0.1017420849	 0.09875892536
		 0.1021050729	 0.102155671	 0.09916038399
		 0.1025184529	 0.1025692571	 0.09956184271
		 0.1029318332	 0.102982843	 0.09996330148
		 0.1033452138	 0.1033964286	 0.1003647603
		 0.103758595	 0.1038100139	 0.1007662191
		 0.1041719767	 0.1042235989	 0.1011676779
		 0.1045853586	 0.1046371838	 0.1015691368
		 0.1049987406	 0.1050507687	 0.1019705958
		 0.1054121224	 0.1054643537	 0.1023720549
		 0.1058255037	 0.1058779389	 0.1027735142
		 0.1062388845	 0.1062915244	 0.1031749736
		 0.1066522647	 0.1067051101	 0.1035764333
		 0.1070656446	 0.107118696	 0.1039778933
		 0.1074790244	 0.107532282	 0.1043793533
		 0.1078924042	 0.107945868	 0.1047808132
		 0.1083057843	 0.1083594539	 0.1051822728
		 0.1087191648	 0.1087730399	 0.1055837321
		 0.1091325457	 0.1091866258	 0.105985191
		 0.1095459268	 0.1096002118	 0.1063866496
		 0.1099593081	 0.1100137978	 0.106788108
		 0.1103726896	 0.1104273837	 0.1071895664
		 0.110786071	 0.1108409695	 0.1075910248
		 0.1111994525	 0.1112545552	 0.1079924834
		 0.111612834	 0.1116681405	 0.1083939422
		 0.1120262158	 0.1120817256	 0.108795401
		 0.1124395977	 0.1124953105	 0.1091968599
		 0.1128529795	 0.1129088954	 0.1095983189
		 0.1132663611	 0.1133224803	 0.109999778
		 0.1136797425	 0.1137360655	 0.1104012372
		 0.1140931233	 0.1141496509	 0.1108026966
		 0.1145065036	 0.1145632365	 0.1112041562
		 0.1149198835	 0.1149768223	 0.111605616
		 0.1153332633	 0.1153904082	 0.112007076
		 0.115746643	 0.1158039942	 0.1124085359
		 0.1161600231	 0.1162175803	 0.1128099956
		 0.1165734036	 0.1166311663	 0.1132114552
		 0.1169867848	 0.1170447525	 0.1136129144
		 0.1174001665	 0.117458339	 0.1140143736
		 0.1178135484	 0.1178719254	 0.1144158326
		 0.1182269304	 0.1182855119	 0.1148172916
		 0.1186403122	 0.1186990981	 0.1152187504
		 0.1190536936	 0.119112684	 0.1156202092
		 0.1194670744	 0.1195262694	 0.116021668
		 0.1198804546	 0.1199398542	 0.1164231266
		 0.1202938345	 0.1203534388	 0.1168245852
		 0.1207072143	 0.1207670232	 0.1172260438
		 0.1211205941	 0.1211806076	 0.1176275023
		 0.1215339742	 0.1215941923	 0.1180289608
		 0.1219473547	 0.1220077774	 0.1184304194
		 0.1223607357	 0.122421363	 0.1188318779
		 0.122774117	 0.1228349489	 0.1192333364
		 0.1231874984	 0.123248535	 0.119634795
		 0.1236008799	 0.1236621211	 0.1200362535
		 0.1240142613	 0.1240757071	 0.1204377121
		 0.1244276424	 0.1244892929	 0.1208391709
		 0.1248410231	 0.1249028782	 0.1212406296
		 0.1252544036	 0.1253164633	 0.1216420885
		 0.1256677839	 0.1257300482	 0.1220435474
		 0.1260811642	 0.1261436331	 0.1224450063
		 0.1264945445	 0.1265572181	 0.1228464654
		 0.126907925	 0.1269708032	 0.1232479246
		 0.1273213058	 0.1273843886	 0.1236493839
		 0.1277346871	 0.1277979742	 0.1240508435
		 0.1281480686	 0.12821156	 0.1244523031
		 0.1285614502	 0.1286251459	 0.1248537629
		 0.1289748317	 0.1290387319	 0.1252552227
		 0.1293882129	 0.1294523179	 0.1256566826
		 0.1298015935	 0.129865904	 0.1260581426
		 0.1302149733	 0.1302794901	 0.1264596027
		 0.1306283526	 0.1306930764	 0.1268610633
		 0.1310417315	 0.1311066627	 0.1272625239
		 0.1314551103	 0.131520249	 0.1276639844
		 0.1318684893	 0.1319338353	 0.1280654445
		 0.1322818689	 0.1323474215	 0.128466904
		 0.1326952492	 0.1327610075	 0.1288683627
		 0.13310863	 0.1331745934	 0.1292698204
		 0.1335220112	 0.1335881793	 0.1296712775
		 0.1339353927	 0.1340017652	 0.1300727343
		 0.1343487743	 0.134415351	 0.1304741912
		 0.1347621558	 0.1348289368	 0.1308756486
		 0.1351755372	 0.1352425227	 0.1312771068
		 0.1355889184	 0.1356561085	 0.131678566
		 0.1360022996	 0.1360696943	 0.1320800259
		 0.1364156808	 0.1364832802	 0.1324814861
		 0.136829062	 0.136896866	 0.1328829463
		 0.1372424433	 0.1373104519	 0.1332844063
		 0.1376558247	 0.1377240379	 0.1336858657
		 0.1380692061	 0.138137624	 0.1340873243
		 0.1384825877	 0.1385512102	 0.1344887822
		 0.1388959694	 0.1389647965	 0.1348902397
		 0.1393093511	 0.1393783828	 0.135291697
		 0.1397227328	 0.1397919691	 0.1356931546
		 0.1401361144	 0.1402055553	 0.1360946125
		 0.1405494958	 0.1406191414	 0.1364960712
		 0.1409628769	 0.1410327274	 0.1368975304
		 0.1413762578	 0.1414463132	 0.1372989901
		 0.1417896387	 0.1418598991	 0.13770045
		 0.1422030198	 0.1422734849	 0.13810191
		 0.1426164012	 0.1426870707	 0.1385033701
		 0.1430297832	 0.1431006566	 0.13890483
		 0.1434431662	 0.1435142426	 0.1393062897
		 0.1438565501	 0.1439278287	 0.1397077494
		 0.1442699345	 0.1443414149	 0.140109209
		 0.1446833188	 0.144755001	 0.1405106687
		 0.1450967026	 0.1451685868	 0.1409121285
		 0.1455100855	 0.1455821722	 0.1413135884
		 0.1459234669	 0.1459957571	 0.1417150484
		 0.1463368472	 0.1464093412	 0.1421165088
		 0.1467502266	 0.1468229248	 0.1425179694
		 0.1471636055	 0.1472365082	 0.1429194299
		 0.1475769841	 0.1476500918	 0.1433208903
		 0.1479903627	 0.1480636757	 0.1437223501
		 0.1484037416	 0.1484772602	 0.1441238092
		 0.1488171204	 0.1488908454	 0.1445252673
		 0.149230499	 0.1493044311	 0.1449267245
		 0.1496438775	 0.149718017	 0.1453281813
		 0.1500572561	 0.1501316032	 0.1457296381
		 0.1504706352	 0.1505451894	 0.1461310953
		 0.1508840148	 0.1509587755	 0.1465325532
		 0.1512973953	 0.1513723616	 0.1469340122
		 0.1517107765	 0.1517859479	 0.1473354723
		 0.1521241582	 0.1521995342	 0.1477369329
		 0.1525375401	 0.1526131205	 0.1481383938
		 0.1529509222	 0.1530267068	 0.1485398544
		 0.1533643041	 0.153440293	 0.1489413144
		 0.1537776856	 0.153853879	 0.1493427734
		 0.154191067	 0.1542674648	 0.1497442311
		 0.1546044483	 0.1546810503	 0.1501456879
		 0.1550178295	 0.1550946358	 0.1505471444
		 0.1554312107	 0.1555082215	 0.1509486012
		 0.1558445919	 0.1559218075	 0.1513500586
		 0.1562579731	 0.1563353942	 0.1517515174
		 0.1566713545	 0.1567489817	 0.152152978
		 0.157084736	 0.1571625702	 0.1525544404
		 0.1574981176	 0.1575761592	 0.1529559037
		 0.157911499	 0.1579897482	 0.1533573671
		 0.1583248803	 0.1584033366	 0.1537588297
		 0.1587382611	 0.1588169241	 0.1541602909
		 0.1591516413	 0.1592305102	 0.1545617497
		 0.1595650208	 0.1596440952	 0.1549632062
		 0.1599783998	 0.1600576792	 0.1553646612
		 0.1603917786	 0.1604712628	 0.1557661154
		 0.1608051575	 0.160884846	 0.1561675697
		 0.1612185368	 0.1612984292	 0.1565690249
		 0.1616319167	 0.1617120128	 0.1569704816
		 0.1620452973	 0.1621255962	 0.1573719401
		 0.1624586783	 0.1625391794	 0.1577733997
		 0.1628720596	 0.1629527625	 0.15817486
		 0.1632854411	 0.1633663458	 0.1585763206
		 0.1636988227	 0.1637799294	 0.1589777809
		 0.1641122043	 0.1641935137	 0.1593792405
		 0.1645255858	 0.1646070987	 0.1597806992
		 0.1649389677	 0.1650206845	 0.1601821571
		 0.1653523498	 0.1654342708	 0.1605836146
		 0.1657657318	 0.1658478574	 0.160985072
		 0.1661791135	 0.166261444	 0.1613865295
		 0.1665924946	 0.1666750306	 0.1617879874
		 0.1670058751	 0.1670886167	 0.162189446
		 0.1674192543	 0.1675022025	 0.162590905
		 0.1678326327	 0.167915788	 0.1629923642
		 0.1682460107	 0.1683293735	 0.1633938238
		 0.1686593889	 0.1687429592	 0.1637952837
		 0.1690727679	 0.1691565452	 0.1641967439
		 0.169486148	 0.1695701318	 0.1645982046
		 0.16989953	 0.1699837193	 0.1649996659
		 0.1703129135	 0.1703973078	 0.1654011283
		 0.1707262979	 0.1708108967	 0.1658025911
		 0.1711396826	 0.1712244857	 0.1662040539
		 0.1715530669	 0.1716380742	 0.1666055163
		 0.1719664501	 0.1720516618	 0.1670069778
		 0.1723798316	 0.1724652479	 0.1674084378
		 0.1727932117	 0.1728788329	 0.1678098967
		 0.1732065908	 0.173292417	 0.1682113548
		 0.1736199694	 0.1737060006	 0.1686128122
		 0.1740333479	 0.1741195838	 0.1690142694
		 0.1744467268	 0.174533167	 0.1694157266
		 0.1748601066	 0.1749467505	 0.169817184
		 0.1752734871	 0.175360334	 0.1702186414
		 0.1756868681	 0.1757739172	 0.1706200984
		 0.1761002494	 0.1761875003	 0.1710215554
		 0.1765136309	 0.1766010836	 0.1714230125
		 0.1769270125	 0.1770146672	 0.17182447
		 0.1773403941	 0.1774282514	 0.1722259281
		 0.1777537755	 0.1778418364	 0.172627387
		 0.1781671571	 0.1782554221	 0.173028847
		 0.1785805388	 0.1786690084	 0.1734303076
		 0.1789939205	 0.179082595	 0.1738317684
		 0.1794073022	 0.1794961817	 0.1742332291
		 0.1798206838	 0.1799097682	 0.1746346892
		 0.1802340653	 0.1803233544	 0.1750361483
		 0.1806474468	 0.1807369404	 0.1754376063
		 0.1810608285	 0.1811505263	 0.1758390636
		 0.1814742101	 0.1815641122	 0.1762405204
		 0.1818875914	 0.181977698	 0.1766419773
		 0.1823009724	 0.1823912838	 0.1770434345
		 0.1827143529	 0.1828048696	 0.1774448924
		 0.1831277327	 0.1832184555	 0.1778463511
		 0.1835411116	 0.1836320413	 0.1782478104
		 0.1839544901	 0.1840456271	 0.1786492702
		 0.1843678684	 0.184459213	 0.1790507302
		 0.184781247	 0.1848727989	 0.1794521903
		 0.1851946262	 0.1852863848	 0.1798536504
		 0.1856080063	 0.1856999709	 0.1802551105
		 0.1860213873	 0.186113557	 0.1806565708
		 0.1864347688	 0.1865271433	 0.1810580314
		 0.1868481508	 0.1869407296	 0.181459492
		 0.1872615328	 0.1873543159	 0.1818609524
		 0.1876749148	 0.1877679022	 0.1822624123
		 0.1880882964	 0.1881814883	 0.1826638715
		 0.188501678	 0.1885950743	 0.1830653297
		 0.1889150595	 0.1890086601	 0.183466787
		 0.1893284411	 0.1894222459	 0.1838682439
		 0.1897418225	 0.1898358317	 0.1842697007
		 0.1901552036	 0.1902494176	 0.1846711577
		 0.1905685843	 0.1906630035	 0.1850726156
		 0.1909819645	 0.1910765896	 0.1854740744
		 0.1913953439	 0.1914901761	 0.185875534
		 0.1918087229	 0.1919037628	 0.1862769942
		 0.1922221017	 0.1923173494	 0.1866784548
		 0.1926354807	 0.1927309358	 0.1870799154
		 0.19304886	 0.1931445216	 0.1874813759
		 0.19346224	 0.1935581068	 0.187882836
		 0.1938756206	 0.1939716909	 0.188284296
		 0.1942890017	 0.1943852743	 0.1886857562
		 0.1947023831	 0.1947988573	 0.1890872163
		 0.1951157647	 0.1952124403	 0.1894886761
		 0.1955291462	 0.1956260236	 0.1898901356
		 0.1959425277	 0.1960396076	 0.1902915947
		 0.1963559089	 0.1964531925	 0.1906930529
		 0.1967692901	 0.1968667779	 0.1910945104
		 0.1971826713	 0.1972803638	 0.1914959673
		 0.1975960525	 0.1976939499	 0.1918974241
		 0.1980094338	 0.1981075362	 0.1922988812
		 0.1984228151	 0.1985211224	 0.1927003388
		 0.1988361965	 0.1989347085	 0.1931017975
		 0.1992495781	 0.1993482947	 0.1935032572
		 0.1996629597	 0.199761881	 0.1939047177
		 0.2000763414	 0.2001754673	 0.1943061785
		 0.2004897231	 0.2005890536	 0.1947076392
		 0.2009031047	 0.2010026398	 0.1951090995
		 0.2013164863	 0.201416226	 0.1955105589
		 0.2017298676	 0.2018298118	 0.195912017
		 0.2021432489	 0.2022433974	 0.1963134741
		 0.2025566302	 0.2026569829	 0.1967149307
		 0.2029700114	 0.2030705685	 0.1971163873
		 0.2033833926	 0.2034841544	 0.1975178444
		 0.2037967738	 0.2038977408	 0.1979193026
		 0.2042101551	 0.204311328	 0.1983207625
		 0.2046235366	 0.2047249162	 0.1987222241
		 0.2050369182	 0.205138505	 0.1991236868
		 0.2054502997	 0.2055520941	 0.1995251499
		 0.205863681	 0.2059656828	 0.1999266129
		 0.206277062	 0.2063792707	 0.200328075
		 0.2066904424	 0.2067928573	 0.2007295356
		 0.2071038221	 0.2072064426	 0.2011309948
		 0.2075172012	 0.2076200268	 0.201532453
		 0.20793058	 0.2080336105	 0.2019339105
		 0.2083439589	 0.2084471937	 0.2023353677
		 0.208757338	 0.208860777	 0.2027368249
		 0.2091707177	 0.2092743605	 0.2031382823
		 0.2095840984	 0.2096879442	 0.2035397401
		 0.2099974797	 0.2101015276	 0.2039411977
		 0.2104108614	 0.2105151108	 0.2043426553
		 0.2108242434	 0.2109286943	 0.204744113
		 0.2112376254	 0.2113422782	 0.2051455708
		 0.2116510072	 0.2117558628	 0.2055470289
		 0.2120643885	 0.2121694485	 0.2059484874
		 0.2124777696	 0.2125830357	 0.2063499463
		 0.2128911504	 0.2129966239	 0.2067514054
		 0.2133045311	 0.2134102127	 0.2071528647
		 0.2137179119	 0.2138238014	 0.2075543242
		 0.2141312927	 0.2142373895	 0.2079557839
		 0.2145446738	 0.2146509763	 0.2083572436
		 0.2149580553	 0.2150645616	 0.2087587036
		 0.2153714371	 0.2154781457	 0.209160164
		 0.2157848191	 0.215891729	 0.2095616245
		 0.2161982011	 0.2163053122	 0.2099630851
		 0.2166115828	 0.2167188955	 0.2103645453
		 0.2170249639	 0.2171324795	 0.210766005
		 0.2174409526	 0.2175486724	 0.211169895
		 0.2178708606	 0.2179787847	 0.2115867589
		 0.2183072569	 0.2184153856	 0.2120096702
