ACES2Looks/ACEScct_LUT/T-SONY_Neutral_Tone.cube
# This file is automagically generated by clfutil 0.3.0 from T-SONY_Neutral_Tone.clf
LUT_1D_SIZE 4096
LUT_1D_INPUT_RANGE 0.0 1.4679964
  
   0    0    0
   0.0004133839343    0.0004133839343    0.0004133839343
   0.0008267677035    0.0008267677035    0.0008267677035
   0.001240151137    0.001240151137    0.001240151137
   0.001653534065    0.001653534065    0.001653534065
   0.002066916317    0.002066916317    0.002066916317
   0.002480297722    0.002480297722    0.002480297722
   0.002893678007    0.002893678007    0.002893678007
   0.003307056847    0.003307056847    0.003307056847
   0.003720434681    0.003720434681    0.003720434681
   0.004133812017    0.004133812017    0.004133812017
   0.004547189364    0.004547189364    0.004547189364
   0.004960567229    0.004960567229    0.004960567229
   0.005373946103    0.005373946103    0.005373946103
   0.005787325642    0.005787325642    0.005787325642
   0.006200705533    0.006200705533    0.006200705533
   0.006614085784    0.006614085784    0.006614085784
   0.007027466403    0.007027466403    0.007027466403
   0.007440847398    0.007440847398    0.007440847398
   0.007854228776    0.007854228776    0.007854228776
   0.008267610734    0.008267610734    0.008267610734
   0.008680993517    0.008680993517    0.008680993517
   0.009094376795    0.009094376795    0.009094376795
   0.009507760219    0.009507760219    0.009507760219
   0.009921143439    0.009921143439    0.009921143439
   0.01033452611    0.01033452611    0.01033452611
   0.0107479079    0.0107479079    0.0107479079
   0.01116128892    0.01116128892    0.01116128892
   0.01157466941    0.01157466941    0.01157466941
   0.01198804955    0.01198804955    0.01198804955
   0.01240142955    0.01240142955    0.01240142955
   0.01281480958    0.01281480958    0.01281480958
   0.01322818985    0.01322818985    0.01322818985
   0.01364157033    0.01364157033    0.01364157033
   0.01405495083    0.01405495083    0.01405495083
   0.01446833135    0.01446833135    0.01446833135
   0.01488171188    0.01488171188    0.01488171188
   0.01529509241    0.01529509241    0.01529509241
   0.01570847294    0.01570847294    0.01570847294
   0.01612185347    0.01612185347    0.01612185347
   0.01653523399    0.01653523399    0.01653523399
   0.0169486145    0.0169486145    0.0169486145
   0.01736199501    0.01736199501    0.01736199501
   0.01777537553    0.01777537553    0.01777537553
   0.01818875604    0.01818875604    0.01818875604
   0.01860213656    0.01860213656    0.01860213656
   0.01901551709    0.01901551709    0.01901551709
   0.0194288976    0.0194288976    0.0194288976
   0.01984227811    0.01984227811    0.01984227811
   0.02025565863    0.02025565863    0.02025565863
   0.02066903914    0.02066903914    0.02066903914
   0.02108241966    0.02108241966    0.02108241966
   0.02149580011    0.02149580011    0.02149580011
   0.02190918035    0.02190918035    0.02190918035
   0.02232256053    0.02232256053    0.02232256053
   0.0227359408    0.0227359408    0.0227359408
   0.02314932131    0.02314932131    0.02314932131
   0.02356270221    0.02356270221    0.02356270221
   0.02397608368    0.02397608368    0.02397608368
   0.02438946612    0.02438946612    0.02438946612
   0.02480284926    0.02480284926    0.02480284926
   0.02521623265    0.02521623265    0.02521623265
   0.02562961582    0.02562961582    0.02562961582
   0.02604299832    0.02604299832    0.02604299832
   0.02645637969    0.02645637969    0.02645637969
   0.02686975948    0.02686975948    0.02686975948
   0.02728313788    0.02728313788    0.02728313788
   0.02769651549    0.02769651549    0.02769651549
   0.02810989292    0.02810989292    0.02810989292
   0.02852327078    0.02852327078    0.02852327078
   0.02893664969    0.02893664969    0.02893664969
   0.02935003019    0.02935003019    0.02935003019
   0.02976341206    0.02976341206    0.02976341206
   0.03017679485    0.03017679485    0.03017679485
   0.03059017813    0.03059017813    0.03059017813
   0.03100356146    0.03100356146    0.03100356146
   0.0314169444    0.0314169444    0.0314169444
   0.03183032652    0.03183032652    0.03183032652
   0.03224370775    0.03224370775    0.03224370775
   0.03265708841    0.03265708841    0.03265708841
   0.03307046877    0.03307046877    0.03307046877
   0.03348384911    0.03348384911    0.03348384911
   0.03389722968    0.03389722968    0.03389722968
   0.03431061077    0.03431061077    0.03431061077
   0.0347239926    0.0347239926    0.0347239926
   0.0351373751    0.0351373751    0.0351373751
   0.035550758    0.035550758    0.035550758
   0.03596414104    0.03596414104    0.03596414104
   0.03637752395    0.03637752395    0.03637752395
   0.03679090647    0.03679090647    0.03679090647
   0.03720428835    0.03720428835    0.03720428835
   0.03761766991    0.03761766991    0.03761766991
   0.03803105123    0.03803105123    0.03803105123
   0.03844443226    0.03844443226    0.03844443226
   0.03885781292    0.03885781292    0.03885781292
   0.03927119313    0.03927119313    0.03927119313
   0.03968457284    0.03968457284    0.03968457284
   0.04009795166    0.04009795166    0.04009795166
   0.04051132935    0.04051132935    0.04051132935
   0.04092470645    0.04092470645    0.04092470645
   0.04133808352    0.04133808352    0.04133808352
   0.04175146109    0.04175146109    0.04175146109
   0.04216483972    0.04216483972    0.04216483972
   0.0425782199    0.0425782199    0.0425782199
   0.0429916016    0.0429916016    0.0429916016
   0.04340498435    0.04340498435    0.04340498435
   0.04381836767    0.04381836767    0.04381836767
   0.04423175109    0.04423175109    0.04423175109
   0.04464513413    0.04464513413    0.04464513413
   0.04505851633    0.04505851633    0.04505851633
   0.04547189776    0.04547189776    0.04547189776
   0.04588527879    0.04588527879    0.04588527879
   0.04629865952    0.04629865952    0.04629865952
   0.04671204006    0.04671204006    0.04671204006
   0.0471254205    0.0471254205    0.0471254205
   0.04753880094    0.04753880094    0.04753880094
   0.04795218143    0.04795218143    0.04795218143
   0.0483655618    0.0483655618    0.0483655618
   0.04877894207    0.04877894207    0.04877894207
   0.04919232229    0.04919232229    0.04919232229
   0.04960570247    0.04960570247    0.04960570247
   0.05001908267    0.05001908267    0.05001908267
   0.05043246291    0.05043246291    0.05043246291
   0.05084584309    0.05084584309    0.05084584309
   0.0512592232    0.0512592232    0.0512592232
   0.05167260333    0.05167260333    0.05167260333
   0.05208598353    0.05208598353    0.05208598353
   0.05249936389    0.05249936389    0.05249936389
   0.05291274446    0.05291274446    0.05291274446
   0.05332612536    0.05332612536    0.05332612536
   0.0537395066    0.0537395066    0.0537395066
   0.05415288805    0.05415288805    0.05415288805
   0.05456626954    0.05456626954    0.05456626954
   0.05497965095    0.05497965095    0.05497965095
   0.05539303211    0.05539303211    0.05539303211
   0.05580641289    0.05580641289    0.05580641289
   0.05621979315    0.05621979315    0.05621979315
   0.05663317308    0.05663317308    0.05663317308
   0.05704655293    0.05704655293    0.05704655293
   0.05745993293    0.05745993293    0.05745993293
   0.05787331334    0.05787331334    0.05787331334
   0.05828669438    0.05828669438    0.05828669438
   0.05870007631    0.05870007631    0.05870007631
   0.05911345899    0.05911345899    0.05911345899
   0.05952684207    0.05952684207    0.05952684207
   0.05994022522    0.05994022522    0.05994022522
   0.06035360809    0.06035360809    0.06035360809
   0.06076699035    0.06076699035    0.06076699035
   0.06118037173    0.06118037173    0.06118037173
   0.06159375247    0.06159375247    0.06159375247
   0.06200713276    0.06200713276    0.06200713276
   0.06242051277    0.06242051277    0.06242051277
   0.06283389267    0.06283389267    0.06283389267
   0.06324727261    0.06324727261    0.06324727261
   0.06366065277    0.06366065277    0.06366065277
   0.06407403295    0.06407403295    0.06407403295
   0.06448741307    0.06448741307    0.06448741307
   0.06490079319    0.06490079319    0.06490079319
   0.06531417339    0.06531417339    0.06531417339
   0.06572755374    0.06572755374    0.06572755374
   0.0661409343    0.0661409343    0.0661409343
   0.06655431509    0.06655431509    0.06655431509
   0.066967696    0.066967696    0.066967696
   0.06738107706    0.06738107706    0.06738107706
   0.06779445828    0.06779445828    0.06779445828
   0.06820783971    0.06820783971    0.06820783971
   0.06862122136    0.06862122136    0.06862122136
   0.06903460328    0.06903460328    0.06903460328
   0.06944798578    0.06944798578    0.06944798578
   0.06986136869    0.06986136869    0.06986136869
   0.07027475175    0.07027475175    0.07027475175
   0.07068813468    0.07068813468    0.07068813468
   0.07110151722    0.07110151722    0.07110151722
   0.07151489909    0.07151489909    0.07151489909
   0.07192828035    0.07192828035    0.07192828035
   0.07234166125    0.07234166125    0.07234166125
   0.07275504179    0.07275504179    0.07275504179
   0.07316842197    0.07316842197    0.07316842197
   0.07358180178    0.07358180178    0.07358180178
   0.07399518122    0.07399518122    0.07399518122
   0.07440856012    0.07440856012    0.07440856012
   0.07482193787    0.07482193787    0.07482193787
   0.07523531493    0.07523531493    0.07523531493
   0.07564869188    0.07564869188    0.07564869188
   0.07606206929    0.07606206929    0.07606206929
   0.07647544775    0.07647544775    0.07647544775
   0.07688882784    0.07688882784    0.07688882784
   0.07730220992    0.07730220992    0.07730220992
   0.07771559353    0.07771559353    0.07771559353
   0.078128978    0.078128978    0.078128978
   0.07854236269    0.07854236269    0.07854236269
   0.07895574694    0.07895574694    0.07895574694
   0.07936913009    0.07936913009    0.07936913009
   0.0797825118    0.0797825118    0.0797825118
   0.08019589264    0.08019589264    0.08019589264
   0.08060927287    0.08060927287    0.08060927287
   0.08102265272    0.08102265272    0.08102265272
   0.08143603245    0.08143603245    0.08143603245
   0.0818494123    0.0818494123    0.0818494123
   0.08226279244    0.08226279244    0.08226279244
   0.08267617247    0.08267617247    0.08267617247
   0.08308955237    0.08308955237    0.08308955237
   0.0835029323    0.0835029323    0.0835029323
   0.08391631244    0.08391631244    0.08391631244
   0.08432969295    0.08432969295    0.08432969295
   0.084743074    0.084743074    0.084743074
   0.08515645586    0.08515645586    0.08515645586
   0.08556983848    0.08556983848    0.08556983848
   0.08598322155    0.08598322155    0.08598322155
   0.0863966047    0.0863966047    0.0863966047
   0.08680998761    0.08680998761    0.08680998761
   0.08722336993    0.08722336993    0.08722336993
   0.08763675141    0.08763675141    0.08763675141
   0.08805013236    0.08805013236    0.08805013236
   0.0884635129    0.0884635129    0.0884635129
   0.08887689311    0.08887689311    0.08887689311
   0.08929027305    0.08929027305    0.08929027305
   0.0897036528    0.0897036528    0.0897036528
   0.09011703242    0.09011703242    0.09011703242
   0.09053041149    0.09053041149    0.09053041149
   0.09094378998    0.09094378998    0.09094378998
   0.09135716826    0.09135716826    0.09135716826
   0.09177054669    0.09177054669    0.09177054669
   0.09218392562    0.09218392562    0.09218392562
   0.09259730544    0.09259730544    0.09259730544
   0.09301068645    0.09301068645    0.09301068645
   0.09342406854    0.09342406854    0.09342406854
   0.09383745135    0.09383745135    0.09383745135
   0.09425083454    0.09425083454    0.09425083454
   0.09466421774    0.09466421774    0.09466421774
   0.09507760061    0.09507760061    0.09507760061
   0.09549098283    0.09549098283    0.09549098283
   0.0959043647    0.0959043647    0.0959043647
   0.09631774639    0.09631774639    0.09631774639
   0.0967311279    0.0967311279    0.0967311279
   0.09714450922    0.09714450922    0.09714450922
   0.09755789037    0.09755789037    0.09755789037
   0.09797127133    0.09797127133    0.09797127133
   0.09838465205    0.09838465205    0.09838465205
   0.09879803251    0.09879803251    0.09879803251
   0.09921141277    0.09921141277    0.09921141277
   0.09962479291    0.09962479291    0.09962479291
   0.100038173    0.100038173    0.100038173
   0.1004515531    0.1004515531    0.1004515531
   0.1008649332    0.1008649332    0.1008649332
   0.1012783132    0.1012783132    0.1012783132
   0.101691693    0.101691693    0.101691693
   0.1021050729    0.1021050729    0.1021050729
   0.1025184529    0.1025184529    0.1025184529
   0.1029318332    0.1029318332    0.1029318332
   0.1033452138    0.1033452138    0.1033452138
   0.103758595    0.103758595    0.103758595
   0.1041719767    0.1041719767    0.1041719767
   0.1045853586    0.1045853586    0.1045853586
   0.1049987406    0.1049987406    0.1049987406
   0.1054121224    0.1054121224    0.1054121224
   0.1058255037    0.1058255037    0.1058255037
   0.1062388845    0.1062388845    0.1062388845
   0.1066522647    0.1066522647    0.1066522647
   0.1070656446    0.1070656446    0.1070656446
   0.1074790244    0.1074790244    0.1074790244
   0.1078924042    0.1078924042    0.1078924042
   0.1083057843    0.1083057843    0.1083057843
   0.1087191648    0.1087191648    0.1087191648
   0.1091325457    0.1091325457    0.1091325457
   0.1095459268    0.1095459268    0.1095459268
   0.1099593081    0.1099593081    0.1099593081
   0.1103726896    0.1103726896    0.1103726896
   0.110786071    0.110786071    0.110786071
   0.1111994525    0.1111994525    0.1111994525
   0.111612834    0.111612834    0.111612834
   0.1120262158    0.1120262158    0.1120262158
   0.1124395977    0.1124395977    0.1124395977
   0.1128529795    0.1128529795    0.1128529795
   0.1132663611    0.1132663611    0.1132663611
   0.1136797425    0.1136797425    0.1136797425
   0.1140931233    0.1140931233    0.1140931233
   0.1145065036    0.1145065036    0.1145065036
   0.1149198835    0.1149198835    0.1149198835
   0.1153332633    0.1153332633    0.1153332633
   0.115746643    0.115746643    0.115746643
   0.1161600231    0.1161600231    0.1161600231
   0.1165734036    0.1165734036    0.1165734036
   0.1169867848    0.1169867848    0.1169867848
   0.1174001665    0.1174001665    0.1174001665
   0.1178135484    0.1178135484    0.1178135484
   0.1182269304    0.1182269304    0.1182269304
   0.1186403122    0.1186403122    0.1186403122
   0.1190536936    0.1190536936    0.1190536936
   0.1194670744    0.1194670744    0.1194670744
   0.1198804546    0.1198804546    0.1198804546
   0.1202938345    0.1202938345    0.1202938345
   0.1207072143    0.1207072143    0.1207072143
   0.1211205941    0.1211205941    0.1211205941
   0.1215339742    0.1215339742    0.1215339742
   0.1219473547    0.1219473547    0.1219473547
   0.1223607357    0.1223607357    0.1223607357
   0.122774117    0.122774117    0.122774117
   0.1231874984    0.1231874984    0.1231874984
   0.1236008799    0.1236008799    0.1236008799
   0.1240142613    0.1240142613    0.1240142613
   0.1244276424    0.1244276424    0.1244276424
   0.1248410231    0.1248410231    0.1248410231
   0.1252544036    0.1252544036    0.1252544036
   0.1256677839    0.1256677839    0.1256677839
   0.1260811642    0.1260811642    0.1260811642
   0.1264945445    0.1264945445    0.1264945445
   0.126907925    0.126907925    0.126907925
   0.1273213058    0.1273213058    0.1273213058
   0.1277346871    0.1277346871    0.1277346871
   0.1281480686    0.1281480686    0.1281480686
   0.1285614502    0.1285614502    0.1285614502
   0.1289748317    0.1289748317    0.1289748317
   0.1293882129    0.1293882129    0.1293882129
   0.1298015935    0.1298015935    0.1298015935
   0.1302149733    0.1302149733    0.1302149733
   0.1306283526    0.1306283526    0.1306283526
   0.1310417315    0.1310417315    0.1310417315
   0.1314551103    0.1314551103    0.1314551103
   0.1318684893    0.1318684893    0.1318684893
   0.1322818689    0.1322818689    0.1322818689
   0.1326952492    0.1326952492    0.1326952492
   0.13310863    0.13310863    0.13310863
   0.1335220112    0.1335220112    0.1335220112
   0.1339353927    0.1339353927    0.1339353927
   0.1343487743    0.1343487743    0.1343487743
   0.1347621558    0.1347621558    0.1347621558
   0.1351755372    0.1351755372    0.1351755372
   0.1355889184    0.1355889184    0.1355889184
   0.1360022996    0.1360022996    0.1360022996
   0.1364156808    0.1364156808    0.1364156808
   0.136829062    0.136829062    0.136829062
   0.1372424433    0.1372424433    0.1372424433
   0.1376558247    0.1376558247    0.1376558247
   0.1380692061    0.1380692061    0.1380692061
   0.1384825877    0.1384825877    0.1384825877
   0.1388959694    0.1388959694    0.1388959694
   0.1393093511    0.1393093511    0.1393093511
   0.1397227328    0.1397227328    0.1397227328
   0.1401361144    0.1401361144    0.1401361144
   0.1405494958    0.1405494958    0.1405494958
   0.1409628769    0.1409628769    0.1409628769
   0.1413762578    0.1413762578    0.1413762578
   0.1417896387    0.1417896387    0.1417896387
   0.1422030198    0.1422030198    0.1422030198
   0.1426164012    0.1426164012    0.1426164012
   0.1430297832    0.1430297832    0.1430297832
   0.1434431662    0.1434431662    0.1434431662
   0.1438565501    0.1438565501    0.1438565501
   0.1442699345    0.1442699345    0.1442699345
   0.1446833188    0.1446833188    0.1446833188
   0.1450967026    0.1450967026    0.1450967026
   0.1455100855    0.1455100855    0.1455100855
   0.1459234669    0.1459234669    0.1459234669
   0.1463368472    0.1463368472    0.1463368472
   0.1467502266    0.1467502266    0.1467502266
   0.1471636055    0.1471636055    0.1471636055
   0.1475769841    0.1475769841    0.1475769841
   0.1479903627    0.1479903627    0.1479903627
   0.1484037416    0.1484037416    0.1484037416
   0.1488171204    0.1488171204    0.1488171204
   0.149230499    0.149230499    0.149230499
   0.1496438775    0.1496438775    0.1496438775
   0.1500572561    0.1500572561    0.1500572561
   0.1504706352    0.1504706352    0.1504706352
   0.1508840148    0.1508840148    0.1508840148
   0.1512973953    0.1512973953    0.1512973953
   0.1517107765    0.1517107765    0.1517107765
   0.1521241582    0.1521241582    0.1521241582
   0.1525375401    0.1525375401    0.1525375401
   0.1529509222    0.1529509222    0.1529509222
   0.1533643041    0.1533643041    0.1533643041
   0.1537776856    0.1537776856    0.1537776856
   0.154191067    0.154191067    0.154191067
   0.1546044483    0.1546044483    0.1546044483
   0.1550178295    0.1550178295    0.1550178295
   0.1554312107    0.1554312107    0.1554312107
   0.1558445919    0.1558445919    0.1558445919
   0.1562579731    0.1562579731    0.1562579731
   0.1566713545    0.1566713545    0.1566713545
   0.157084736    0.157084736    0.157084736
   0.1574981176    0.1574981176    0.1574981176
   0.157911499    0.157911499    0.157911499
   0.1583248803    0.1583248803    0.1583248803
   0.1587382611    0.1587382611    0.1587382611
   0.1591516413    0.1591516413    0.1591516413
   0.1595650208    0.1595650208    0.1595650208
   0.1599783998    0.1599783998    0.1599783998
   0.1603917786    0.1603917786    0.1603917786
   0.1608051575    0.1608051575    0.1608051575
   0.1612185368    0.1612185368    0.1612185368
   0.1616319167    0.1616319167    0.1616319167
   0.1620452973    0.1620452973    0.1620452973
   0.1624586783    0.1624586783    0.1624586783
   0.1628720596    0.1628720596    0.1628720596
   0.1632854411    0.1632854411    0.1632854411
   0.1636988227    0.1636988227    0.1636988227
   0.1641122043    0.1641122043    0.1641122043
   0.1645255858    0.1645255858    0.1645255858
   0.1649389677    0.1649389677    0.1649389677
   0.1653523498    0.1653523498    0.1653523498
   0.1657657318    0.1657657318    0.1657657318
   0.1661791135    0.1661791135    0.1661791135
   0.1665924946    0.1665924946    0.1665924946
   0.1670058751    0.1670058751    0.1670058751
   0.1674192543    0.1674192543    0.1674192543
   0.1678326327    0.1678326327    0.1678326327
   0.1682460107    0.1682460107    0.1682460107
   0.1686593889    0.1686593889    0.1686593889
   0.1690727679    0.1690727679    0.1690727679
   0.169486148    0.169486148    0.169486148
   0.16989953    0.16989953    0.16989953
   0.1703129135    0.1703129135    0.1703129135
   0.1707262979    0.1707262979    0.1707262979
   0.1711396826    0.1711396826    0.1711396826
   0.1715530669    0.1715530669    0.1715530669
   0.1719664501    0.1719664501    0.1719664501
   0.1723798316    0.1723798316    0.1723798316
   0.1727932117    0.1727932117    0.1727932117
   0.1732065908    0.1732065908    0.1732065908
   0.1736199694    0.1736199694    0.1736199694
   0.1740333479    0.1740333479    0.1740333479
   0.1744467268    0.1744467268    0.1744467268
   0.1748601066    0.1748601066    0.1748601066
   0.1752734871    0.1752734871    0.1752734871
   0.1756868681    0.1756868681    0.1756868681
   0.1761002494    0.1761002494    0.1761002494
   0.1765136309    0.1765136309    0.1765136309
   0.1769270125    0.1769270125    0.1769270125
   0.1773403941    0.1773403941    0.1773403941
   0.1777537755    0.1777537755    0.1777537755
   0.1781671571    0.1781671571    0.1781671571
   0.1785805388    0.1785805388    0.1785805388
   0.1789939205    0.1789939205    0.1789939205
   0.1794073022    0.1794073022    0.1794073022
   0.1798206838    0.1798206838    0.1798206838
   0.1802340653    0.1802340653    0.1802340653
   0.1806474468    0.1806474468    0.1806474468
   0.1810608285    0.1810608285    0.1810608285
   0.1814742101    0.1814742101    0.1814742101
   0.1818875914    0.1818875914    0.1818875914
   0.1823009724    0.1823009724    0.1823009724
   0.1827143529    0.1827143529    0.1827143529
   0.1831277327    0.1831277327    0.1831277327
   0.1835411116    0.1835411116    0.1835411116
   0.1839544901    0.1839544901    0.1839544901
   0.1843678684    0.1843678684    0.1843678684
   0.184781247    0.184781247    0.184781247
   0.1851946262    0.1851946262    0.1851946262
   0.1856080063    0.1856080063    0.1856080063
   0.1860213873    0.1860213873    0.1860213873
   0.1864347688    0.1864347688    0.1864347688
   0.1868481508    0.1868481508    0.1868481508
   0.1872615328    0.1872615328    0.1872615328
   0.1876749148    0.1876749148    0.1876749148
   0.1880882964    0.1880882964    0.1880882964
   0.188501678    0.188501678    0.188501678
   0.1889150595    0.1889150595    0.1889150595
   0.1893284411    0.1893284411    0.1893284411
   0.1897418225    0.1897418225    0.1897418225
   0.1901552036    0.1901552036    0.1901552036
   0.1905685843    0.1905685843    0.1905685843
   0.1909819645    0.1909819645    0.1909819645
   0.1913953439    0.1913953439    0.1913953439
   0.1918087229    0.1918087229    0.1918087229
   0.1922221017    0.1922221017    0.1922221017
   0.1926354807    0.1926354807    0.1926354807
   0.19304886    0.19304886    0.19304886
   0.19346224    0.19346224    0.19346224
   0.1938756206    0.1938756206    0.1938756206
   0.1942890017    0.1942890017    0.1942890017
   0.1947023831    0.1947023831    0.1947023831
   0.1951157647    0.1951157647    0.1951157647
   0.1955291462    0.1955291462    0.1955291462
   0.1959425277    0.1959425277    0.1959425277
   0.1963559089    0.1963559089    0.1963559089
   0.1967692901    0.1967692901    0.1967692901
   0.1971826713    0.1971826713    0.1971826713
   0.1975960525    0.1975960525    0.1975960525
   0.1980094338    0.1980094338    0.1980094338
   0.1984228151    0.1984228151    0.1984228151
   0.1988361965    0.1988361965    0.1988361965
   0.1992495781    0.1992495781    0.1992495781
   0.1996629597    0.1996629597    0.1996629597
