ACES2Looks/ACEScct_LUT/T-SONY_Neutral_Tone.spi1d
Version 1
From 0 1.4679964
Length 4096
Components 1
{
		 0
		 0.0004133839343
		 0.0008267677035
		 0.001240151137
		 0.001653534065
		 0.002066916317
		 0.002480297722
		 0.002893678007
		 0.003307056847
		 0.003720434681
		 0.004133812017
		 0.004547189364
		 0.004960567229
		 0.005373946103
		 0.005787325642
		 0.006200705533
		 0.006614085784
		 0.007027466403
		 0.007440847398
		 0.007854228776
		 0.008267610734
		 0.008680993517
		 0.009094376795
		 0.009507760219
		 0.009921143439
		 0.01033452611
		 0.0107479079
		 0.01116128892
		 0.01157466941
		 0.01198804955
		 0.01240142955
		 0.01281480958
		 0.01322818985
		 0.01364157033
		 0.01405495083
		 0.01446833135
		 0.01488171188
		 0.01529509241
		 0.01570847294
		 0.01612185347
		 0.01653523399
		 0.0169486145
		 0.01736199501
		 0.01777537553
		 0.01818875604
		 0.01860213656
		 0.01901551709
		 0.0194288976
		 0.01984227811
		 0.02025565863
		 0.02066903914
		 0.02108241966
		 0.02149580011
		 0.02190918035
		 0.02232256053
		 0.0227359408
		 0.02314932131
		 0.02356270221
		 0.02397608368
		 0.02438946612
		 0.02480284926
		 0.02521623265
		 0.02562961582
		 0.02604299832
		 0.02645637969
		 0.02686975948
		 0.02728313788
		 0.02769651549
		 0.02810989292
		 0.02852327078
		 0.02893664969
		 0.02935003019
		 0.02976341206
		 0.03017679485
		 0.03059017813
		 0.03100356146
		 0.0314169444
		 0.03183032652
		 0.03224370775
		 0.03265708841
		 0.03307046877
		 0.03348384911
		 0.03389722968
		 0.03431061077
		 0.0347239926
		 0.0351373751
		 0.035550758
		 0.03596414104
		 0.03637752395
		 0.03679090647
		 0.03720428835
		 0.03761766991
		 0.03803105123
		 0.03844443226
		 0.03885781292
		 0.03927119313
		 0.03968457284
		 0.04009795166
		 0.04051132935
		 0.04092470645
		 0.04133808352
		 0.04175146109
		 0.04216483972
		 0.0425782199
		 0.0429916016
		 0.04340498435
		 0.04381836767
		 0.04423175109
		 0.04464513413
		 0.04505851633
		 0.04547189776
		 0.04588527879
		 0.04629865952
		 0.04671204006
		 0.0471254205
		 0.04753880094
		 0.04795218143
		 0.0483655618
		 0.04877894207
		 0.04919232229
		 0.04960570247
		 0.05001908267
		 0.05043246291
		 0.05084584309
		 0.0512592232
		 0.05167260333
		 0.05208598353
		 0.05249936389
		 0.05291274446
		 0.05332612536
		 0.0537395066
		 0.05415288805
		 0.05456626954
		 0.05497965095
		 0.05539303211
		 0.05580641289
		 0.05621979315
		 0.05663317308
		 0.05704655293
		 0.05745993293
		 0.05787331334
		 0.05828669438
		 0.05870007631
		 0.05911345899
		 0.05952684207
		 0.05994022522
		 0.06035360809
		 0.06076699035
		 0.06118037173
		 0.06159375247
		 0.06200713276
		 0.06242051277
		 0.06283389267
		 0.06324727261
		 0.06366065277
		 0.06407403295
		 0.06448741307
		 0.06490079319
		 0.06531417339
		 0.06572755374
		 0.0661409343
		 0.06655431509
		 0.066967696
		 0.06738107706
		 0.06779445828
		 0.06820783971
		 0.06862122136
		 0.06903460328
		 0.06944798578
		 0.06986136869
		 0.07027475175
		 0.07068813468
		 0.07110151722
		 0.07151489909
		 0.07192828035
		 0.07234166125
		 0.07275504179
		 0.07316842197
		 0.07358180178
		 0.07399518122
		 0.07440856012
		 0.07482193787
		 0.07523531493
		 0.07564869188
		 0.07606206929
		 0.07647544775
		 0.07688882784
		 0.07730220992
		 0.07771559353
		 0.078128978
		 0.07854236269
		 0.07895574694
		 0.07936913009
		 0.0797825118
		 0.08019589264
		 0.08060927287
		 0.08102265272
		 0.08143603245
		 0.0818494123
		 0.08226279244
		 0.08267617247
		 0.08308955237
		 0.0835029323
		 0.08391631244
		 0.08432969295
		 0.084743074
		 0.08515645586
		 0.08556983848
		 0.08598322155
		 0.0863966047
		 0.08680998761
		 0.08722336993
		 0.08763675141
		 0.08805013236
		 0.0884635129
		 0.08887689311
		 0.08929027305
		 0.0897036528
		 0.09011703242
		 0.09053041149
		 0.09094378998
		 0.09135716826
		 0.09177054669
		 0.09218392562
		 0.09259730544
		 0.09301068645
		 0.09342406854
		 0.09383745135
		 0.09425083454
		 0.09466421774
		 0.09507760061
		 0.09549098283
		 0.0959043647
		 0.09631774639
		 0.0967311279
		 0.09714450922
		 0.09755789037
		 0.09797127133
		 0.09838465205
		 0.09879803251
		 0.09921141277
		 0.09962479291
		 0.100038173
		 0.1004515531
		 0.1008649332
		 0.1012783132
		 0.101691693
		 0.1021050729
		 0.1025184529
		 0.1029318332
		 0.1033452138
		 0.103758595
		 0.1041719767
		 0.1045853586
		 0.1049987406
		 0.1054121224
		 0.1058255037
		 0.1062388845
		 0.1066522647
		 0.1070656446
		 0.1074790244
		 0.1078924042
		 0.1083057843
		 0.1087191648
		 0.1091325457
		 0.1095459268
		 0.1099593081
		 0.1103726896
		 0.110786071
		 0.1111994525
		 0.111612834
		 0.1120262158
		 0.1124395977
		 0.1128529795
		 0.1132663611
		 0.1136797425
		 0.1140931233
		 0.1145065036
		 0.1149198835
		 0.1153332633
		 0.115746643
		 0.1161600231
		 0.1165734036
		 0.1169867848
		 0.1174001665
		 0.1178135484
		 0.1182269304
		 0.1186403122
		 0.1190536936
		 0.1194670744
		 0.1198804546
		 0.1202938345
		 0.1207072143
		 0.1211205941
		 0.1215339742
		 0.1219473547
		 0.1223607357
		 0.122774117
		 0.1231874984
		 0.1236008799
		 0.1240142613
		 0.1244276424
		 0.1248410231
		 0.1252544036
		 0.1256677839
		 0.1260811642
		 0.1264945445
		 0.126907925
		 0.1273213058
		 0.1277346871
		 0.1281480686
		 0.1285614502
		 0.1289748317
		 0.1293882129
		 0.1298015935
		 0.1302149733
		 0.1306283526
		 0.1310417315
		 0.1314551103
		 0.1318684893
		 0.1322818689
		 0.1326952492
		 0.13310863
		 0.1335220112
		 0.1339353927
		 0.1343487743
		 0.1347621558
		 0.1351755372
		 0.1355889184
		 0.1360022996
		 0.1364156808
		 0.136829062
		 0.1372424433
		 0.1376558247
		 0.1380692061
		 0.1384825877
		 0.1388959694
		 0.1393093511
		 0.1397227328
		 0.1401361144
		 0.1405494958
		 0.1409628769
		 0.1413762578
		 0.1417896387
		 0.1422030198
		 0.1426164012
		 0.1430297832
		 0.1434431662
		 0.1438565501
		 0.1442699345
		 0.1446833188
		 0.1450967026
		 0.1455100855
		 0.1459234669
		 0.1463368472
		 0.1467502266
		 0.1471636055
		 0.1475769841
		 0.1479903627
		 0.1484037416
		 0.1488171204
		 0.149230499
		 0.1496438775
		 0.1500572561
		 0.1504706352
		 0.1508840148
		 0.1512973953
		 0.1517107765
		 0.1521241582
		 0.1525375401
		 0.1529509222
		 0.1533643041
		 0.1537776856
		 0.154191067
		 0.1546044483
		 0.1550178295
		 0.1554312107
		 0.1558445919
		 0.1562579731
		 0.1566713545
		 0.157084736
		 0.1574981176
		 0.157911499
		 0.1583248803
		 0.1587382611
		 0.1591516413
		 0.1595650208
		 0.1599783998
		 0.1603917786
		 0.1608051575
		 0.1612185368
		 0.1616319167
		 0.1620452973
		 0.1624586783
		 0.1628720596
		 0.1632854411
		 0.1636988227
		 0.1641122043
		 0.1645255858
		 0.1649389677
		 0.1653523498
		 0.1657657318
		 0.1661791135
		 0.1665924946
		 0.1670058751
		 0.1674192543
		 0.1678326327
		 0.1682460107
		 0.1686593889
		 0.1690727679
		 0.169486148
		 0.16989953
		 0.1703129135
		 0.1707262979
		 0.1711396826
		 0.1715530669
		 0.1719664501
		 0.1723798316
		 0.1727932117
		 0.1732065908
		 0.1736199694
		 0.1740333479
		 0.1744467268
		 0.1748601066
		 0.1752734871
		 0.1756868681
		 0.1761002494
		 0.1765136309
		 0.1769270125
		 0.1773403941
		 0.1777537755
		 0.1781671571
		 0.1785805388
		 0.1789939205
		 0.1794073022
		 0.1798206838
		 0.1802340653
		 0.1806474468
		 0.1810608285
		 0.1814742101
		 0.1818875914
		 0.1823009724
		 0.1827143529
		 0.1831277327
		 0.1835411116
		 0.1839544901
		 0.1843678684
		 0.184781247
		 0.1851946262
		 0.1856080063
		 0.1860213873
		 0.1864347688
		 0.1868481508
		 0.1872615328
		 0.1876749148
		 0.1880882964
		 0.188501678
		 0.1889150595
		 0.1893284411
		 0.1897418225
		 0.1901552036
		 0.1905685843
		 0.1909819645
		 0.1913953439
		 0.1918087229
		 0.1922221017
		 0.1926354807
		 0.19304886
		 0.19346224
		 0.1938756206
		 0.1942890017
		 0.1947023831
		 0.1951157647
		 0.1955291462
		 0.1959425277
		 0.1963559089
		 0.1967692901
		 0.1971826713
		 0.1975960525
		 0.1980094338
		 0.1984228151
		 0.1988361965
		 0.1992495781
		 0.1996629597
		 0.2000763414
		 0.2004897231
		 0.2009031047
		 0.2013164863
		 0.2017298676
		 0.2021432489
		 0.2025566302
		 0.2029700114
		 0.2033833926
		 0.2037967738
		 0.2042101551
		 0.2046235366
		 0.2050369182
		 0.2054502997
		 0.205863681
		 0.206277062
		 0.2066904424
		 0.2071038221
		 0.2075172012
		 0.20793058
		 0.2083439589
		 0.208757338
		 0.2091707177
		 0.2095840984
		 0.2099974797
		 0.2104108614
		 0.2108242434
		 0.2112376254
		 0.2116510072
		 0.2120643885
		 0.2124777696
		 0.2128911504
		 0.2133045311
		 0.2137179119
		 0.2141312927
		 0.2145446738
		 0.2149580553
		 0.2153714371
		 0.2157848191
		 0.2161982011
		 0.2166115828
		 0.2170249639
		 0.2174409526
		 0.2178708606
		 0.2183072569
		 0.2187398275
		 0.2191582583
		 0.2195522352
		 0.2199114559
		 0.220230999
		 0.2205186522
		 0.2207839153
		 0.2210362885
		 0.2212852718
		 0.2215403651
		 0.2218053647
		 0.2220685195
		 0.2223295905
		 0.2225893489
		 0.2228485655
		 0.2231080115
		 0.2233683896
		 0.2236290551
		 0.2238896297
		 0.2241501111
		 0.2244104969
		 0.2246707847
		 0.2249309722
		 0.2251910549
		 0.225451032
		 0.2257109095
		 0.2259706937
		 0.2262303904
		 0.2264900059
		 0.2267495463
		 0.2270090138
		 0.2272684014
		 0.2275277017
		 0.2277869068
		 0.2280460093
		 0.2283050014
		 0.2285638886
		 0.2288226774
		 0.2290813651
		 0.2293399493
		 0.2295984273
		 0.2298567967
		 0.2301150539
		 0.2303731968
		 0.2306312303
		 0.23088916
		 0.2311469912
		 0.2314047294
		 0.2316623802
		 0.2319199487
		 0.2321774296
		 0.2324348145
		 0.2326920954
		 0.2329492641
		 0.2332063124
		 0.2334611448
		 0.2337117091
		 0.2339611655
		 0.2342127761
		 0.2344698029
		 0.234735508
		 0.2350130304
		 0.2353024834
		 0.2356009554
		 0.235905415
		 0.236212831
		 0.236520172
		 0.2368244072
		 0.2371266367
		 0.2374295828
		 0.2377329459
		 0.2380364261
		 0.2383397239
		 0.2386425395
		 0.2389446969
		 0.2392465298
		 0.2395480957
		 0.239849408
		 0.24015048
		 0.2404513249
		 0.2407519556
		 0.2410523682
		 0.2413525535
		 0.241652507
		 0.2419522243
		 0.2422517006
		 0.2425509316
		 0.2428499156
		 0.2431486571
		 0.2434471571
		 0.2437454165
		 0.2440434359
		 0.2443412161
		 0.2446387578
		 0.24493606
		 0.2452331225
		 0.2455299454
		 0.2458265291
		 0.2461228737
		 0.2464189794
		 0.246714841
		 0.2470104563
		 0.2473058315
		 0.2476009727
		 0.2478958861
		 0.2481905776
		 0.2484850533
		 0.2487793128
		 0.2490733498
		 0.2493671581
		 0.2496607312
		 0.2499540627
		 0.2502471461
		 0.2505399795
		 0.2508325679
		 0.2511249166
		 0.2514170311
		 0.2517089165
		 0.2520005785
		 0.2522920174
		 0.2525832255
		 0.2528742045
		 0.2531649565
		 0.2534554838
		 0.2537457887
		 0.2540358737
		 0.2543257438
		 0.2546153951
		 0.2549048217
		 0.2551940177
		 0.2554829771
		 0.2557716941
		 0.2560601626
		 0.2563483852
		 0.25663637
		 0.256924125
		 0.2572116585
		 0.2574989784
		 0.2577860903
		 0.2580729855
		 0.2583596618
		 0.2586461192
		 0.2589323576
		 0.2592183768
		 0.2595041767
		 0.2597897586
		 0.2600751225
		 0.2603602672
		 0.2606451917
		 0.2609298948
		 0.2612143752
		 0.2614978108
		 0.2617786991
		 0.2620586129
		 0.2623392953
		 0.2626224893
		 0.2629099378
		 0.2632032475
		 0.263501356
		 0.2638032851
		 0.2641086554
		 0.2644170871
		 0.2647282006
		 0.2650416165
		 0.2653583487
		 0.2656795225
		 0.2660037409
		 0.2663295821
		 0.2666556242
		 0.2669804455
		 0.2673029975
		 0.2676248189
		 0.2679462914
		 0.2682674187
		 0.268588205
		 0.2689086542
		 0.2692287702
		 0.2695485478
		 0.2698679836
		 0.2701870812
		 0.2705058444
		 0.2708242766
		 0.2711423815
		 0.2714601593
		 0.2717776023
		 0.2720947134
		 0.2724114962
		 0.2727279546
		 0.2730440922
		 0.2733599125
		 0.2736754097
		 0.2739905827
		 0.2743054338
		 0.2746199652
		 0.2749341792
		 0.275248078
		 0.2755616592
		 0.2758749175
		 0.2761878572
		 0.2765004825
		 0.2768127979
		 0.2771248075
		 0.2774365147
		 0.2777479139
		 0.2780590044
		 0.2783697869
		 0.2786802625
		 0.2789904319
		 0.2793002962
		 0.2796098551
		 0.279919108
		 0.2802280546
		 0.2805366949
		 0.2808450287
		 0.2811530559
		 0.2814607735
		 0.2817681742
		 0.2820752644
		 0.2823820518
		 0.2826885442
		 0.2829947493
		 0.2833006743
		 0.2836063132
		 0.2839116616
		 0.2842167201
		 0.2845214891
		 0.2848259693
		 0.2851301612
		 0.2854340613
		 0.2857376649
		 0.2860409776
		 0.2863440056
		 0.2866467547
		 0.2869492309
		 0.28725144
		 0.2875533815
		 0.2878550505
		 0.2881564423
		 0.2884575519
		 0.2887583746
		 0.2890589055
		 0.2893546795
		 0.2896443209
		 0.2899329123
		 0.2902255374
		 0.2905272798
		 0.2908432232
		 0.2911780532
		 0.2915309532
		 0.291897143
		 0.2922717597
		 0.2926499404
		 0.2930268222
		 0.2933977037
		 0.2937660082
		 0.2941348044
		 0.2945037751
		 0.2948726035
		 0.2952409724
		 0.2956085649
		 0.2959752761
		 0.2963414596
		 0.2967071461
		 0.2970723484
		 0.2974370792
		 0.2978013513
		 0.2981651752
		 0.2985285364
		 0.2988914308
		 0.2992538607
		 0.2996158284
		 0.2999773363
		 0.3003383865
		 0.3006989726
		 0.3010590895
		 0.3014187449
		 0.3017779464
		 0.3021367018
		 0.3024950188
		 0.3028529016
		 0.3032103381
		 0.3035673291
		 0.3039238778
		 0.3042799874
		 0.3046356612
		 0.3049909022
		 0.3053456945
		 0.3057000369
		 0.3060539425
		 0.3064074245
		 0.306760496
		 0.3071131702
		 0.3074654527
		 0.3078173293
		 0.3081687977
		 0.3085198569
		 0.3088705058
		 0.3092207433
		 0.3095705678
		 0.3099199728
		 0.3102689616
		 0.3106175406
		 0.3109657161
		 0.3113134943
		 0.3116608816
		 0.3120078716
		 0.3123544534
		 0.3127006358
		 0.3130464274
		 0.3133918369
		 0.3137368731
		 0.3140815416
		 0.3144258295
		 0.3147697368
		 0.3151132662
		 0.3154564209
		 0.3157992038
		 0.3161416017
		 0.3164814355
		 0.3168186537
		 0.3171553893
		 0.3174937752
		 0.3178359444
		 0.3181840298
		 0.3185386051
		 0.3188963367
		 0.3192578221
		 0.3196239958
		 0.3199957922
		 0.3203741457
		 0.3207601476
		 0.3211566832
		 0.3215621379
		 0.3219733579
		 0.3223871891
		 0.3228004778
		 0.3232100701
		 0.323615627
		 0.3240205519
		 0.3244249174
		 0.3248287309
		 0.3252319999
		 0.3256347318
		 0.3260369306
		 0.326438579
		 0.3268396802
		 0.3272402426
		 0.3276402743
		 0.3280397838
		 0.3284387791
		 0.3288372457
		 0.3292351752
		 0.3296325798
		 0.3300294715
		 0.3304258627
		 0.3308217654
		 0.331217185
		 0.3316121044
		 0.3320065244
		 0.3324004481
		 0.3327938785
		 0.3331868185
		 0.3335792702
		 0.3339712138
		 0.3343626519
		 0.3347535999
		 0.3351440733
		 0.3355340875
		 0.3359236579
		 0.3363127882
		 0.336701462
		 0.3370896777
		 0.3374774341
		 0.3378647302
		 0.3382515649
		 0.3386379358
		 0.339023833
		 0.3394092626
		 0.3397942339
		 0.3401787565
		 0.3405628397
		 0.3409464929
		 0.3413297063
		 0.3417124692
		 0.3420947902
		 0.3424766781
		 0.3428581414
		 0.3432391889
		 0.3436198232
		 0.3440000277
		 0.3443798064
		 0.3447591659
		 0.3451381131
		 0.3455166546
		 0.3458947391
		 0.346270512
		 0.3466442953
		 0.3470177486
		 0.3473925319
		 0.347770305
		 0.3481527276
		 0.3485405246
		 0.3489321422
		 0.3493270628
		 0.3497248296
		 0.3501249861
		 0.3505270755
		 0.3509308774
		 0.3513382696
		 0.3517487759
		 0.3521611602
		 0.352574187
		 0.3529866203
		 0.3533972243
		 0.3538061472
		 0.3542145793
		 0.3546225323
		 0.3550300157
		 0.355437039
		 0.3558436116
		 0.3562497376
		 0.3566553993
		 0.3570605998
		 0.3574653459
		 0.3578696444
		 0.358273502
		 0.3586769251
		 0.3590799031
		 0.3594824321
		 0.3598845184
		 0.3602861681
		 0.3606873876
		 0.3610881829
		 0.361488551
		 0.3618884758
		 0.3622879667
		 0.3626870346
		 0.3630856903
		 0.3634839446
		 0.3638818068
		 0.3642792643
		 0.3646763136
		 0.365072957
		 0.3654691968
		 0.3658650352
		 0.3662604746
		 0.3666555076
		 0.3670501274
		 0.3674443437
		 0.367838166
		 0.3682316041
		 0.3686246675
		 0.3690173626
		 0.3694096764
		 0.3698016082
		 0.3701931599
		 0.3705843335
		 0.3709751309
		 0.3713655539
		 0.3717555884
		 0.3721452329
		 0.3725345003
		 0.3729234034
		 0.3733119551
		 0.3737001682
		 0.3740878856
		 0.3744747751
		 0.3748611555
		 0.3752473853
		 0.3756338231
		 0.3760208274
		 0.3764086521
		 0.3767959513
		 0.377182898
		 0.3775703924
		 0.3779593347
		 0.378350625
		 0.3787451636
		 0.3791439094
		 0.3795465888
		 0.379951941
		 0.3803586983
		 0.3807655929
		 0.381171357
		 0.3815750353
		 0.3819779817
		 0.3823805556
		 0.3827827627
		 0.3831846089
		 0.3835860999
		 0.3839872414
		 0.3843880261
		 0.3847884487
		 0.3851885146
		 0.385588229
		 0.3859875974
		 0.3863866249
		 0.3867853117
		 0.387183645
		 0.3875816302
		 0.3879792738
		 0.3883765825
		 0.3887735632
		 0.3891702216
		 0.3895665463
		 0.3899625352
		 0.3903581941
		 0.3907535287
		 0.3911485444
		 0.391543247
		 0.3919376334
		 0.3923316931
		 0.3927254322
		 0.3931188573
		 0.3935119748
		 0.393904791
		 0.3942973099
		 0.3946895162
		 0.3950814124
		 0.395473006
		 0.3958643044
		 0.396255315
		 0.3966460455
		 0.3970364928
		 0.3974266501
		 0.3978165184
		 0.3982060989
		 0.3985953924
		 0.3989844
		 0.3993731199
		 0.3997615435
		 0.4001496768
		 0.4005375267
		 0.4009251005
		 0.4013124053
		 0.4016994425
		 0.4020860573
		 0.4024722755
		 0.4028582305
		 0.4032440555
		 0.403629884
		 0.4040158493
		 0.4044017816
		 0.4047872799
		 0.4051726702
		 0.4055583021
		 0.4059445251
		 0.4063316887
		 0.4067201534
		 0.4071101206
		 0.4075012026
		 0.40789293
		 0.4082848337
		 0.4086764443
		 0.4090672925
		 0.4094574581
		 0.4098473861
		 0.4102370724
		 0.4106265127
		 0.4110157025
		 0.4114046373
		 0.4117933102
		 0.4121817116
		 0.4125698532
		 0.4129577489
		 0.4133454127
		 0.4137328585
		 0.4141200999
		 0.4145071296
		 0.4148939382
		 0.4152805247
		 0.4156668882
		 0.4160530275
		 0.4164389417
		 0.4168246254
		 0.4172100719
		 0.4175952904
		 0.4179802906
		 0.4183650822
		 0.418749675
		 0.419134077
		 0.4195182776
		 0.4199022733
		 0.4202860659
		 0.4206696569
		 0.421053048
		 0.421436241
		 0.4218192322
		 0.4222020184
		 0.4225846037
		 0.4229669924
		 0.4233491888
		 0.4237311971
		 0.4241130183
		 0.424494639
		 0.424876064
		 0.4252573013
		 0.4256383584
		 0.4260192434
		 0.4263999638
		 0.4267805132
		 0.427160886
		 0.4275410845
		 0.4279211113
		 0.4283009685
		 0.4286806587
		 0.4290602776
		 0.429439996
		 0.4298196321
		 0.4301989849
		 0.4305778533
		 0.4309560361
		 0.4313333571
		 0.4317100578
		 0.4320862089
		 0.432461752
		 0.4328366287
		 0.4332107805
		 0.4335841491
		 0.4339565287
		 0.4343278376
		 0.4346983532
		 0.435068356
		 0.4354381264
		 0.4358079448
		 0.4361780181
		 0.4365480431
		 0.4369179443
		 0.4372877207
		 0.4376573713
		 0.438026895
		 0.4383962908
		 0.4387655514
		 0.4391346773
		 0.439503676
		 0.4398725552
		 0.4402413225
		 0.4406099857
		 0.4409785469
		 0.4413469942
		 0.4417153295
		 0.4420835563
		 0.442451678
		 0.442819698
		 0.443187619
		 0.4435554308
		 0.443923134
		 0.4442907348
		 0.4446582398
		 0.4450256554
		 0.4453929881
		 0.4457602374
		 0.446127395
		 0.4464944628
		 0.4468614428
		 0.447228337
		 0.4475951474
		 0.4479618749
		 0.4483285122
		 0.4486950615
		 0.4490615273
		 0.4494279139
		 0.4497942257
		 0.4501604672
		 0.4505266308
		 0.4508927115
		 0.4512587161
		 0.4516246511
		 0.4519905231
		 0.4523563389
		 0.4527221008
		 0.4530877982
		 0.4534534328
		 0.4538190075
		 0.4541845254
		 0.4545499895
		 0.4549154176
		 0.4552811676
		 0.4556471571
		 0.4560130678
		 0.4563785818
		 0.4567433807
		 0.4571071466
		 0.4574696434
		 0.4578310409
		 0.4581916131
		 0.4585516329
		 0.4589113729
		 0.4592711059
		 0.459631048
		 0.459990861
		 0.4603504806
		 0.4607099631
		 0.4610693648
		 0.4614287423
		 0.4617881518
		 0.4621475708
		 0.4625069439
		 0.4628662838
		 0.4632256034
		 0.4635849158
		 0.4639442337
		 0.4643035656
		 0.4646628982
		 0.4650222281
		 0.4653815537
		 0.4657408734
		 0.4661001858
		 0.4664594889
		 0.466818773
		 0.4671780407
		 0.4675373017
		 0.467896566
		 0.4682558435
		 0.4686151439
		 0.4689744693
		 0.4693338065
		 0.4696931571
		 0.4700525232
		 0.4704119071
		 0.4707713109
		 0.4711307358
		 0.471490173
		 0.4718496246
		 0.4722090963
		 0.4725685938
		 0.4729281231
		 0.4732876897
		 0.4736472903
		 0.4740069176
		 0.4743665754
		 0.4747262675
		 0.4750859974
		 0.4754457691
		 0.475805583
		 0.4761654272
		 0.4765253063
		 0.4768852275
		 0.4772451978
		 0.4776052244
		 0.4779653161
		 0.4783255844
		 0.4786860162
		 0.4790465034
		 0.479406938
		 0.479767212
		 0.4801272173
		 0.4804869399
		 0.4808465525
		 0.4812060125
		 0.4815652632
		 0.4819242481
		 0.4822829105
		 0.4826411828
		 0.4829989086
		 0.483356191
		 0.483713207
		 0.4840701335
		 0.4844271475
		 0.4847844263
		 0.4851419662
		 0.4854995803
		 0.4858572737
		 0.4862150534
		 0.4865729264
		 0.4869308995
		 0.487288976
		 0.4876471405
		 0.4880053962
		 0.4883637502
		 0.4887222097
		 0.4890807817
		 0.4894394735
		 0.4897982729
		 0.4901571745
		 0.4905161866
		 0.4908753179
		 0.4912345767
		 0.4915939716
		 0.4919535064
		 0.4923131714
		 0.4926729655
		 0.4930328888
		 0.4933929412
		 0.4937531228
		 0.4941134326
		 0.4944738551
		 0.4948343951
		 0.495195066
		 0.4955558813
		 0.4959168543
		 0.4962779985
		 0.4966393169
		 0.4970007964
		 0.4973624343
		 0.4977242284
		 0.4980861762
		 0.4984482754
		 0.4988105213
		 0.4991729005
		 0.4995354228
		 0.4998981023
		 0.500260953
		 0.5006239892
		 0.5009872248
		 0.5013506504
		 0.5017142537
		 0.5020780394
		 0.5024420122
		 0.5028061771
		 0.5031705386
		 0.5035351599
		 0.503900187
		 0.504265486
		 0.5046308999
		 0.5049962717
		 0.5053614446
		 0.5057262616
		 0.5060906487
		 0.5064547413
		 0.5068187066
		 0.5071827117
		 0.5075469237
		 0.5079115099
		 0.5082764945
		 0.5086416823
		 0.5090070806
		 0.5093727029
		 0.5097385628
		 0.510104674
		 0.5104710469
		 0.5108376639
		 0.5112045225
		 0.5115716257
		 0.5119389768
		 0.5123065792
		 0.5126744359
		 0.5130425405
		 0.5134108884
		 0.5137794863
		 0.5141483404
		 0.5145174573
		 0.5148868433
		 0.5152564983
		 0.5156264026
		 0.5159965647
		 0.5163669969
		 0.5167377111
		 0.5171087194
		 0.5174800333
		 0.5178516387
		 0.5182235292
		 0.5185957102
		 0.5189681872
		 0.5193409656
		 0.5197140508
		 0.5200874371
		 0.5204611087
		 0.5208350775
		 0.5212093564
		 0.5215839584
		 0.5219588963
		 0.5223341803
		 0.5227097908
		 0.523085726
		 0.5234619921
		 0.5238385952
		 0.5242155414
		 0.5245928368
		 0.5249704722
		 0.5253484384
		 0.5257267453
		 0.526105403
