ACESLooks/LUT/T-ARRI_Tone.cube
# This file is automagically generated by clfutil 0.1.0 from C-ARRI.clf
LUT_1D_SIZE 4096
LUT_1D_INPUT_RANGE 0.0 1.4679964
  
0.0000000000 0.0000000000 0.0000000000
0.0003039077 0.0003039077 0.0003039077
0.0006078154 0.0006078154 0.0006078154
0.0009117231 0.0009117231 0.0009117231
0.0012156308 0.0012156308 0.0012156308
0.0015195385 0.0015195385 0.0015195385
0.0018234462 0.0018234462 0.0018234462
0.0021273539 0.0021273539 0.0021273539
0.0024312616 0.0024312616 0.0024312616
0.0027351695 0.0027351695 0.0027351695
0.0030390773 0.0030390773 0.0030390773
0.0033429849 0.0033429849 0.0033429849
0.0036468924 0.0036468924 0.0036468924
0.0039508001 0.0039508001 0.0039508001
0.0042547078 0.0042547078 0.0042547078
0.0045586155 0.0045586155 0.0045586155
0.0048625232 0.0048625232 0.0048625232
0.0051664309 0.0051664309 0.0051664309
0.0054703386 0.0054703386 0.0054703386
0.0057742467 0.0057742467 0.0057742467
0.0060781546 0.0060781546 0.0060781546
0.0063820621 0.0063820621 0.0063820621
0.0066859695 0.0066859695 0.0066859695
0.0069898771 0.0069898771 0.0069898771
0.0072937849 0.0072937849 0.0072937849
0.0075976926 0.0075976926 0.0075976926
0.0079016003 0.0079016003 0.0079016003
0.0082055080 0.0082055080 0.0082055080
0.0085094157 0.0085094157 0.0085094157
0.0088133234 0.0088133234 0.0088133234
0.0091172311 0.0091172311 0.0091172311
0.0094211388 0.0094211388 0.0094211388
0.0097250465 0.0097250465 0.0097250465
0.0100289542 0.0100289542 0.0100289542
0.0103328619 0.0103328619 0.0103328619
0.0106367696 0.0106367696 0.0106367696
0.0109406773 0.0109406773 0.0109406773
0.0112445849 0.0112445849 0.0112445849
0.0115484927 0.0115484927 0.0115484927
0.0118524010 0.0118524010 0.0118524010
0.0121563093 0.0121563093 0.0121563093
0.0124602165 0.0124602165 0.0124602165
0.0127641235 0.0127641235 0.0127641235
0.0130680311 0.0130680311 0.0130680311
0.0133719389 0.0133719389 0.0133719389
0.0136758466 0.0136758466 0.0136758466
0.0139797543 0.0139797543 0.0139797543
0.0142836620 0.0142836620 0.0142836620
0.0145875697 0.0145875697 0.0145875697
0.0148914774 0.0148914774 0.0148914774
0.0151953851 0.0151953851 0.0151953851
0.0154992928 0.0154992928 0.0154992928
0.0158032005 0.0158032005 0.0158032005
0.0161071082 0.0161071082 0.0161071082
0.0164110159 0.0164110159 0.0164110159
0.0167149236 0.0167149236 0.0167149236
0.0170188313 0.0170188313 0.0170188313
0.0173227390 0.0173227390 0.0173227390
0.0176266467 0.0176266467 0.0176266467
0.0179305544 0.0179305544 0.0179305544
0.0182344621 0.0182344621 0.0182344621
0.0185383698 0.0185383698 0.0185383698
0.0188422776 0.0188422776 0.0188422776
0.0191461852 0.0191461852 0.0191461852
0.0194500930 0.0194500930 0.0194500930
0.0197540006 0.0197540006 0.0197540006
0.0200579084 0.0200579084 0.0200579084
0.0203618161 0.0203618161 0.0203618161
0.0206657238 0.0206657238 0.0206657238
0.0209696315 0.0209696315 0.0209696315
0.0212735392 0.0212735392 0.0212735392
0.0215774469 0.0215774469 0.0215774469
0.0218813546 0.0218813546 0.0218813546
0.0221852623 0.0221852623 0.0221852623
0.0224891700 0.0224891700 0.0224891700
0.0227930777 0.0227930777 0.0227930777
0.0230969854 0.0230969854 0.0230969854
0.0234008929 0.0234008929 0.0234008929
0.0237048008 0.0237048008 0.0237048008
0.0240087098 0.0240087098 0.0240087098
0.0243126185 0.0243126185 0.0243126185
0.0246165252 0.0246165252 0.0246165252
0.0249204316 0.0249204316 0.0249204316
0.0252243392 0.0252243392 0.0252243392
0.0255282470 0.0255282470 0.0255282470
0.0258321547 0.0258321547 0.0258321547
0.0261360624 0.0261360624 0.0261360624
0.0264399701 0.0264399701 0.0264399701
0.0267438778 0.0267438778 0.0267438778
0.0270477855 0.0270477855 0.0270477855
0.0273516932 0.0273516932 0.0273516932
0.0276556009 0.0276556009 0.0276556009
0.0279595086 0.0279595086 0.0279595086
0.0282634163 0.0282634163 0.0282634163
0.0285673240 0.0285673240 0.0285673240
0.0288712317 0.0288712317 0.0288712317
0.0291751394 0.0291751394 0.0291751394
0.0294790471 0.0294790471 0.0294790471
0.0297829548 0.0297829548 0.0297829548
0.0300868625 0.0300868625 0.0300868625
0.0303907702 0.0303907702 0.0303907702
0.0306946779 0.0306946779 0.0306946779
0.0309985856 0.0309985856 0.0309985856
0.0313024933 0.0313024933 0.0313024933
0.0316064010 0.0316064010 0.0316064010
0.0319103087 0.0319103087 0.0319103087
0.0322142164 0.0322142164 0.0322142164
0.0325181242 0.0325181242 0.0325181242
0.0328220319 0.0328220319 0.0328220319
0.0331259396 0.0331259396 0.0331259396
0.0334298473 0.0334298473 0.0334298473
0.0337337550 0.0337337550 0.0337337550
0.0340376627 0.0340376627 0.0340376627
0.0343415704 0.0343415704 0.0343415704
0.0346454781 0.0346454781 0.0346454781
0.0349493858 0.0349493858 0.0349493858
0.0352532935 0.0352532935 0.0352532935
0.0355572012 0.0355572012 0.0355572012
0.0358611089 0.0358611089 0.0358611089
0.0361650166 0.0361650166 0.0361650166
0.0364689243 0.0364689243 0.0364689243
0.0367728320 0.0367728320 0.0367728320
0.0370767397 0.0370767397 0.0370767397
0.0373806474 0.0373806474 0.0373806474
0.0376845551 0.0376845551 0.0376845551
0.0379884628 0.0379884628 0.0379884628
0.0382923705 0.0382923705 0.0382923705
0.0385962782 0.0385962782 0.0385962782
0.0389001859 0.0389001859 0.0389001859
0.0392040936 0.0392040936 0.0392040936
0.0395080013 0.0395080013 0.0395080013
0.0398119090 0.0398119090 0.0398119090
0.0401158167 0.0401158167 0.0401158167
0.0404197244 0.0404197244 0.0404197244
0.0407236321 0.0407236321 0.0407236321
0.0410275398 0.0410275398 0.0410275398
0.0413314475 0.0413314475 0.0413314475
0.0416353552 0.0416353552 0.0416353552
0.0419392629 0.0419392629 0.0419392629
0.0422431706 0.0422431706 0.0422431706
0.0425470783 0.0425470783 0.0425470783
0.0428509860 0.0428509860 0.0428509860
0.0431548937 0.0431548937 0.0431548937
0.0434588014 0.0434588014 0.0434588014
0.0437627091 0.0437627091 0.0437627091
0.0440666168 0.0440666168 0.0440666168
0.0443705245 0.0443705245 0.0443705245
0.0446744322 0.0446744322 0.0446744322
0.0449783400 0.0449783400 0.0449783400
0.0452822477 0.0452822477 0.0452822477
0.0455861553 0.0455861553 0.0455861553
0.0458900630 0.0458900630 0.0458900630
0.0461939708 0.0461939708 0.0461939708
0.0464978785 0.0464978785 0.0464978785
0.0468017862 0.0468017862 0.0468017862
0.0471056939 0.0471056939 0.0471056939
0.0474096016 0.0474096016 0.0474096016
0.0477135090 0.0477135090 0.0477135090
0.0480174169 0.0480174169 0.0480174169
0.0483213272 0.0483213272 0.0483213272
0.0486252370 0.0486252370 0.0486252370
0.0489291428 0.0489291428 0.0489291428
0.0492330478 0.0492330478 0.0492330478
0.0495369552 0.0495369552 0.0495369552
0.0498408632 0.0498408632 0.0498408632
0.0501447709 0.0501447709 0.0501447709
0.0504486786 0.0504486786 0.0504486786
0.0507525863 0.0507525863 0.0507525863
0.0510564940 0.0510564940 0.0510564940
0.0513604017 0.0513604017 0.0513604017
0.0516643094 0.0516643094 0.0516643094
0.0519682171 0.0519682171 0.0519682171
0.0522721248 0.0522721248 0.0522721248
0.0525760325 0.0525760325 0.0525760325
0.0528799402 0.0528799402 0.0528799402
0.0531838479 0.0531838479 0.0531838479
0.0534877556 0.0534877556 0.0534877556
0.0537916633 0.0537916633 0.0537916633
0.0540955710 0.0540955710 0.0540955710
0.0543994787 0.0543994787 0.0543994787
0.0547033864 0.0547033864 0.0547033864
0.0550072941 0.0550072941 0.0550072941
0.0553112018 0.0553112018 0.0553112018
0.0556151095 0.0556151095 0.0556151095
0.0559190172 0.0559190172 0.0559190172
0.0562229249 0.0562229249 0.0562229249
0.0565268326 0.0565268326 0.0565268326
0.0568307403 0.0568307403 0.0568307403
0.0571346480 0.0571346480 0.0571346480
0.0574385557 0.0574385557 0.0574385557
0.0577424635 0.0577424635 0.0577424635
0.0580463711 0.0580463711 0.0580463711
0.0583502788 0.0583502788 0.0583502788
0.0586541866 0.0586541866 0.0586541866
0.0589580943 0.0589580943 0.0589580943
0.0592620020 0.0592620020 0.0592620020
0.0595659097 0.0595659097 0.0595659097
0.0598698174 0.0598698174 0.0598698174
0.0601737251 0.0601737251 0.0601737251
0.0604776328 0.0604776328 0.0604776328
0.0607815405 0.0607815405 0.0607815405
0.0610854482 0.0610854482 0.0610854482
0.0613893559 0.0613893559 0.0613893559
0.0616932636 0.0616932636 0.0616932636
0.0619971713 0.0619971713 0.0619971713
0.0623010790 0.0623010790 0.0623010790
0.0626049867 0.0626049867 0.0626049867
0.0629088944 0.0629088944 0.0629088944
0.0632128021 0.0632128021 0.0632128021
0.0635167098 0.0635167098 0.0635167098
0.0638206175 0.0638206175 0.0638206175
0.0641245252 0.0641245252 0.0641245252
0.0644284329 0.0644284329 0.0644284329
0.0647323406 0.0647323406 0.0647323406
0.0650362483 0.0650362483 0.0650362483
0.0653401560 0.0653401560 0.0653401560
0.0656440637 0.0656440637 0.0656440637
0.0659479714 0.0659479714 0.0659479714
0.0662518791 0.0662518791 0.0662518791
0.0665557868 0.0665557868 0.0665557868
0.0668596945 0.0668596945 0.0668596945
0.0671636022 0.0671636022 0.0671636022
0.0674675099 0.0674675099 0.0674675099
0.0677714176 0.0677714176 0.0677714176
0.0680753253 0.0680753253 0.0680753253
0.0683792330 0.0683792330 0.0683792330
0.0686831407 0.0686831407 0.0686831407
0.0689870484 0.0689870484 0.0689870484
0.0692909561 0.0692909561 0.0692909561
0.0695948638 0.0695948638 0.0695948638
0.0698987715 0.0698987715 0.0698987715
0.0702026792 0.0702026792 0.0702026792
0.0705065869 0.0705065869 0.0705065869
0.0708104946 0.0708104946 0.0708104946
0.0711144023 0.0711144023 0.0711144023
0.0714183101 0.0714183101 0.0714183101
0.0717222177 0.0717222177 0.0717222177
0.0720261255 0.0720261255 0.0720261255
0.0723300332 0.0723300332 0.0723300332
0.0726339409 0.0726339409 0.0726339409
0.0729378486 0.0729378486 0.0729378486
0.0732417563 0.0732417563 0.0732417563
0.0735456640 0.0735456640 0.0735456640
0.0738495717 0.0738495717 0.0738495717
0.0741534794 0.0741534794 0.0741534794
0.0744573871 0.0744573871 0.0744573871
0.0747612948 0.0747612948 0.0747612948
0.0750652025 0.0750652025 0.0750652025
0.0753691102 0.0753691102 0.0753691102
0.0756730179 0.0756730179 0.0756730179
0.0759769256 0.0759769256 0.0759769256
0.0762808333 0.0762808333 0.0762808333
0.0765847410 0.0765847410 0.0765847410
0.0768886487 0.0768886487 0.0768886487
0.0771925564 0.0771925564 0.0771925564
0.0774964641 0.0774964641 0.0774964641
0.0778003718 0.0778003718 0.0778003718
0.0781042795 0.0781042795 0.0781042795
0.0784081872 0.0784081872 0.0784081872
0.0787120949 0.0787120949 0.0787120949
0.0790160026 0.0790160026 0.0790160026
0.0793199103 0.0793199103 0.0793199103
0.0796238180 0.0796238180 0.0796238180
0.0799277257 0.0799277257 0.0799277257
0.0802316334 0.0802316334 0.0802316334
0.0805355411 0.0805355411 0.0805355411
0.0808394488 0.0808394488 0.0808394488
0.0811433565 0.0811433565 0.0811433565
0.0814472642 0.0814472642 0.0814472642
0.0817511719 0.0817511719 0.0817511719
0.0820550796 0.0820550796 0.0820550796
0.0823589873 0.0823589873 0.0823589873
0.0826628950 0.0826628950 0.0826628950
0.0829668027 0.0829668027 0.0829668027
0.0832707104 0.0832707104 0.0832707104
0.0835746182 0.0835746182 0.0835746182
0.0838785258 0.0838785258 0.0838785258
0.0841824336 0.0841824336 0.0841824336
0.0844863412 0.0844863412 0.0844863412
0.0847902489 0.0847902489 0.0847902489
0.0850941567 0.0850941567 0.0850941567
0.0853980644 0.0853980644 0.0853980644
0.0857019721 0.0857019721 0.0857019721
0.0860058798 0.0860058798 0.0860058798
0.0863097875 0.0863097875 0.0863097875
0.0866136952 0.0866136952 0.0866136952
0.0869176029 0.0869176029 0.0869176029
0.0872215106 0.0872215106 0.0872215106
0.0875254183 0.0875254183 0.0875254183
0.0878293260 0.0878293260 0.0878293260
0.0881332337 0.0881332337 0.0881332337
0.0884371414 0.0884371414 0.0884371414
0.0887410491 0.0887410491 0.0887410491
0.0890449568 0.0890449568 0.0890449568
0.0893488645 0.0893488645 0.0893488645
0.0896527722 0.0896527722 0.0896527722
0.0899566799 0.0899566799 0.0899566799
0.0902605876 0.0902605876 0.0902605876
0.0905644953 0.0905644953 0.0905644953
0.0908684030 0.0908684030 0.0908684030
0.0911723107 0.0911723107 0.0911723107
0.0914762184 0.0914762184 0.0914762184
0.0917801261 0.0917801261 0.0917801261
0.0920840338 0.0920840338 0.0920840338
0.0923879415 0.0923879415 0.0923879415
0.0926918492 0.0926918492 0.0926918492
0.0929957569 0.0929957569 0.0929957569
0.0932996646 0.0932996646 0.0932996646
0.0936035723 0.0936035723 0.0936035723
0.0939074800 0.0939074800 0.0939074800
0.0942113877 0.0942113877 0.0942113877
0.0945152954 0.0945152954 0.0945152954
0.0948192031 0.0948192031 0.0948192031
0.0951231108 0.0951231108 0.0951231108
0.0954270185 0.0954270185 0.0954270185
0.0957309262 0.0957309262 0.0957309262
0.0960348339 0.0960348339 0.0960348339
0.0963387411 0.0963387411 0.0963387411
0.0966426492 0.0966426492 0.0966426492
0.0969465618 0.0969465618 0.0969465618
0.0972504740 0.0972504740 0.0972504740
0.0975543782 0.0975543782 0.0975543782
0.0978582804 0.0978582804 0.0978582804
0.0981621872 0.0981621872 0.0981621872
0.0984660955 0.0984660955 0.0984660955
0.0987700033 0.0987700033 0.0987700033
0.0990739110 0.0990739110 0.0990739110
0.0993778187 0.0993778187 0.0993778187
0.0996817264 0.0996817264 0.0996817264
0.0999856341 0.0999856341 0.0999856341
0.1002895418 0.1002895418 0.1002895418
0.1005934495 0.1005934495 0.1005934495
0.1008973572 0.1008973572 0.1008973572
0.1012012649 0.1012012649 0.1012012649
0.1015051726 0.1015051726 0.1015051726
0.1018090803 0.1018090803 0.1018090803
0.1021129880 0.1021129880 0.1021129880
0.1024168957 0.1024168957 0.1024168957
0.1027208034 0.1027208034 0.1027208034
0.1030247111 0.1030247111 0.1030247111
0.1033286188 0.1033286188 0.1033286188
0.1036325265 0.1036325265 0.1036325265
0.1039364342 0.1039364342 0.1039364342
0.1042403419 0.1042403419 0.1042403419
0.1045442496 0.1045442496 0.1045442496
0.1048481573 0.1048481573 0.1048481573
0.1051520650 0.1051520650 0.1051520650
0.1054559727 0.1054559727 0.1054559727
0.1057598804 0.1057598804 0.1057598804
0.1060637881 0.1060637881 0.1060637881
0.1063676958 0.1063676958 0.1063676958
0.1066716035 0.1066716035 0.1066716035
0.1069755112 0.1069755112 0.1069755112
0.1072794189 0.1072794189 0.1072794189
0.1075833266 0.1075833266 0.1075833266
0.1078872343 0.1078872343 0.1078872343
0.1081911420 0.1081911420 0.1081911420
0.1084950497 0.1084950497 0.1084950497
0.1087989574 0.1087989574 0.1087989574
0.1091028651 0.1091028651 0.1091028651
0.1094067728 0.1094067728 0.1094067728
0.1097106805 0.1097106805 0.1097106805
0.1100145882 0.1100145882 0.1100145882
0.1103184960 0.1103184960 0.1103184960
0.1106224037 0.1106224037 0.1106224037
0.1109263114 0.1109263114 0.1109263114
0.1112302191 0.1112302191 0.1112302191
0.1115341268 0.1115341268 0.1115341268
0.1118380345 0.1118380345 0.1118380345
0.1121419422 0.1121419422 0.1121419422
0.1124458499 0.1124458499 0.1124458499
0.1127497576 0.1127497576 0.1127497576
0.1130536653 0.1130536653 0.1130536653
0.1133575730 0.1133575730 0.1133575730
0.1136614807 0.1136614807 0.1136614807
0.1139653884 0.1139653884 0.1139653884
0.1142692961 0.1142692961 0.1142692961
0.1145732038 0.1145732038 0.1145732038
0.1148771115 0.1148771115 0.1148771115
0.1151810192 0.1151810192 0.1151810192
0.1154849269 0.1154849269 0.1154849269
0.1157888346 0.1157888346 0.1157888346
0.1160927423 0.1160927423 0.1160927423
0.1163966500 0.1163966500 0.1163966500
0.1167005577 0.1167005577 0.1167005577
0.1170044654 0.1170044654 0.1170044654
0.1173083731 0.1173083731 0.1173083731
0.1176122808 0.1176122808 0.1176122808
0.1179161885 0.1179161885 0.1179161885
0.1182200962 0.1182200962 0.1182200962
0.1185240039 0.1185240039 0.1185240039
0.1188279116 0.1188279116 0.1188279116
0.1191318193 0.1191318193 0.1191318193
0.1194357270 0.1194357270 0.1194357270
0.1197396347 0.1197396347 0.1197396347
0.1200435424 0.1200435424 0.1200435424
0.1203474501 0.1203474501 0.1203474501
0.1206513578 0.1206513578 0.1206513578
0.1209552655 0.1209552655 0.1209552655
0.1212591732 0.1212591732 0.1212591732
0.1215630809 0.1215630809 0.1215630809
0.1218669886 0.1218669886 0.1218669886
0.1221708963 0.1221708963 0.1221708963
0.1224748040 0.1224748040 0.1224748040
0.1227787117 0.1227787117 0.1227787117
0.1230826195 0.1230826195 0.1230826195
0.1233865272 0.1233865272 0.1233865272
0.1236904349 0.1236904349 0.1236904349
0.1239943426 0.1239943426 0.1239943426
0.1242982503 0.1242982503 0.1242982503
0.1246021580 0.1246021580 0.1246021580
0.1249060657 0.1249060657 0.1249060657
0.1252099734 0.1252099734 0.1252099734
0.1255138811 0.1255138811 0.1255138811
0.1258177888 0.1258177888 0.1258177888
0.1261216965 0.1261216965 0.1261216965
0.1264256042 0.1264256042 0.1264256042
0.1267295119 0.1267295119 0.1267295119
0.1270334196 0.1270334196 0.1270334196
0.1273373273 0.1273373273 0.1273373273
0.1276412350 0.1276412350 0.1276412350
0.1279451427 0.1279451427 0.1279451427
0.1282490504 0.1282490504 0.1282490504
0.1285529581 0.1285529581 0.1285529581
0.1288568658 0.1288568658 0.1288568658
0.1291607735 0.1291607735 0.1291607735
0.1294646812 0.1294646812 0.1294646812
0.1297685889 0.1297685889 0.1297685889
0.1300724966 0.1300724966 0.1300724966
0.1303764043 0.1303764043 0.1303764043
0.1306803120 0.1306803120 0.1306803120
0.1309842197 0.1309842197 0.1309842197
0.1312881274 0.1312881274 0.1312881274
0.1315920351 0.1315920351 0.1315920351
0.1318959428 0.1318959428 0.1318959428
0.1321998505 0.1321998505 0.1321998505
0.1325037582 0.1325037582 0.1325037582
0.1328076659 0.1328076659 0.1328076659
0.1331115736 0.1331115736 0.1331115736
0.1334154813 0.1334154813 0.1334154813
0.1337193890 0.1337193890 0.1337193890
0.1340232967 0.1340232967 0.1340232967
0.1343272044 0.1343272044 0.1343272044
0.1346311121 0.1346311121 0.1346311121
0.1349350198 0.1349350198 0.1349350198
0.1352389275 0.1352389275 0.1352389275
0.1355428352 0.1355428352 0.1355428352
0.1358467429 0.1358467429 0.1358467429
0.1361506507 0.1361506507 0.1361506507
0.1364553399 0.1364553399 0.1364553399
0.1367588149 0.1367588149 0.1367588149
0.1370546269 0.1370546269 0.1370546269
0.1373517956 0.1373517956 0.1373517956
0.1376654398 0.1376654398 0.1376654398
0.1379873038 0.1379873038 0.1379873038
0.1383124890 0.1383124890 0.1383124890
0.1386362970 0.1386362970 0.1386362970
0.1389449446 0.1389449446 0.1389449446
0.1392482686 0.1392482686 0.1392482686
0.1395588091 0.1395588091 0.1395588091
0.1398700334 0.1398700334 0.1398700334
0.1401748214 0.1401748214 0.1401748214
0.1404781777 0.1404781777 0.1404781777
0.1407858108 0.1407858108 0.1407858108
0.1410961664 0.1410961664 0.1410961664
0.1414092333 0.1414092333 0.1414092333
0.1417250304 0.1417250304 0.1417250304
0.1420435977 0.1420435977 0.1420435977
0.1423649421 0.1423649421 0.1423649421
0.1426917858 0.1426917858 0.1426917858
0.1430173077 0.1430173077 0.1430173077
0.1433274343 0.1433274343 0.1433274343
0.1436320564 0.1436320564 0.1436320564
0.1439425442 0.1439425442 0.1439425442
0.1442558129 0.1442558129 0.1442558129
0.1445718436 0.1445718436 0.1445718436
0.1448906389 0.1448906389 0.1448906389
0.1452122182 0.1452122182 0.1452122182
0.1455366089 0.1455366089 0.1455366089
0.1458638699 0.1458638699 0.1458638699
0.1461939921 0.1461939921 0.1461939921
0.1465269663 0.1465269663 0.1465269663
0.1468628460 0.1468628460 0.1468628460
0.1472017241 0.1472017241 0.1472017241
0.1475435840 0.1475435840 0.1475435840
0.1478884328 0.1478884328 0.1478884328
0.1482362901 0.1482362901 0.1482362901
0.1485871797 0.1485871797 0.1485871797
0.1489411349 0.1489411349 0.1489411349
0.1492982650 0.1492982650 0.1492982650
0.1496584658 0.1496584658 0.1496584658
0.1500217549 0.1500217549 0.1500217549
0.1503877678 0.1503877678 0.1503877678
0.1507558079 0.1507558079 0.1507558079
0.1511260769 0.1511260769 0.1511260769
0.1514986089 0.1514986089 0.1514986089
0.1518733778 0.1518733778 0.1518733778
0.1522503317 0.1522503317 0.1522503317
0.1526295227 0.1526295227 0.1526295227
0.1530110200 0.1530110200 0.1530110200
0.1533948139 0.1533948139 0.1533948139
0.1537809792 0.1537809792 0.1537809792
0.1541693662 0.1541693662 0.1541693662
0.1545599132 0.1545599132 0.1545599132
0.1549522143 0.1549522143 0.1549522143
0.1553457714 0.1553457714 0.1553457714
0.1557399980 0.1557399980 0.1557399980
0.1561335171 0.1561335171 0.1561335171
0.1565266384 0.1565266384 0.1565266384
0.1569192369 0.1569192369 0.1569192369
0.1573113636 0.1573113636 0.1573113636
0.1577030572 0.1577030572 0.1577030572
0.1580942862 0.1580942862 0.1580942862
0.1584849929 0.1584849929 0.1584849929
0.1588752268 0.1588752268 0.1588752268
0.1592650788 0.1592650788 0.1592650788
0.1596544712 0.1596544712 0.1596544712
0.1600432732 0.1600432732 0.1600432732
0.1604315750 0.1604315750 0.1604315750
0.1608195064 0.1608195064 0.1608195064
0.1612069883 0.1612069883 0.1612069883
0.1615939247 0.1615939247 0.1615939247
0.1619803572 0.1619803572 0.1619803572
0.1623663182 0.1623663182 0.1623663182
0.1627517991 0.1627517991 0.1627517991
0.1631368036 0.1631368036 0.1631368036
0.1635213220 0.1635213220 0.1635213220
0.1638987080 0.1638987080 0.1638987080
0.1642853602 0.1642853602 0.1642853602
0.1647129375 0.1647129375 0.1647129375
0.1651676651 0.1651676651 0.1651676651
0.1656430786 0.1656430786 0.1656430786
0.1661312750 0.1661312750 0.1661312750
0.1666130687 0.1666130687 0.1666130687
0.1670936545 0.1670936545 0.1670936545
0.1675732578 0.1675732578 0.1675732578
0.1680518351 0.1680518351 0.1680518351
0.1685293256 0.1685293256 0.1685293256
0.1690057612 0.1690057612 0.1690057612
0.1694811774 0.1694811774 0.1694811774
0.1699555579 0.1699555579 0.1699555579
0.1704288793 0.1704288793 0.1704288793
0.1709011672 0.1709011672 0.1709011672
0.1713724699 0.1713724699 0.1713724699
0.1718427537 0.1718427537 0.1718427537
0.1723119759 0.1723119759 0.1723119759
0.1727801476 0.1727801476 0.1727801476
0.1732472590 0.1732472590 0.1732472590
0.1737133354 0.1737133354 0.1737133354
0.1741784316 0.1741784316 0.1741784316
0.1746425138 0.1746425138 0.1746425138
0.1751055420 0.1751055420 0.1751055420
0.1755675285 0.1755675285 0.1755675285
0.1760284723 0.1760284723 0.1760284723
0.1764883842 0.1764883842 0.1764883842
0.1769472870 0.1769472870 0.1769472870
0.1774051711 0.1774051711 0.1774051711
0.1778620365 0.1778620365 0.1778620365
0.1783178676 0.1783178676 0.1783178676
0.1787726183 0.1787726183 0.1787726183
0.1792263317 0.1792263317 0.1792263317
0.1796790800 0.1796790800 0.1796790800
0.1801308272 0.1801308272 0.1801308272
0.1805815361 0.1805815361 0.1805815361
0.1810312182 0.1810312182 0.1810312182
0.1814798718 0.1814798718 0.1814798718
0.1819275093 0.1819275093 0.1819275093
0.1823741668 0.1823741668 0.1823741668
0.1828198109 0.1828198109 0.1828198109
0.1832643756 0.1832643756 0.1832643756
0.1837079123 0.1837079123 0.1837079123
0.1841505047 0.1841505047 0.1841505047
0.1845921054 0.1845921054 0.1845921054
0.1850326585 0.1850326585 0.1850326585
0.1854721820 0.1854721820 0.1854721820
0.1859106771 0.1859106771 0.1859106771
0.1863481573 0.1863481573 0.1863481573
0.1867846574 0.1867846574 0.1867846574
0.1872201547 0.1872201547 0.1872201547
0.1876546077 0.1876546077 0.1876546077
0.1880880543 0.1880880543 0.1880880543
0.1885205670 0.1885205670 0.1885205670
0.1889520947 0.1889520947 0.1889520947
0.1893825571 0.1893825571 0.1893825571
0.1898120003 0.1898120003 0.1898120003
0.1902404827 0.1902404827 0.1902404827
0.1906679809 0.1906679809 0.1906679809
0.1910944794 0.1910944794 0.1910944794
0.1915199755 0.1915199755 0.1915199755
0.1919444470 0.1919444470 0.1919444470
0.1923679167 0.1923679167 0.1923679167
0.1927904252 0.1927904252 0.1927904252
0.1932119519 0.1932119519 0.1932119519
0.1936324710 0.1936324710 0.1936324710
0.1940519975 0.1940519975 0.1940519975
0.1944705480 0.1944705480 0.1944705480
0.1948881216 0.1948881216 0.1948881216
0.1953047268 0.1953047268 0.1953047268
0.1957203581 0.1957203581 0.1957203581
0.1961350129 0.1961350129 0.1961350129
0.1965486818 0.1965486818 0.1965486818
0.1969613316 0.1969613316 0.1969613316
0.1973729959 0.1973729959 0.1973729959
0.1977837351 0.1977837351 0.1977837351
0.1981935205 0.1981935205 0.1981935205
0.1986023203 0.1986023203 0.1986023203
0.1990101474 0.1990101474 0.1990101474
0.1994169743 0.1994169743 0.1994169743
0.1998228908 0.1998228908 0.1998228908
0.2002280016 0.2002280016 0.2002280016
0.2006324415 0.2006324415 0.2006324415
0.2010365600 0.2010365600 0.2010365600
