ACESLooks/LUT/T-ARRI_Classic_Tone.cube
# This file is automagically generated by clfutil 0.1.0 from C-ARRI_Classic.clf
LUT_1D_SIZE 4096
LUT_1D_INPUT_RANGE 0.0 1.4679964
  
0.0000000000 0.0000000000 0.0000000000
0.0003201055 0.0003201055 0.0003201055
0.0006402110 0.0006402110 0.0006402110
0.0009603165 0.0009603165 0.0009603165
0.0012804220 0.0012804220 0.0012804220
0.0016005276 0.0016005276 0.0016005276
0.0019206331 0.0019206331 0.0019206331
0.0022407386 0.0022407386 0.0022407386
0.0025608441 0.0025608441 0.0025608441
0.0028809498 0.0028809498 0.0028809498
0.0032010554 0.0032010554 0.0032010554
0.0035211608 0.0035211608 0.0035211608
0.0038412661 0.0038412661 0.0038412661
0.0041613716 0.0041613716 0.0041613716
0.0044814772 0.0044814772 0.0044814772
0.0048015827 0.0048015827 0.0048015827
0.0051216882 0.0051216882 0.0051216882
0.0054417937 0.0054417937 0.0054417937
0.0057618992 0.0057618992 0.0057618992
0.0060820051 0.0060820051 0.0060820051
0.0064021108 0.0064021108 0.0064021108
0.0067222161 0.0067222161 0.0067222161
0.0070423213 0.0070423213 0.0070423213
0.0073624267 0.0073624267 0.0073624267
0.0076825323 0.0076825323 0.0076825323
0.0080026378 0.0080026378 0.0080026378
0.0083227433 0.0083227433 0.0083227433
0.0086428488 0.0086428488 0.0086428488
0.0089629543 0.0089629543 0.0089629543
0.0092830598 0.0092830598 0.0092830598
0.0096031653 0.0096031653 0.0096031653
0.0099232709 0.0099232709 0.0099232709
0.0102433764 0.0102433764 0.0102433764
0.0105634819 0.0105634819 0.0105634819
0.0108835874 0.0108835874 0.0108835874
0.0112036929 0.0112036929 0.0112036929
0.0115237984 0.0115237984 0.0115237984
0.0118439039 0.0118439039 0.0118439039
0.0121640094 0.0121640094 0.0121640094
0.0124841156 0.0124841156 0.0124841156
0.0128042217 0.0128042217 0.0128042217
0.0131243267 0.0131243267 0.0131243267
0.0134444315 0.0134444315 0.0134444315
0.0137645369 0.0137645369 0.0137645369
0.0140846425 0.0140846425 0.0140846425
0.0144047480 0.0144047480 0.0144047480
0.0147248535 0.0147248535 0.0147248535
0.0150449590 0.0150449590 0.0150449590
0.0153650646 0.0153650646 0.0153650646
0.0156851701 0.0156851701 0.0156851701
0.0160052756 0.0160052756 0.0160052756
0.0163253811 0.0163253811 0.0163253811
0.0166454866 0.0166454866 0.0166454866
0.0169655921 0.0169655921 0.0169655921
0.0172856976 0.0172856976 0.0172856976
0.0176058031 0.0176058031 0.0176058031
0.0179259086 0.0179259086 0.0179259086
0.0182460142 0.0182460142 0.0182460142
0.0185661197 0.0185661197 0.0185661197
0.0188862252 0.0188862252 0.0188862252
0.0192063307 0.0192063307 0.0192063307
0.0195264362 0.0195264362 0.0195264362
0.0198465417 0.0198465417 0.0198465417
0.0201666472 0.0201666472 0.0201666472
0.0204867527 0.0204867527 0.0204867527
0.0208068583 0.0208068583 0.0208068583
0.0211269638 0.0211269638 0.0211269638
0.0214470693 0.0214470693 0.0214470693
0.0217671748 0.0217671748 0.0217671748
0.0220872803 0.0220872803 0.0220872803
0.0224073858 0.0224073858 0.0224073858
0.0227274913 0.0227274913 0.0227274913
0.0230475968 0.0230475968 0.0230475968
0.0233677023 0.0233677023 0.0233677023
0.0236878078 0.0236878078 0.0236878078
0.0240079134 0.0240079134 0.0240079134
0.0243280189 0.0243280189 0.0243280189
0.0246481242 0.0246481242 0.0246481242
0.0249682299 0.0249682299 0.0249682299
0.0252883368 0.0252883368 0.0252883368
0.0256084434 0.0256084434 0.0256084434
0.0259285478 0.0259285478 0.0259285478
0.0262486520 0.0262486520 0.0262486520
0.0265687573 0.0265687573 0.0265687573
0.0268888630 0.0268888630 0.0268888630
0.0272089685 0.0272089685 0.0272089685
0.0275290740 0.0275290740 0.0275290740
0.0278491795 0.0278491795 0.0278491795
0.0281692850 0.0281692850 0.0281692850
0.0284893905 0.0284893905 0.0284893905
0.0288094960 0.0288094960 0.0288094960
0.0291296015 0.0291296015 0.0291296015
0.0294497071 0.0294497071 0.0294497071
0.0297698126 0.0297698126 0.0297698126
0.0300899181 0.0300899181 0.0300899181
0.0304100236 0.0304100236 0.0304100236
0.0307301291 0.0307301291 0.0307301291
0.0310502346 0.0310502346 0.0310502346
0.0313703401 0.0313703401 0.0313703401
0.0316904457 0.0316904457 0.0316904457
0.0320105512 0.0320105512 0.0320105512
0.0323306567 0.0323306567 0.0323306567
0.0326507622 0.0326507622 0.0326507622
0.0329708677 0.0329708677 0.0329708677
0.0332909732 0.0332909732 0.0332909732
0.0336110787 0.0336110787 0.0336110787
0.0339311842 0.0339311842 0.0339311842
0.0342512897 0.0342512897 0.0342512897
0.0345713952 0.0345713952 0.0345713952
0.0348915008 0.0348915008 0.0348915008
0.0352116063 0.0352116063 0.0352116063
0.0355317118 0.0355317118 0.0355317118
0.0358518173 0.0358518173 0.0358518173
0.0361719228 0.0361719228 0.0361719228
0.0364920283 0.0364920283 0.0364920283
0.0368121338 0.0368121338 0.0368121338
0.0371322393 0.0371322393 0.0371322393
0.0374523449 0.0374523449 0.0374523449
0.0377724504 0.0377724504 0.0377724504
0.0380925559 0.0380925559 0.0380925559
0.0384126614 0.0384126614 0.0384126614
0.0387327669 0.0387327669 0.0387327669
0.0390528724 0.0390528724 0.0390528724
0.0393729779 0.0393729779 0.0393729779
0.0396930834 0.0396930834 0.0396930834
0.0400131890 0.0400131890 0.0400131890
0.0403332945 0.0403332945 0.0403332945
0.0406534000 0.0406534000 0.0406534000
0.0409735055 0.0409735055 0.0409735055
0.0412936110 0.0412936110 0.0412936110
0.0416137165 0.0416137165 0.0416137165
0.0419338220 0.0419338220 0.0419338220
0.0422539275 0.0422539275 0.0422539275
0.0425740331 0.0425740331 0.0425740331
0.0428941386 0.0428941386 0.0428941386
0.0432142441 0.0432142441 0.0432142441
0.0435343496 0.0435343496 0.0435343496
0.0438544551 0.0438544551 0.0438544551
0.0441745606 0.0441745606 0.0441745606
0.0444946661 0.0444946661 0.0444946661
0.0448147716 0.0448147716 0.0448147716
0.0451348771 0.0451348771 0.0451348771
0.0454549827 0.0454549827 0.0454549827
0.0457750882 0.0457750882 0.0457750882
0.0460951937 0.0460951937 0.0460951937
0.0464152992 0.0464152992 0.0464152992
0.0467354047 0.0467354047 0.0467354047
0.0470555102 0.0470555102 0.0470555102
0.0473756157 0.0473756157 0.0473756157
0.0476957212 0.0476957212 0.0476957212
0.0480158267 0.0480158267 0.0480158267
0.0483359322 0.0483359322 0.0483359322
0.0486560378 0.0486560378 0.0486560378
0.0489761433 0.0489761433 0.0489761433
0.0492962488 0.0492962488 0.0492962488
0.0496163543 0.0496163543 0.0496163543
0.0499364598 0.0499364598 0.0499364598
0.0502565650 0.0502565650 0.0502565650
0.0505766708 0.0505766708 0.0505766708
0.0508967790 0.0508967790 0.0508967790
0.0512168867 0.0512168867 0.0512168867
0.0515369902 0.0515369902 0.0515369902
0.0518570929 0.0518570929 0.0518570929
0.0521771981 0.0521771981 0.0521771981
0.0524973039 0.0524973039 0.0524973039
0.0528174094 0.0528174094 0.0528174094
0.0531375149 0.0531375149 0.0531375149
0.0534576204 0.0534576204 0.0534576204
0.0537777260 0.0537777260 0.0537777260
0.0540978315 0.0540978315 0.0540978315
0.0544179370 0.0544179370 0.0544179370
0.0547380425 0.0547380425 0.0547380425
0.0550581480 0.0550581480 0.0550581480
0.0553782535 0.0553782535 0.0553782535
0.0556983590 0.0556983590 0.0556983590
0.0560184645 0.0560184645 0.0560184645
0.0563385700 0.0563385700 0.0563385700
0.0566586756 0.0566586756 0.0566586756
0.0569787811 0.0569787811 0.0569787811
0.0572988866 0.0572988866 0.0572988866
0.0576189921 0.0576189921 0.0576189921
0.0579390976 0.0579390976 0.0579390976
0.0582592031 0.0582592031 0.0582592031
0.0585793086 0.0585793086 0.0585793086
0.0588994141 0.0588994141 0.0588994141
0.0592195196 0.0592195196 0.0592195196
0.0595396251 0.0595396251 0.0595396251
0.0598597307 0.0598597307 0.0598597307
0.0601798362 0.0601798362 0.0601798362
0.0604999417 0.0604999417 0.0604999417
0.0608200472 0.0608200472 0.0608200472
0.0611401527 0.0611401527 0.0611401527
0.0614602582 0.0614602582 0.0614602582
0.0617803637 0.0617803637 0.0617803637
0.0621004692 0.0621004692 0.0621004692
0.0624205748 0.0624205748 0.0624205748
0.0627406803 0.0627406803 0.0627406803
0.0630607858 0.0630607858 0.0630607858
0.0633808913 0.0633808913 0.0633808913
0.0637009968 0.0637009968 0.0637009968
0.0640211023 0.0640211023 0.0640211023
0.0643412078 0.0643412078 0.0643412078
0.0646613133 0.0646613133 0.0646613133
0.0649814189 0.0649814189 0.0649814189
0.0653015244 0.0653015244 0.0653015244
0.0656216299 0.0656216299 0.0656216299
0.0659417354 0.0659417354 0.0659417354
0.0662618409 0.0662618409 0.0662618409
0.0665819464 0.0665819464 0.0665819464
0.0669020519 0.0669020519 0.0669020519
0.0672221574 0.0672221574 0.0672221574
0.0675422630 0.0675422630 0.0675422630
0.0678623685 0.0678623685 0.0678623685
0.0681824740 0.0681824740 0.0681824740
0.0685025795 0.0685025795 0.0685025795
0.0688226850 0.0688226850 0.0688226850
0.0691427905 0.0691427905 0.0691427905
0.0694628960 0.0694628960 0.0694628960
0.0697830015 0.0697830015 0.0697830015
0.0701031070 0.0701031070 0.0701031070
0.0704232126 0.0704232126 0.0704232126
0.0707433181 0.0707433181 0.0707433181
0.0710634236 0.0710634236 0.0710634236
0.0713835291 0.0713835291 0.0713835291
0.0717036346 0.0717036346 0.0717036346
0.0720237401 0.0720237401 0.0720237401
0.0723438456 0.0723438456 0.0723438456
0.0726639511 0.0726639511 0.0726639511
0.0729840566 0.0729840566 0.0729840566
0.0733041622 0.0733041622 0.0733041622
0.0736242677 0.0736242677 0.0736242677
0.0739443732 0.0739443732 0.0739443732
0.0742644787 0.0742644787 0.0742644787
0.0745845842 0.0745845842 0.0745845842
0.0749046897 0.0749046897 0.0749046897
0.0752247952 0.0752247952 0.0752247952
0.0755449007 0.0755449007 0.0755449007
0.0758650062 0.0758650062 0.0758650062
0.0761851118 0.0761851118 0.0761851118
0.0765052173 0.0765052173 0.0765052173
0.0768253228 0.0768253228 0.0768253228
0.0771454283 0.0771454283 0.0771454283
0.0774655338 0.0774655338 0.0774655338
0.0777856393 0.0777856393 0.0777856393
0.0781057448 0.0781057448 0.0781057448
0.0784258503 0.0784258503 0.0784258503
0.0787459558 0.0787459558 0.0787459558
0.0790660614 0.0790660614 0.0790660614
0.0793861669 0.0793861669 0.0793861669
0.0797062724 0.0797062724 0.0797062724
0.0800263779 0.0800263779 0.0800263779
0.0803464834 0.0803464834 0.0803464834
0.0806665889 0.0806665889 0.0806665889
0.0809866944 0.0809866944 0.0809866944
0.0813067999 0.0813067999 0.0813067999
0.0816269054 0.0816269054 0.0816269054
0.0819470110 0.0819470110 0.0819470110
0.0822671165 0.0822671165 0.0822671165
0.0825872220 0.0825872220 0.0825872220
0.0829073275 0.0829073275 0.0829073275
0.0832274330 0.0832274330 0.0832274330
0.0835475385 0.0835475385 0.0835475385
0.0838676440 0.0838676440 0.0838676440
0.0841877495 0.0841877495 0.0841877495
0.0845078550 0.0845078550 0.0845078550
0.0848279606 0.0848279606 0.0848279606
0.0851480661 0.0851480661 0.0851480661
0.0854681716 0.0854681716 0.0854681716
0.0857882771 0.0857882771 0.0857882771
0.0861083826 0.0861083826 0.0861083826
0.0864284881 0.0864284881 0.0864284881
0.0867485936 0.0867485936 0.0867485936
0.0870686991 0.0870686991 0.0870686991
0.0873888047 0.0873888047 0.0873888047
0.0877089102 0.0877089102 0.0877089102
0.0880290157 0.0880290157 0.0880290157
0.0883491212 0.0883491212 0.0883491212
0.0886692267 0.0886692267 0.0886692267
0.0889893322 0.0889893322 0.0889893322
0.0893094377 0.0893094377 0.0893094377
0.0896295432 0.0896295432 0.0896295432
0.0899496487 0.0899496487 0.0899496487
0.0902697543 0.0902697543 0.0902697543
0.0905898598 0.0905898598 0.0905898598
0.0909099653 0.0909099653 0.0909099653
0.0912300708 0.0912300708 0.0912300708
0.0915501763 0.0915501763 0.0915501763
0.0918702818 0.0918702818 0.0918702818
0.0921903873 0.0921903873 0.0921903873
0.0925104929 0.0925104929 0.0925104929
0.0928305984 0.0928305984 0.0928305984
0.0931507039 0.0931507039 0.0931507039
0.0934708094 0.0934708094 0.0934708094
0.0937909149 0.0937909149 0.0937909149
0.0941110204 0.0941110204 0.0941110204
0.0944311259 0.0944311259 0.0944311259
0.0947512314 0.0947512314 0.0947512314
0.0950713369 0.0950713369 0.0950713369
0.0953914425 0.0953914425 0.0953914425
0.0957115480 0.0957115480 0.0957115480
0.0960316535 0.0960316535 0.0960316535
0.0963517590 0.0963517590 0.0963517590
0.0966718645 0.0966718645 0.0966718645
0.0969919700 0.0969919700 0.0969919700
0.0973120755 0.0973120755 0.0973120755
0.0976321810 0.0976321810 0.0976321810
0.0979522865 0.0979522865 0.0979522865
0.0982723921 0.0982723921 0.0982723921
0.0985924976 0.0985924976 0.0985924976
0.0989126031 0.0989126031 0.0989126031
0.0992327086 0.0992327086 0.0992327086
0.0995528141 0.0995528141 0.0995528141
0.0998729196 0.0998729196 0.0998729196
0.1001930251 0.1001930251 0.1001930251
0.1005131306 0.1005131306 0.1005131306
0.1008332362 0.1008332362 0.1008332362
0.1011533417 0.1011533417 0.1011533417
0.1014734466 0.1014734466 0.1014734466
0.1017935525 0.1017935525 0.1017935525
0.1021136632 0.1021136632 0.1021136632
0.1024337734 0.1024337734 0.1024337734
0.1027538752 0.1027538752 0.1027538752
0.1030739749 0.1030739749 0.1030739749
0.1033940796 0.1033940796 0.1033940796
0.1037141857 0.1037141857 0.1037141857
0.1040342913 0.1040342913 0.1040342913
0.1043543968 0.1043543968 0.1043543968
0.1046745023 0.1046745023 0.1046745023
0.1049946078 0.1049946078 0.1049946078
0.1053147133 0.1053147133 0.1053147133
0.1056348188 0.1056348188 0.1056348188
0.1059549243 0.1059549243 0.1059549243
0.1062750299 0.1062750299 0.1062750299
0.1065951354 0.1065951354 0.1065951354
0.1069152409 0.1069152409 0.1069152409
0.1072353464 0.1072353464 0.1072353464
0.1075554519 0.1075554519 0.1075554519
0.1078755574 0.1078755574 0.1078755574
0.1081956629 0.1081956629 0.1081956629
0.1085157684 0.1085157684 0.1085157684
0.1088358739 0.1088358739 0.1088358739
0.1091559794 0.1091559794 0.1091559794
0.1094760850 0.1094760850 0.1094760850
0.1097961905 0.1097961905 0.1097961905
0.1101162960 0.1101162960 0.1101162960
0.1104364015 0.1104364015 0.1104364015
0.1107565070 0.1107565070 0.1107565070
0.1110766125 0.1110766125 0.1110766125
0.1113967180 0.1113967180 0.1113967180
0.1117168235 0.1117168235 0.1117168235
0.1120369291 0.1120369291 0.1120369291
0.1123570346 0.1123570346 0.1123570346
0.1126771401 0.1126771401 0.1126771401
0.1129972456 0.1129972456 0.1129972456
0.1133173511 0.1133173511 0.1133173511
0.1136374566 0.1136374566 0.1136374566
0.1139575621 0.1139575621 0.1139575621
0.1142776676 0.1142776676 0.1142776676
0.1145977732 0.1145977732 0.1145977732
0.1149178787 0.1149178787 0.1149178787
0.1152379842 0.1152379842 0.1152379842
0.1155580897 0.1155580897 0.1155580897
0.1158781952 0.1158781952 0.1158781952
0.1161983007 0.1161983007 0.1161983007
0.1165184062 0.1165184062 0.1165184062
0.1168385117 0.1168385117 0.1168385117
0.1171586172 0.1171586172 0.1171586172
0.1174787227 0.1174787227 0.1174787227
0.1177988283 0.1177988283 0.1177988283
0.1181189338 0.1181189338 0.1181189338
0.1184390393 0.1184390393 0.1184390393
0.1187591448 0.1187591448 0.1187591448
0.1190792503 0.1190792503 0.1190792503
0.1193993558 0.1193993558 0.1193993558
0.1197194613 0.1197194613 0.1197194613
0.1200395668 0.1200395668 0.1200395668
0.1203596723 0.1203596723 0.1203596723
0.1206797779 0.1206797779 0.1206797779
0.1209998834 0.1209998834 0.1209998834
0.1213199889 0.1213199889 0.1213199889
0.1216400944 0.1216400944 0.1216400944
0.1219601999 0.1219601999 0.1219601999
0.1222803054 0.1222803054 0.1222803054
0.1226004109 0.1226004109 0.1226004109
0.1229205164 0.1229205164 0.1229205164
0.1232406220 0.1232406220 0.1232406220
0.1235607275 0.1235607275 0.1235607275
0.1238808330 0.1238808330 0.1238808330
0.1242009385 0.1242009385 0.1242009385
0.1245210440 0.1245210440 0.1245210440
0.1248411495 0.1248411495 0.1248411495
0.1251612550 0.1251612550 0.1251612550
0.1254813605 0.1254813605 0.1254813605
0.1258014660 0.1258014660 0.1258014660
0.1261215716 0.1261215716 0.1261215716
0.1264416771 0.1264416771 0.1264416771
0.1267617826 0.1267617826 0.1267617826
0.1270818881 0.1270818881 0.1270818881
0.1274019936 0.1274019936 0.1274019936
0.1277220991 0.1277220991 0.1277220991
0.1280422046 0.1280422046 0.1280422046
0.1283623101 0.1283623101 0.1283623101
0.1286824157 0.1286824157 0.1286824157
0.1290025212 0.1290025212 0.1290025212
0.1293226267 0.1293226267 0.1293226267
0.1296427322 0.1296427322 0.1296427322
0.1299628377 0.1299628377 0.1299628377
0.1302829432 0.1302829432 0.1302829432
0.1306030487 0.1306030487 0.1306030487
0.1309231542 0.1309231542 0.1309231542
0.1312432597 0.1312432597 0.1312432597
0.1315633653 0.1315633653 0.1315633653
0.1318834708 0.1318834708 0.1318834708
0.1322035763 0.1322035763 0.1322035763
0.1325236817 0.1325236817 0.1325236817
0.1328437873 0.1328437873 0.1328437873
0.1331638928 0.1331638928 0.1331638928
0.1334839983 0.1334839983 0.1334839983
0.1338041039 0.1338041039 0.1338041039
0.1341242094 0.1341242094 0.1341242094
0.1344443149 0.1344443149 0.1344443149
0.1347644204 0.1347644204 0.1347644204
0.1350845259 0.1350845259 0.1350845259
0.1354046314 0.1354046314 0.1354046314
0.1357247369 0.1357247369 0.1357247369
0.1360448425 0.1360448425 0.1360448425
0.1363649480 0.1363649480 0.1363649480
0.1366850535 0.1366850535 0.1366850535
0.1370051589 0.1370051589 0.1370051589
0.1373252644 0.1373252644 0.1373252644
0.1376453700 0.1376453700 0.1376453700
0.1379654755 0.1379654755 0.1379654755
0.1382855810 0.1382855810 0.1382855810
0.1386056865 0.1386056865 0.1386056865
0.1389257920 0.1389257920 0.1389257920
0.1392458975 0.1392458975 0.1392458975
0.1395660030 0.1395660030 0.1395660030
0.1398861086 0.1398861086 0.1398861086
0.1402062141 0.1402062141 0.1402062141
0.1405263196 0.1405263196 0.1405263196
0.1408464250 0.1408464250 0.1408464250
0.1411665306 0.1411665306 0.1411665306
0.1414866361 0.1414866361 0.1414866361
0.1418067416 0.1418067416 0.1418067416
0.1421268472 0.1421268472 0.1421268472
0.1424469526 0.1424469526 0.1424469526
0.1427670581 0.1427670581 0.1427670581
0.1430871637 0.1430871637 0.1430871637
0.1434072692 0.1434072692 0.1434072692
0.1437243679 0.1437243679 0.1437243679
0.1440461380 0.1440461380 0.1440461380
0.1443890829 0.1443890829 0.1443890829
0.1447396954 0.1447396954 0.1447396954
0.1450798938 0.1450798938 0.1450798938
0.1454183006 0.1454183006 0.1454183006
0.1457616688 0.1457616688 0.1457616688
0.1461081622 0.1461081622 0.1461081622
0.1464577485 0.1464577485 0.1464577485
0.1468104732 0.1468104732 0.1468104732
0.1471664231 0.1471664231 0.1471664231
0.1475255795 0.1475255795 0.1475255795
0.1478879367 0.1478879367 0.1478879367
0.1482535313 0.1482535313 0.1482535313
0.1486224114 0.1486224114 0.1486224114
0.1489946023 0.1489946023 0.1489946023
0.1493702373 0.1493702373 0.1493702373
0.1497491411 0.1497491411 0.1497491411
0.1501312133 0.1501312133 0.1501312133
0.1505161231 0.1505161231 0.1505161231
0.1509031983 0.1509031983 0.1509031983
0.1512926272 0.1512926272 0.1512926272
0.1516844088 0.1516844088 0.1516844088
0.1520785648 0.1520785648 0.1520785648
0.1524751357 0.1524751357 0.1524751357
0.1528741047 0.1528741047 0.1528741047
0.1532754466 0.1532754466 0.1532754466
0.1536792013 0.1536792013 0.1536792013
0.1540854302 0.1540854302 0.1540854302
0.1544941184 0.1544941184 0.1544941184
0.1549055534 0.1549055534 0.1549055534
0.1553190160 0.1553190160 0.1553190160
0.1557334519 0.1557334519 0.1557334519
0.1561487870 0.1561487870 0.1561487870
0.1565643377 0.1565643377 0.1565643377
0.1569802907 0.1569802907 0.1569802907
0.1573966504 0.1573966504 0.1573966504
0.1578134024 0.1578134024 0.1578134024
0.1582305083 0.1582305083 0.1582305083
0.1586480023 0.1586480023 0.1586480023
0.1590659452 0.1590659452 0.1590659452
0.1594842859 0.1594842859 0.1594842859
0.1599029499 0.1599029499 0.1599029499
0.1603219757 0.1603219757 0.1603219757
0.1607414066 0.1607414066 0.1607414066
0.1611612129 0.1611612129 0.1611612129
0.1615813544 0.1615813544 0.1615813544
0.1620018530 0.1620018530 0.1620018530
0.1624227363 0.1624227363 0.1624227363
0.1628439823 0.1628439823 0.1628439823
0.1632655583 0.1632655583 0.1632655583
0.1636874840 0.1636874840 0.1636874840
0.1641098472 0.1641098472 0.1641098472
0.1645324752 0.1645324752 0.1645324752
0.1649551865 0.1649551865 0.1649551865
0.1653777888 0.1653777888 0.1653777888
0.1657998518 0.1657998518 0.1657998518
0.1662214055 0.1662214055 0.1662214055
0.1666422861 0.1666422861 0.1666422861
0.1670625300 0.1670625300 0.1670625300
0.1674821197 0.1674821197 0.1674821197
0.1679010637 0.1679010637 0.1679010637
0.1683193748 0.1683193748 0.1683193748
0.1687370371 0.1687370371 0.1687370371
0.1691540221 0.1691540221 0.1691540221
0.1695703465 0.1695703465 0.1695703465
0.1699860269 0.1699860269 0.1699860269
0.1704010608 0.1704010608 0.1704010608
0.1708154532 0.1708154532 0.1708154532
0.1712291991 0.1712291991 0.1712291991
0.1716422962 0.1716422962 0.1716422962
0.1720547344 0.1720547344 0.1720547344
0.1724664865 0.1724664865 0.1724664865
0.1728775740 0.1728775740 0.1728775740
0.1732880322 0.1732880322 0.1732880322
0.1736978359 0.1736978359 0.1736978359
0.1741069484 0.1741069484 0.1741069484
0.1745153900 0.1745153900 0.1745153900
0.1749166303 0.1749166303 0.1749166303
0.1753268678 0.1753268678 0.1753268678
0.1757774093 0.1757774093 0.1757774093
0.1762546046 0.1762546046 0.1762546046
0.1767520054 0.1767520054 0.1767520054
0.1772618070 0.1772618070 0.1772618070
0.1777650335 0.1777650335 0.1777650335
0.1782668111 0.1782668111 0.1782668111
0.1787673228 0.1787673228 0.1787673228
0.1792665709 0.1792665709 0.1792665709
0.1797645823 0.1797645823 0.1797645823
0.1802613288 0.1802613288 0.1802613288
0.1807567591 0.1807567591 0.1807567591
0.1812509060 0.1812509060 0.1812509060
0.1817438081 0.1817438081 0.1817438081
0.1822354568 0.1822354568 0.1822354568
0.1827258602 0.1827258602 0.1827258602
0.1832150056 0.1832150056 0.1832150056
0.1837028630 0.1837028630 0.1837028630
0.1841894595 0.1841894595 0.1841894595
0.1846748437 0.1846748437 0.1846748437
0.1851589820 0.1851589820 0.1851589820
0.1856418156 0.1856418156 0.1856418156
0.1861233947 0.1861233947 0.1861233947
0.1866038095 0.1866038095 0.1866038095
0.1870829948 0.1870829948 0.1870829948
0.1875608449 0.1875608449 0.1875608449
0.1880374308 0.1880374308 0.1880374308
0.1885128508 0.1885128508 0.1885128508
0.1889870600 0.1889870600 0.1889870600
0.1894600163 0.1894600163 0.1894600163
0.1899317357 0.1899317357 0.1899317357
0.1904022277 0.1904022277 0.1904022277
0.1908714933 0.1908714933 0.1908714933
0.1913395396 0.1913395396 0.1913395396
0.1918063646 0.1918063646 0.1918063646
0.1922719684 0.1922719684 0.1922719684
0.1927363508 0.1927363508 0.1927363508
0.1931995025 0.1931995025 0.1931995025
0.1936614464 0.1936614464 0.1936614464
0.1941222388 0.1941222388 0.1941222388
0.1945818358 0.1945818358 0.1945818358
0.1950401654 0.1950401654 0.1950401654
0.1954972702 0.1954972702 0.1954972702
0.1959532000 0.1959532000 0.1959532000
0.1964079436 0.1964079436 0.1964079436
0.1968615050 0.1968615050 0.1968615050
0.1973138812 0.1973138812 0.1973138812
0.1977650709 0.1977650709 0.1977650709
0.1982150695 0.1982150695 0.1982150695
0.1986638561 0.1986638561 0.1986638561
0.1991114581 0.1991114581 0.1991114581
0.1995578485 0.1995578485 0.1995578485
0.2000031932 0.2000031932 0.2000031932
0.2004477725 0.2004477725 0.2004477725
0.2008916344 0.2008916344 0.2008916344
0.2013350259 0.2013350259 0.2013350259
0.2017778986 0.2017778986 0.2017778986
0.2022202936 0.2022202936 0.2022202936
0.2026621828 0.2026621828 0.2026621828
0.2031035360 0.2031035360 0.2031035360
0.2035443475 0.2035443475 0.2035443475
0.2039845796 0.2039845796 0.2039845796
0.2044242625 0.2044242625 0.2044242625
0.2048634542 0.2048634542 0.2048634542
0.2053021080 0.2053021080 0.2053021080
0.2057401456 0.2057401456 0.2057401456
0.2061776074 0.2061776074 0.2061776074
0.2066145466 0.2066145466 0.2066145466
0.2070509295 0.2070509295 0.2070509295
0.2074867070 0.2074867070 0.2074867070
0.2079219033 0.2079219033 0.2079219033
0.2083565497 0.2083565497 0.2083565497
0.2087906264 0.2087906264 0.2087906264
0.2092241127 0.2092241127 0.2092241127
0.2096570039 0.2096570039 0.2096570039
0.2100892717 0.2100892717 0.2100892717
0.2105209383 0.2105209383 0.2105209383
0.2109520442 0.2109520442 0.2109520442
0.2113825626 0.2113825626 0.2113825626
0.2118124624 0.2118124624 0.2118124624
0.2122417398 0.2122417398 0.2122417398
0.2126703647 0.2126703647 0.2126703647
0.2130983563 0.2130983563 0.2130983563
