ACESLooks/LUT/T-RED_Tone.cube
# This file is automagically generated by clfutil 0.1.0 from C-RED.clf
LUT_1D_SIZE 4096
LUT_1D_INPUT_RANGE 0.0 1.4679964
  
0.0000000000 0.0000000000 0.0000000000
0.0004297268 0.0004297268 0.0004297268
0.0008594537 0.0008594537 0.0008594537
0.0012891805 0.0012891805 0.0012891805
0.0017189073 0.0017189073 0.0017189073
0.0021486342 0.0021486342 0.0021486342
0.0025783610 0.0025783610 0.0025783610
0.0030080878 0.0030080878 0.0030080878
0.0034378146 0.0034378146 0.0034378146
0.0038675417 0.0038675417 0.0038675417
0.0042972687 0.0042972687 0.0042972687
0.0047269954 0.0047269954 0.0047269954
0.0051567220 0.0051567220 0.0051567220
0.0055864488 0.0055864488 0.0055864488
0.0060161756 0.0060161756 0.0060161756
0.0064459025 0.0064459025 0.0064459025
0.0068756293 0.0068756293 0.0068756293
0.0073053561 0.0073053561 0.0073053561
0.0077350829 0.0077350829 0.0077350829
0.0081648102 0.0081648102 0.0081648102
0.0085945374 0.0085945374 0.0085945374
0.0090242639 0.0090242639 0.0090242639
0.0094539903 0.0094539903 0.0094539903
0.0098837170 0.0098837170 0.0098837170
0.0103134439 0.0103134439 0.0103134439
0.0107431708 0.0107431708 0.0107431708
0.0111728976 0.0111728976 0.0111728976
0.0116026244 0.0116026244 0.0116026244
0.0120323513 0.0120323513 0.0120323513
0.0124620781 0.0124620781 0.0124620781
0.0128918049 0.0128918049 0.0128918049
0.0133215317 0.0133215317 0.0133215317
0.0137512586 0.0137512586 0.0137512586
0.0141809854 0.0141809854 0.0141809854
0.0146107122 0.0146107122 0.0146107122
0.0150404391 0.0150404391 0.0150404391
0.0154701659 0.0154701659 0.0154701659
0.0158998926 0.0158998926 0.0158998926
0.0163296196 0.0163296196 0.0163296196
0.0167593473 0.0167593473 0.0167593473
0.0171890748 0.0171890748 0.0171890748
0.0176188010 0.0176188010 0.0176188010
0.0180485269 0.0180485269 0.0180485269
0.0184782536 0.0184782536 0.0184782536
0.0189079805 0.0189079805 0.0189079805
0.0193377074 0.0193377074 0.0193377074
0.0197674342 0.0197674342 0.0197674342
0.0201971610 0.0201971610 0.0201971610
0.0206268879 0.0206268879 0.0206268879
0.0210566147 0.0210566147 0.0210566147
0.0214863415 0.0214863415 0.0214863415
0.0219160684 0.0219160684 0.0219160684
0.0223457952 0.0223457952 0.0223457952
0.0227755220 0.0227755220 0.0227755220
0.0232052488 0.0232052488 0.0232052488
0.0236349757 0.0236349757 0.0236349757
0.0240647025 0.0240647025 0.0240647025
0.0244944293 0.0244944293 0.0244944293
0.0249241562 0.0249241562 0.0249241562
0.0253538830 0.0253538830 0.0253538830
0.0257836098 0.0257836098 0.0257836098
0.0262133366 0.0262133366 0.0262133366
0.0266430635 0.0266430635 0.0266430635
0.0270727903 0.0270727903 0.0270727903
0.0275025171 0.0275025171 0.0275025171
0.0279322440 0.0279322440 0.0279322440
0.0283619708 0.0283619708 0.0283619708
0.0287916976 0.0287916976 0.0287916976
0.0292214245 0.0292214245 0.0292214245
0.0296511513 0.0296511513 0.0296511513
0.0300808781 0.0300808781 0.0300808781
0.0305106049 0.0305106049 0.0305106049
0.0309403318 0.0309403318 0.0309403318
0.0313700586 0.0313700586 0.0313700586
0.0317997854 0.0317997854 0.0317997854
0.0322295123 0.0322295123 0.0322295123
0.0326592391 0.0326592391 0.0326592391
0.0330889657 0.0330889657 0.0330889657
0.0335186928 0.0335186928 0.0335186928
0.0339484214 0.0339484214 0.0339484214
0.0343781497 0.0343781497 0.0343781497
0.0348078752 0.0348078752 0.0348078752
0.0352376001 0.0352376001 0.0352376001
0.0356673267 0.0356673267 0.0356673267
0.0360970537 0.0360970537 0.0360970537
0.0365267806 0.0365267806 0.0365267806
0.0369565074 0.0369565074 0.0369565074
0.0373862342 0.0373862342 0.0373862342
0.0378159611 0.0378159611 0.0378159611
0.0382456879 0.0382456879 0.0382456879
0.0386754147 0.0386754147 0.0386754147
0.0391051416 0.0391051416 0.0391051416
0.0395348684 0.0395348684 0.0395348684
0.0399645952 0.0399645952 0.0399645952
0.0403943221 0.0403943221 0.0403943221
0.0408240489 0.0408240489 0.0408240489
0.0412537757 0.0412537757 0.0412537757
0.0416835025 0.0416835025 0.0416835025
0.0421132294 0.0421132294 0.0421132294
0.0425429562 0.0425429562 0.0425429562
0.0429726830 0.0429726830 0.0429726830
0.0434024099 0.0434024099 0.0434024099
0.0438321367 0.0438321367 0.0438321367
0.0442618635 0.0442618635 0.0442618635
0.0446915904 0.0446915904 0.0446915904
0.0451213172 0.0451213172 0.0451213172
0.0455510440 0.0455510440 0.0455510440
0.0459807708 0.0459807708 0.0459807708
0.0464104977 0.0464104977 0.0464104977
0.0468402245 0.0468402245 0.0468402245
0.0472699513 0.0472699513 0.0472699513
0.0476996782 0.0476996782 0.0476996782
0.0481294050 0.0481294050 0.0481294050
0.0485591318 0.0485591318 0.0485591318
0.0489888587 0.0489888587 0.0489888587
0.0494185855 0.0494185855 0.0494185855
0.0498483123 0.0498483123 0.0498483123
0.0502780392 0.0502780392 0.0502780392
0.0507077660 0.0507077660 0.0507077660
0.0511374928 0.0511374928 0.0511374928
0.0515672196 0.0515672196 0.0515672196
0.0519969465 0.0519969465 0.0519969465
0.0524266733 0.0524266733 0.0524266733
0.0528564001 0.0528564001 0.0528564001
0.0532861270 0.0532861270 0.0532861270
0.0537158538 0.0537158538 0.0537158538
0.0541455806 0.0541455806 0.0541455806
0.0545753075 0.0545753075 0.0545753075
0.0550050343 0.0550050343 0.0550050343
0.0554347611 0.0554347611 0.0554347611
0.0558644879 0.0558644879 0.0558644879
0.0562942148 0.0562942148 0.0562942148
0.0567239416 0.0567239416 0.0567239416
0.0571536684 0.0571536684 0.0571536684
0.0575833953 0.0575833953 0.0575833953
0.0580131221 0.0580131221 0.0580131221
0.0584428489 0.0584428489 0.0584428489
0.0588725758 0.0588725758 0.0588725758
0.0593023026 0.0593023026 0.0593023026
0.0597320294 0.0597320294 0.0597320294
0.0601617562 0.0601617562 0.0601617562
0.0605914831 0.0605914831 0.0605914831
0.0610212099 0.0610212099 0.0610212099
0.0614509367 0.0614509367 0.0614509367
0.0618806636 0.0618806636 0.0618806636
0.0623103904 0.0623103904 0.0623103904
0.0627401172 0.0627401172 0.0627401172
0.0631698441 0.0631698441 0.0631698441
0.0635995709 0.0635995709 0.0635995709
0.0640292977 0.0640292977 0.0640292977
0.0644590246 0.0644590246 0.0644590246
0.0648887514 0.0648887514 0.0648887514
0.0653184782 0.0653184782 0.0653184782
0.0657482050 0.0657482050 0.0657482050
0.0661779319 0.0661779319 0.0661779319
0.0666076587 0.0666076587 0.0666076587
0.0670373855 0.0670373855 0.0670373855
0.0674671120 0.0674671120 0.0674671120
0.0678968391 0.0678968391 0.0678968391
0.0683265695 0.0683265695 0.0683265695
0.0687562994 0.0687562994 0.0687562994
0.0691860236 0.0691860236 0.0691860236
0.0696157466 0.0696157466 0.0696157466
0.0700454729 0.0700454729 0.0700454729
0.0704752002 0.0704752002 0.0704752002
0.0709049270 0.0709049270 0.0709049270
0.0713346538 0.0713346538 0.0713346538
0.0717643807 0.0717643807 0.0717643807
0.0721941075 0.0721941075 0.0721941075
0.0726238343 0.0726238343 0.0726238343
0.0730535612 0.0730535612 0.0730535612
0.0734832880 0.0734832880 0.0734832880
0.0739130148 0.0739130148 0.0739130148
0.0743427417 0.0743427417 0.0743427417
0.0747724685 0.0747724685 0.0747724685
0.0752021953 0.0752021953 0.0752021953
0.0756319221 0.0756319221 0.0756319221
0.0760616490 0.0760616490 0.0760616490
0.0764913758 0.0764913758 0.0764913758
0.0769211026 0.0769211026 0.0769211026
0.0773508295 0.0773508295 0.0773508295
0.0777805563 0.0777805563 0.0777805563
0.0782102831 0.0782102831 0.0782102831
0.0786400100 0.0786400100 0.0786400100
0.0790697368 0.0790697368 0.0790697368
0.0794994636 0.0794994636 0.0794994636
0.0799291905 0.0799291905 0.0799291905
0.0803589173 0.0803589173 0.0803589173
0.0807886441 0.0807886441 0.0807886441
0.0812183709 0.0812183709 0.0812183709
0.0816480978 0.0816480978 0.0816480978
0.0820778246 0.0820778246 0.0820778246
0.0825075514 0.0825075514 0.0825075514
0.0829372783 0.0829372783 0.0829372783
0.0833670051 0.0833670051 0.0833670051
0.0837967319 0.0837967319 0.0837967319
0.0842264587 0.0842264587 0.0842264587
0.0846561856 0.0846561856 0.0846561856
0.0850859124 0.0850859124 0.0850859124
0.0855156392 0.0855156392 0.0855156392
0.0859453661 0.0859453661 0.0859453661
0.0863750929 0.0863750929 0.0863750929
0.0868048197 0.0868048197 0.0868048197
0.0872345466 0.0872345466 0.0872345466
0.0876642734 0.0876642734 0.0876642734
0.0880940002 0.0880940002 0.0880940002
0.0885237271 0.0885237271 0.0885237271
0.0889534539 0.0889534539 0.0889534539
0.0893831807 0.0893831807 0.0893831807
0.0898129076 0.0898129076 0.0898129076
0.0902426344 0.0902426344 0.0902426344
0.0906723612 0.0906723612 0.0906723612
0.0911020880 0.0911020880 0.0911020880
0.0915318149 0.0915318149 0.0915318149
0.0919615417 0.0919615417 0.0919615417
0.0923912685 0.0923912685 0.0923912685
0.0928209954 0.0928209954 0.0928209954
0.0932507222 0.0932507222 0.0932507222
0.0936804490 0.0936804490 0.0936804490
0.0941101759 0.0941101759 0.0941101759
0.0945399027 0.0945399027 0.0945399027
0.0949696295 0.0949696295 0.0949696295
0.0953993563 0.0953993563 0.0953993563
0.0958290832 0.0958290832 0.0958290832
0.0962588100 0.0962588100 0.0962588100
0.0966885368 0.0966885368 0.0966885368
0.0971182637 0.0971182637 0.0971182637
0.0975479905 0.0975479905 0.0975479905
0.0979777173 0.0979777173 0.0979777173
0.0984074441 0.0984074441 0.0984074441
0.0988371710 0.0988371710 0.0988371710
0.0992668978 0.0992668978 0.0992668978
0.0996966246 0.0996966246 0.0996966246
0.1001263515 0.1001263515 0.1001263515
0.1005560783 0.1005560783 0.1005560783
0.1009858051 0.1009858051 0.1009858051
0.1014155319 0.1014155319 0.1014155319
0.1018452587 0.1018452587 0.1018452587
0.1022749856 0.1022749856 0.1022749856
0.1027047124 0.1027047124 0.1027047124
0.1031344393 0.1031344393 0.1031344393
0.1035641661 0.1035641661 0.1035641661
0.1039938929 0.1039938929 0.1039938929
0.1044236198 0.1044236198 0.1044236198
0.1048533466 0.1048533466 0.1048533466
0.1052830735 0.1052830735 0.1052830735
0.1057128003 0.1057128003 0.1057128003
0.1061425271 0.1061425271 0.1061425271
0.1065722540 0.1065722540 0.1065722540
0.1070019808 0.1070019808 0.1070019808
0.1074317075 0.1074317075 0.1074317075
0.1078614344 0.1078614344 0.1078614344
0.1082911612 0.1082911612 0.1082911612
0.1087208881 0.1087208881 0.1087208881
0.1091506149 0.1091506149 0.1091506149
0.1095803417 0.1095803417 0.1095803417
0.1100100686 0.1100100686 0.1100100686
0.1104397954 0.1104397954 0.1104397954
0.1108695222 0.1108695222 0.1108695222
0.1112992491 0.1112992491 0.1112992491
0.1117289759 0.1117289759 0.1117289759
0.1121587028 0.1121587028 0.1121587028
0.1125884296 0.1125884296 0.1125884296
0.1130181564 0.1130181564 0.1130181564
0.1134478832 0.1134478832 0.1134478832
0.1138776100 0.1138776100 0.1138776100
0.1143073368 0.1143073368 0.1143073368
0.1147370637 0.1147370637 0.1147370637
0.1151667905 0.1151667905 0.1151667905
0.1155965174 0.1155965174 0.1155965174
0.1160262442 0.1160262442 0.1160262442
0.1164559710 0.1164559710 0.1164559710
0.1168856979 0.1168856979 0.1168856979
0.1173154247 0.1173154247 0.1173154247
0.1177451515 0.1177451515 0.1177451515
0.1181748784 0.1181748784 0.1181748784
0.1186046052 0.1186046052 0.1186046052
0.1190343321 0.1190343321 0.1190343321
0.1194640589 0.1194640589 0.1194640589
0.1198937857 0.1198937857 0.1198937857
0.1203235125 0.1203235125 0.1203235125
0.1207532393 0.1207532393 0.1207532393
0.1211829661 0.1211829661 0.1211829661
0.1216126930 0.1216126930 0.1216126930
0.1220424198 0.1220424198 0.1220424198
0.1224721467 0.1224721467 0.1224721467
0.1229018735 0.1229018735 0.1229018735
0.1233316003 0.1233316003 0.1233316003
0.1237613272 0.1237613272 0.1237613272
0.1241910540 0.1241910540 0.1241910540
0.1246207808 0.1246207808 0.1246207808
0.1250505077 0.1250505077 0.1250505077
0.1254802345 0.1254802345 0.1254802345
0.1259099613 0.1259099613 0.1259099613
0.1263396881 0.1263396881 0.1263396881
0.1267694149 0.1267694149 0.1267694149
0.1271991418 0.1271991418 0.1271991418
0.1276288686 0.1276288686 0.1276288686
0.1280585954 0.1280585954 0.1280585954
0.1284883223 0.1284883223 0.1284883223
0.1289180491 0.1289180491 0.1289180491
0.1293477760 0.1293477760 0.1293477760
0.1297775028 0.1297775028 0.1297775028
0.1302072296 0.1302072296 0.1302072296
0.1306369565 0.1306369565 0.1306369565
0.1310666833 0.1310666833 0.1310666833
0.1314964101 0.1314964101 0.1314964101
0.1319261369 0.1319261369 0.1319261369
0.1323558637 0.1323558637 0.1323558637
0.1327855905 0.1327855905 0.1327855905
0.1332153174 0.1332153174 0.1332153174
0.1336450442 0.1336450442 0.1336450442
0.1340747711 0.1340747711 0.1340747711
0.1345044979 0.1345044979 0.1345044979
0.1349342247 0.1349342247 0.1349342247
0.1353639516 0.1353639516 0.1353639516
0.1357936784 0.1357936784 0.1357936784
0.1362234045 0.1362234045 0.1362234045
0.1366531319 0.1366531319 0.1366531319
0.1370828656 0.1370828656 0.1370828656
0.1375125988 0.1375125988 0.1375125988
0.1379423206 0.1379423206 0.1379423206
0.1383720396 0.1383720396 0.1383720396
0.1388017653 0.1388017653 0.1388017653
0.1392314930 0.1392314930 0.1392314930
0.1396612198 0.1396612198 0.1396612198
0.1400909467 0.1400909467 0.1400909467
0.1405206735 0.1405206735 0.1405206735
0.1409504003 0.1409504003 0.1409504003
0.1413801272 0.1413801272 0.1413801272
0.1418098540 0.1418098540 0.1418098540
0.1422395809 0.1422395809 0.1422395809
0.1426693077 0.1426693077 0.1426693077
0.1430990345 0.1430990345 0.1430990345
0.1435287614 0.1435287614 0.1435287614
0.1439584882 0.1439584882 0.1439584882
0.1443882151 0.1443882151 0.1443882151
0.1448179418 0.1448179418 0.1448179418
0.1452476686 0.1452476686 0.1452476686
0.1456773955 0.1456773955 0.1456773955
0.1461071223 0.1461071223 0.1461071223
0.1465368491 0.1465368491 0.1465368491
0.1469665760 0.1469665760 0.1469665760
0.1473963028 0.1473963028 0.1473963028
0.1478260296 0.1478260296 0.1478260296
0.1482557565 0.1482557565 0.1482557565
0.1486854833 0.1486854833 0.1486854833
0.1491152102 0.1491152102 0.1491152102
0.1495449370 0.1495449370 0.1495449370
0.1499746638 0.1499746638 0.1499746638
0.1504043907 0.1504043907 0.1504043907
0.1508341175 0.1508341175 0.1508341175
0.1512638443 0.1512638443 0.1512638443
0.1516935711 0.1516935711 0.1516935711
0.1521232979 0.1521232979 0.1521232979
0.1525530248 0.1525530248 0.1525530248
0.1529827516 0.1529827516 0.1529827516
0.1534124784 0.1534124784 0.1534124784
0.1538422053 0.1538422053 0.1538422053
0.1542719321 0.1542719321 0.1542719321
0.1547016589 0.1547016589 0.1547016589
0.1551313858 0.1551313858 0.1551313858
0.1555611126 0.1555611126 0.1555611126
0.1559908395 0.1559908395 0.1559908395
0.1564205663 0.1564205663 0.1564205663
0.1568502931 0.1568502931 0.1568502931
0.1572800199 0.1572800199 0.1572800199
0.1577097467 0.1577097467 0.1577097467
0.1581394735 0.1581394735 0.1581394735
0.1585692004 0.1585692004 0.1585692004
0.1589989272 0.1589989272 0.1589989272
0.1594286541 0.1594286541 0.1594286541
0.1598583809 0.1598583809 0.1598583809
0.1602881077 0.1602881077 0.1602881077
0.1607178346 0.1607178346 0.1607178346
0.1611475614 0.1611475614 0.1611475614
0.1615772882 0.1615772882 0.1615772882
0.1620070151 0.1620070151 0.1620070151
0.1624367419 0.1624367419 0.1624367419
0.1628664687 0.1628664687 0.1628664687
0.1632961955 0.1632961955 0.1632961955
0.1637259223 0.1637259223 0.1637259223
0.1641556492 0.1641556492 0.1641556492
0.1645853760 0.1645853760 0.1645853760
0.1650151028 0.1650151028 0.1650151028
0.1654448297 0.1654448297 0.1654448297
0.1658745565 0.1658745565 0.1658745565
0.1663042834 0.1663042834 0.1663042834
0.1667340102 0.1667340102 0.1667340102
0.1671637370 0.1671637370 0.1671637370
0.1675934639 0.1675934639 0.1675934639
0.1680231907 0.1680231907 0.1680231907
0.1684529175 0.1684529175 0.1684529175
0.1688826443 0.1688826443 0.1688826443
0.1693123711 0.1693123711 0.1693123711
0.1697420980 0.1697420980 0.1697420980
0.1701718248 0.1701718248 0.1701718248
0.1706015516 0.1706015516 0.1706015516
0.1710312785 0.1710312785 0.1710312785
0.1714610053 0.1714610053 0.1714610053
0.1718907321 0.1718907321 0.1718907321
0.1723204590 0.1723204590 0.1723204590
0.1727501858 0.1727501858 0.1727501858
0.1731799127 0.1731799127 0.1731799127
0.1736096395 0.1736096395 0.1736096395
0.1740393663 0.1740393663 0.1740393663
0.1744690932 0.1744690932 0.1744690932
0.1748988200 0.1748988200 0.1748988200
0.1753285467 0.1753285467 0.1753285467
0.1757582736 0.1757582736 0.1757582736
0.1761880004 0.1761880004 0.1761880004
0.1766177273 0.1766177273 0.1766177273
0.1770474541 0.1770474541 0.1770474541
0.1774771809 0.1774771809 0.1774771809
0.1779069078 0.1779069078 0.1779069078
0.1783366346 0.1783366346 0.1783366346
0.1787663614 0.1787663614 0.1787663614
0.1791960883 0.1791960883 0.1791960883
0.1796258151 0.1796258151 0.1796258151
0.1800555420 0.1800555420 0.1800555420
0.1804852688 0.1804852688 0.1804852688
0.1809149956 0.1809149956 0.1809149956
0.1813447224 0.1813447224 0.1813447224
0.1817744492 0.1817744492 0.1817744492
0.1822041760 0.1822041760 0.1822041760
0.1826339029 0.1826339029 0.1826339029
0.1830636297 0.1830636297 0.1830636297
0.1834933566 0.1834933566 0.1834933566
0.1839230834 0.1839230834 0.1839230834
0.1843528102 0.1843528102 0.1843528102
0.1847825371 0.1847825371 0.1847825371
0.1852122639 0.1852122639 0.1852122639
0.1856419907 0.1856419907 0.1856419907
0.1860717176 0.1860717176 0.1860717176
0.1865014444 0.1865014444 0.1865014444
0.1869311712 0.1869311712 0.1869311712
0.1873608980 0.1873608980 0.1873608980
0.1877906248 0.1877906248 0.1877906248
0.1882203517 0.1882203517 0.1882203517
0.1886500785 0.1886500785 0.1886500785
0.1890798053 0.1890798053 0.1890798053
0.1895095322 0.1895095322 0.1895095322
0.1899392590 0.1899392590 0.1899392590
0.1903689859 0.1903689859 0.1903689859
0.1907987127 0.1907987127 0.1907987127
0.1912284395 0.1912284395 0.1912284395
0.1916581664 0.1916581664 0.1916581664
0.1920878932 0.1920878932 0.1920878932
0.1925176200 0.1925176200 0.1925176200
0.1929451030 0.1929451030 0.1929451030
0.1933760722 0.1933760722 0.1933760722
0.1938348964 0.1938348964 0.1938348964
0.1942807399 0.1942807399 0.1942807399
0.1946380451 0.1946380451 0.1946380451
0.1949567552 0.1949567552 0.1949567552
0.1952906709 0.1952906709 0.1952906709
0.1956248957 0.1956248957 0.1956248957
0.1959590612 0.1959590612 0.1959590612
0.1962931806 0.1962931806 0.1962931806
0.1966272569 0.1966272569 0.1966272569
0.1969612995 0.1969612995 0.1969612995
0.1972953323 0.1972953323 0.1972953323
0.1976293367 0.1976293367 0.1976293367
0.1979632854 0.1979632854 0.1979632854
0.1982971961 0.1982971961 0.1982971961
0.1986310281 0.1986310281 0.1986310281
0.1989649275 0.1989649275 0.1989649275
0.1992991415 0.1992991415 0.1992991415
0.1996336136 0.1996336136 0.1996336136
0.1999683675 0.1999683675 0.1999683675
0.2003033902 0.2003033902 0.2003033902
0.2006386568 0.2006386568 0.2006386568
0.2009742042 0.2009742042 0.2009742042
0.2013101096 0.2013101096 0.2013101096
0.2016463057 0.2016463057 0.2016463057
0.2019827024 0.2019827024 0.2019827024
0.2023193306 0.2023193306 0.2023193306
0.2026561914 0.2026561914 0.2026561914
0.2029933088 0.2029933088 0.2029933088
0.2033307501 0.2033307501 0.2033307501
0.2036684469 0.2036684469 0.2036684469
0.2040062856 0.2040062856 0.2040062856
0.2043443392 0.2043443392 0.2043443392
0.2046826985 0.2046826985 0.2046826985
0.2050213149 0.2050213149 0.2050213149
0.2053601406 0.2053601406 0.2053601406
0.2056991925 0.2056991925 0.2056991925
0.2060384945 0.2060384945 0.2060384945
0.2063780045 0.2063780045 0.2063780045
0.2067176371 0.2067176371 0.2067176371
0.2070574533 0.2070574533 0.2070574533
0.2073975357 0.2073975357 0.2073975357
0.2077378399 0.2077378399 0.2077378399
0.2080783219 0.2080783219 0.2080783219
0.2084189976 0.2084189976 0.2084189976
0.2087598775 0.2087598775 0.2087598775
0.2091009529 0.2091009529 0.2091009529
0.2094422203 0.2094422203 0.2094422203
0.2097836629 0.2097836629 0.2097836629
0.2101252367 0.2101252367 0.2101252367
0.2104669755 0.2104669755 0.2104669755
0.2108089319 0.2108089319 0.2108089319
0.2111510682 0.2111510682 0.2111510682
0.2114933416 0.2114933416 0.2114933416
0.2118357560 0.2118357560 0.2118357560
0.2121782823 0.2121782823 0.2121782823
0.2125209598 0.2125209598 0.2125209598
0.2128638602 0.2128638602 0.2128638602
0.2132069407 0.2132069407 0.2132069407
0.2135533124 0.2135533124 0.2135533124
0.2138951197 0.2138951197 0.2138951197
0.2142154521 0.2142154521 0.2142154521
0.2145258593 0.2145258593 0.2145258593
0.2148401402 0.2148401402 0.2148401402
0.2151546248 0.2151546248 0.2151546248
0.2154692932 0.2154692932 0.2154692932
0.2157841006 0.2157841006 0.2157841006
0.2160986880 0.2160986880 0.2160986880
0.2164138522 0.2164138522 0.2164138522
0.2167306496 0.2167306496 0.2167306496
0.2170495276 0.2170495276 0.2170495276
0.2173725929 0.2173725929 0.2173725929
0.2176978094 0.2176978094 0.2176978094
0.2180222454 0.2180222454 0.2180222454
0.2183466985 0.2183466985 0.2183466985
0.2186712109 0.2186712109 0.2186712109
0.2189957828 0.2189957828 0.2189957828
0.2193204287 0.2193204287 0.2193204287
0.2196451358 0.2196451358 0.2196451358
0.2199698841 0.2199698841 0.2199698841
0.2202946841 0.2202946841 0.2202946841
0.2206195546 0.2206195546 0.2206195546
0.2209444731 0.2209444731 0.2209444731
0.2212694034 0.2212694034 0.2212694034
0.2215943569 0.2215943569 0.2215943569
0.2219193389 0.2219193389 0.2219193389
0.2222443448 0.2222443448 0.2222443448
0.2225693665 0.2225693665 0.2225693665
0.2228944080 0.2228944080 0.2228944080
0.2232194688 0.2232194688 0.2232194688
0.2235445578 0.2235445578 0.2235445578
0.2238697045 0.2238697045 0.2238697045
0.2241948750 0.2241948750 0.2241948750
0.2245200119 0.2245200119 0.2245200119
0.2248451392 0.2248451392 0.2248451392
0.2251702736 0.2251702736 0.2251702736
0.2254954142 0.2254954142 0.2254954142
0.2258205751 0.2258205751 0.2258205751
0.2261457368 0.2261457368 0.2261457368
0.2264708666 0.2264708666 0.2264708666
0.2267959750 0.2267959750 0.2267959750
0.2271210633 0.2271210633 0.2271210633
0.2274461365 0.2274461365 0.2274461365
0.2277712130 0.2277712130 0.2277712130
0.2280962707 0.2280962707 0.2280962707
0.2284212654 0.2284212654 0.2284212654
0.2287462276 0.2287462276 0.2287462276
0.2290712071 0.2290712071 0.2290712071
0.2293961684 0.2293961684 0.2293961684
0.2297210610 0.2297210610 0.2297210610
0.2300459066 0.2300459066 0.2300459066
0.2303707315 0.2303707315 0.2303707315
0.2306955118 0.2306955118 0.2306955118
0.2310202076 0.2310202076 0.2310202076
0.2313448381 0.2313448381 0.2313448381
0.2316694165 0.2316694165 0.2316694165
0.2319939496 0.2319939496 0.2319939496
0.2323184652 0.2323184652 0.2323184652
0.2326429422 0.2326429422 0.2326429422
0.2329673621 0.2329673621 0.2329673621
0.2332917074 0.2332917074 0.2332917074
0.2336159228 0.2336159228 0.2336159228
0.2339400431 0.2339400431 0.2339400431
0.2342641110 0.2342641110 0.2342641110
0.2345881172 0.2345881172 0.2345881172
0.2349120719 0.2349120719 0.2349120719
0.2352359569 0.2352359569 0.2352359569
0.2355597354 0.2355597354 0.2355597354
0.2358834272 0.2358834272 0.2358834272
0.2362070636 0.2362070636 0.2362070636
0.2365306160 0.2365306160 0.2365306160
0.2368540374 0.2368540374 0.2368540374
0.2371773485 0.2371773485 0.2371773485
0.2375005652 0.2375005652 0.2375005652
0.2378236887 0.2378236887 0.2378236887
0.2381467341 0.2381467341 0.2381467341
0.2384696875 0.2384696875 0.2384696875
0.2387925324 0.2387925324 0.2387925324
0.2391152614 0.2391152614 0.2391152614
0.2394378418 0.2394378418 0.2394378418
0.2397602989 0.2397602989 0.2397602989
0.2400826759 0.2400826759 0.2400826759
0.2404049466 0.2404049466 0.2404049466
0.2407270743 0.2407270743 0.2407270743
0.2410490769 0.2410490769 0.2410490769
0.2413709773 0.2413709773 0.2413709773
0.2416927596 0.2416927596 0.2416927596
0.2420144028 0.2420144028 0.2420144028
0.2423359106 0.2423359106 0.2423359106
0.2426571008 0.2426571008 0.2426571008
0.2429784033 0.2429784033 0.2429784033
0.2432988344 0.2432988344 0.2432988344
0.2436225230 0.2436225230 0.2436225230
0.2439598763 0.2439598763 0.2439598763
0.2443039318 0.2443039318 0.2443039318
0.2446453189 0.2446453189 0.2446453189
0.2449864108 0.2449864108 0.2449864108
0.2453272461 0.2453272461 0.2453272461
0.2456678479 0.2456678479 0.2456678479
0.2460082356 0.2460082356 0.2460082356
0.2463484027 0.2463484027 0.2463484027
0.2466883509 0.2466883509 0.2466883509
