ACESLooks/LUT/T-SONY_Tone.cube
# This file is automagically generated by clfutil 0.1.0 from C-SONY.clf
LUT_1D_SIZE 4096
LUT_1D_INPUT_RANGE 0.0 1.4679964

0.0000000000 0.0000000000 0.0000000000
0.0004759249 0.0004765421 0.0004761008
0.0009518497 0.0009530841 0.0009522014
0.0014277747 0.0014296263 0.0014283023
0.0019036995 0.0019061684 0.0019044030
0.0023796243 0.0023827105 0.0023805038
0.0028555492 0.0028592526 0.0028566045
0.0033314742 0.0033357948 0.0033327054
0.0038073989 0.0038123367 0.0038088060
0.0042833241 0.0042888791 0.0042849070
0.0047592491 0.0047654214 0.0047610080
0.0052351739 0.0052419634 0.0052371086
0.0057110986 0.0057185053 0.0057132091
0.0061870234 0.0061950474 0.0061893099
0.0066629484 0.0066715895 0.0066654107
0.0071388733 0.0071481317 0.0071415116
0.0076147977 0.0076246734 0.0076176118
0.0080907227 0.0081012155 0.0080937126
0.0085666476 0.0085777577 0.0085698135
0.0090425730 0.0090543003 0.0090459147
0.0095184984 0.0095308429 0.0095220160
0.0099944229 0.0100073847 0.0099981164
0.0104703473 0.0104839263 0.0104742166
0.0109462721 0.0109604683 0.0109503174
0.0114221971 0.0114370106 0.0114264183
0.0118981220 0.0119135527 0.0119025191
0.0123740469 0.0123900948 0.0123786198
0.0128499719 0.0128666370 0.0128547207
0.0133258968 0.0133431792 0.0133308215
0.0138018217 0.0138197213 0.0138069222
0.0142777466 0.0142962634 0.0142830230
0.0147536716 0.0147728056 0.0147591239
0.0152295956 0.0152493468 0.0152352238
0.0157055205 0.0157258889 0.0157113245
0.0161814454 0.0162024311 0.0161874253
0.0166573703 0.0166789733 0.0166635262
0.0171332952 0.0171555154 0.0171396269
0.0176092200 0.0176320574 0.0176157276
0.0180851451 0.0181085997 0.0180918286
0.0185610710 0.0185851428 0.0185679304
0.0190369967 0.0190616858 0.0190440319
0.0195129209 0.0195382272 0.0195201319
0.0199888447 0.0200147683 0.0199962318
0.0204647695 0.0204913103 0.0204723324
0.0209406945 0.0209678525 0.0209484333
0.0214166195 0.0214443947 0.0214245342
0.0218925444 0.0219209368 0.0219006349
0.0223684693 0.0223974790 0.0223767357
0.0228443943 0.0228740211 0.0228528365
0.0233203192 0.0233505633 0.0233289373
0.0237962441 0.0238271054 0.0238050381
0.0242721690 0.0243036475 0.0242811389
0.0247480940 0.0247801898 0.0247572398
0.0252240188 0.0252567319 0.0252333405
0.0256999437 0.0257332740 0.0257094413
0.0261758686 0.0262098161 0.0261855422
0.0266517936 0.0266863583 0.0266616430
0.0271277185 0.0271629004 0.0271377437
0.0276036434 0.0276394425 0.0276138445
0.0280795684 0.0281159848 0.0280899453
0.0285554932 0.0285925269 0.0285660461
0.0290314181 0.0290690690 0.0290421469
0.0295073430 0.0295456111 0.0295182477
0.0299832680 0.0300221533 0.0299943485
0.0304591911 0.0304986936 0.0304704475
0.0309351160 0.0309752358 0.0309465483
0.0314110409 0.0314517779 0.0314226490
0.0318869659 0.0319283201 0.0318987499
0.0323628908 0.0324048622 0.0323748507
0.0328388157 0.0328814043 0.0328509515
0.0333147407 0.0333579465 0.0333270523
0.0337906655 0.0338344887 0.0338031531
0.0342665904 0.0343110308 0.0342792538
0.0347425153 0.0347875729 0.0347553546
0.0352184403 0.0352641151 0.0352314555
0.0356943652 0.0357406572 0.0357075563
0.0361702901 0.0362171993 0.0361836570
0.0366462148 0.0366937413 0.0366597576
0.0371221399 0.0371702837 0.0371358587
0.0375980668 0.0376468278 0.0376119614
0.0380739934 0.0381233715 0.0380880638
0.0385499168 0.0385999122 0.0385641632
0.0390258396 0.0390764523 0.0390402619
0.0395017643 0.0395529941 0.0395163624
0.0399776894 0.0400295366 0.0399924635
0.0404536144 0.0405060787 0.0404685643
0.0409295393 0.0409826208 0.0409446650
0.0414054642 0.0414591629 0.0414207658
0.0418813892 0.0419357052 0.0418968667
0.0423573140 0.0424122473 0.0423729675
0.0428332389 0.0428887894 0.0428490682
0.0433091638 0.0433653315 0.0433251691
0.0437850888 0.0438418737 0.0438012699
0.0442610137 0.0443184158 0.0442773706
0.0447369386 0.0447949579 0.0447534714
0.0452128636 0.0452715002 0.0452295723
0.0456887885 0.0457480423 0.0457056730
0.0461647134 0.0462245844 0.0461817738
0.0466406383 0.0467011265 0.0466578747
0.0471165632 0.0471776687 0.0471339755
0.0475924881 0.0476542108 0.0476100762
0.0480684130 0.0481307530 0.0480861770
0.0485443380 0.0486072952 0.0485622779
0.0490202629 0.0490838373 0.0490383786
0.0494961878 0.0495603794 0.0495144794
0.0499721127 0.0500369216 0.0499905802
0.0504480377 0.0505134637 0.0504666810
0.0509239626 0.0509900058 0.0509427818
0.0513998874 0.0514665480 0.0514188826
0.0518758124 0.0519430902 0.0518949835
0.0523517373 0.0524196323 0.0523710842
0.0528276622 0.0528961744 0.0528471850
0.0533035871 0.0533727165 0.0533232858
0.0537795121 0.0538492588 0.0537993866
0.0542554370 0.0543258009 0.0542754874
0.0547313619 0.0548023430 0.0547515882
0.0552072869 0.0552788852 0.0552276891
0.0556832117 0.0557554273 0.0557037898
0.0561591366 0.0562319694 0.0561798906
0.0566350615 0.0567085116 0.0566559914
0.0571109865 0.0571850538 0.0571320922
0.0575869114 0.0576615959 0.0576081930
0.0580628363 0.0581381380 0.0580842938
0.0585387613 0.0586146802 0.0585603946
0.0590146862 0.0590912223 0.0590364954
0.0594906111 0.0595677644 0.0595125962
0.0599665359 0.0600443066 0.0599886969
0.0604424609 0.0605208488 0.0604647978
0.0609183822 0.0609973873 0.0609408950
0.0613943071 0.0614739294 0.0614169958
0.0618702320 0.0619504715 0.0618930965
0.0623461570 0.0624270137 0.0623691974
0.0628220819 0.0629035559 0.0628452982
0.0632980068 0.0633800980 0.0633213990
0.0637739317 0.0638566401 0.0637974997
0.0642498567 0.0643331823 0.0642736006
0.0647257815 0.0648097244 0.0647497013
0.0652017064 0.0652862665 0.0652258021
0.0656776314 0.0657628087 0.0657019030
0.0661535563 0.0662393509 0.0661780038
0.0666294812 0.0667158930 0.0666541045
0.0671054061 0.0671924351 0.0671302053
0.0675813311 0.0676689773 0.0676063062
0.0680572560 0.0681455194 0.0680824069
0.0685331809 0.0686220616 0.0685585077
0.0690091057 0.0690986038 0.0690346086
0.0694850307 0.0695751459 0.0695107094
0.0699609556 0.0700516880 0.0699868101
0.0704368805 0.0705282301 0.0704629109
0.0709128055 0.0710047723 0.0709390118
0.0713887304 0.0714813144 0.0714151125
0.0718646553 0.0719578566 0.0718912133
0.0723405802 0.0724343988 0.0723673142
0.0728165052 0.0729109409 0.0728434149
0.0732924300 0.0733874830 0.0733195157
0.0737683549 0.0738640251 0.0737956165
0.0742442799 0.0743405673 0.0742717174
0.0747202044 0.0748171090 0.0747478177
0.0751961296 0.0752936515 0.0752239188
0.0756720586 0.0757701976 0.0757000237
0.0761479868 0.0762467432 0.0761761278
0.0766239087 0.0767232823 0.0766522256
0.0770998294 0.0771998202 0.0771283222
0.0775757539 0.0776763619 0.0776044225
0.0780516792 0.0781529045 0.0780805237
0.0785276041 0.0786294466 0.0785566245
0.0790035290 0.0791059887 0.0790327253
0.0794794540 0.0795825309 0.0795088261
0.0799553789 0.0800590730 0.0799849269
0.0804313038 0.0805356152 0.0804610277
0.0809072288 0.0810121574 0.0809371286
0.0813831537 0.0814886995 0.0814132293
0.0818590786 0.0819652416 0.0818893301
0.0823350035 0.0824417837 0.0823654309
0.0828109284 0.0829183259 0.0828415317
0.0832868533 0.0833948681 0.0833176325
0.0837627782 0.0838714102 0.0837937333
0.0842387032 0.0843479524 0.0842698341
0.0847146281 0.0848244945 0.0847459349
0.0851905530 0.0853010366 0.0852220357
0.0856664780 0.0857775787 0.0856981365
0.0861424029 0.0862541210 0.0861742373
0.0866183278 0.0867306631 0.0866503381
0.0870942527 0.0872072052 0.0871264389
0.0875701776 0.0876837474 0.0876025397
0.0880461025 0.0881602895 0.0880786405
0.0885220274 0.0886368316 0.0885547413
0.0889979523 0.0891133738 0.0890308420
0.0894738773 0.0895899160 0.0895069429
0.0899498022 0.0900664581 0.0899830437
0.0904257271 0.0905430002 0.0904591445
0.0909016521 0.0910195424 0.0909352453
0.0913775769 0.0914960845 0.0914113461
0.0918535018 0.0919726266 0.0918874469
0.0923294267 0.0924491688 0.0923635476
0.0928053517 0.0929257110 0.0928396485
0.0932812766 0.0934022531 0.0933157493
0.0937572015 0.0938787952 0.0937918501
0.0942331265 0.0943553373 0.0942679509
0.0947090514 0.0948318796 0.0947440517
0.0951849763 0.0953084217 0.0952201524
0.0956609011 0.0957849638 0.0956962532
0.0961368261 0.0962615060 0.0961723541
0.0966127510 0.0967380481 0.0966484549
0.0970886759 0.0972145902 0.0971245556
0.0975646009 0.0976911324 0.0976006565
0.0980405258 0.0981676746 0.0980767573
0.0985164507 0.0986442167 0.0985528580
0.0989923756 0.0991207588 0.0990289588
0.0994683006 0.0995973010 0.0995050597
0.0999442255 0.1000738431 0.0999811605
0.1004201504 0.1005503852 0.1004572612
0.1008960753 0.1010269274 0.1009333621
0.1013720002 0.1015034695 0.1014094629
0.1018479251 0.1019800116 0.1018855637
0.1023238500 0.1024565538 0.1023616644
0.1027997750 0.1029330961 0.1028377653
0.1032756999 0.1034096382 0.1033138661
0.1037516248 0.1038861803 0.1037899668
0.1042275497 0.1043627225 0.1042660677
0.1047034746 0.1048392646 0.1047421685
0.1051793995 0.1053158067 0.1052182692
0.1056553245 0.1057923488 0.1056943700
0.1061312495 0.1062688910 0.1061704709
0.1066071743 0.1067454332 0.1066465716
0.1070830992 0.1072219753 0.1071226724
0.1075590242 0.1076985174 0.1075987732
0.1080349491 0.1081750596 0.1080748740
0.1085108739 0.1086516017 0.1085509748
0.1089867989 0.1091281438 0.1090270756
0.1094627239 0.1096046860 0.1095031764
0.1099386488 0.1100812282 0.1099792772
0.1104145736 0.1105577703 0.1104553780
0.1108904985 0.1110343124 0.1109314787
0.1113664235 0.1115108546 0.1114075796
0.1118423483 0.1119873967 0.1118836804
0.1123182732 0.1124639388 0.1123597812
0.1127941982 0.1129404811 0.1128358820
0.1132701232 0.1134170232 0.1133119828
0.1137460481 0.1138935653 0.1137880836
0.1142219729 0.1143701074 0.1142641843
0.1146978979 0.1148466496 0.1147402852
0.1151738228 0.1153231917 0.1152163860
0.1156497477 0.1157997339 0.1156924868
0.1161256727 0.1162762761 0.1161685876
0.1166015976 0.1167528182 0.1166446884
0.1170775225 0.1172293603 0.1171207892
0.1175534473 0.1177059024 0.1175968899
0.1180293723 0.1181824446 0.1180729908
0.1185052972 0.1186589868 0.1185490916
0.1189812221 0.1191355289 0.1190251924
0.1194571471 0.1196120711 0.1195012932
0.1199330720 0.1200886132 0.1199773940
0.1204089969 0.1205651553 0.1204534948
0.1208849218 0.1210416974 0.1209295955
0.1213608467 0.1215182397 0.1214056964
0.1218367643 0.1219947745 0.1218817899
0.1223126893 0.1224713167 0.1223578908
0.1227886143 0.1229478588 0.1228339915
0.1232645392 0.1234244009 0.1233100923
0.1237404641 0.1239009430 0.1237861932
0.1242163890 0.1243774853 0.1242622939
0.1246923139 0.1248540274 0.1247383947
0.1251682388 0.1253305695 0.1252144955
0.1256441638 0.1258071117 0.1256905963
0.1261200887 0.1262836538 0.1261666971
0.1265960136 0.1267601960 0.1266427979
0.1270719385 0.1272367381 0.1271188988
0.1275478634 0.1277132803 0.1275949995
0.1280237883 0.1281898224 0.1280711003
0.1284997133 0.1286663645 0.1285472011
0.1289756382 0.1291429067 0.1290233019
0.1294515631 0.1296194488 0.1294994027
0.1299274880 0.1300959910 0.1299755035
0.1304034130 0.1305725331 0.1304516043
0.1308793379 0.1310490753 0.1309277051
0.1313552628 0.1315256174 0.1314038059
0.1318311877 0.1320021595 0.1318799067
0.1323071127 0.1324787018 0.1323560075
0.1327830375 0.1329552439 0.1328321083
0.1332589624 0.1334317860 0.1333082091
0.1337348874 0.1339083281 0.1337843099
0.1342108123 0.1343848703 0.1342604107
0.1346867372 0.1348614124 0.1347365115
0.1351626621 0.1353379545 0.1352126121
0.1356415817 0.1358179560 0.1357234591
0.1361153535 0.1362920112 0.1361745791
0.1365726298 0.1367421158 0.1363965562
0.1370172590 0.1371860150 0.1365366061
0.1374493821 0.1376532827 0.1367489006
0.1378703503 0.1381097658 0.1369753575
0.1382824889 0.1385102121 0.1371970637
0.1386846557 0.1388827401 0.1374195633
0.1390773800 0.1392525793 0.1376429141
0.1394575453 0.1396061629 0.1378670997
0.1398242511 0.1399333654 0.1380920884
0.1401688649 0.1402387901 0.1383179123
0.1404739714 0.1405222273 0.1385446113
0.1407533420 0.1407902965 0.1387721632
0.1410163831 0.1410510854 0.1390005552
0.1412699352 0.1413073074 0.1392297827
0.1415290450 0.1415669590 0.1394598296
0.1417892045 0.1418276531 0.1396907088
0.1420503512 0.1420893891 0.1399224318
0.1423125089 0.1423521354 0.1401549992
0.1425757162 0.1426158460 0.1403884175
0.1428399390 0.1428805512 0.1406226848
0.1431051390 0.1431462744 0.1408578045
0.1433713336 0.1434130149 0.1410937673
0.1436385311 0.1436807899 0.1413305577
0.1439067330 0.1439495759 0.1415681865
0.1441759461 0.1442193358 0.1418066643
0.1444461682 0.1444900990 0.1420459859
0.1447173968 0.1447618976 0.1422861472
0.1449896388 0.1450347160 0.1425271514
0.1452629081 0.1453085441 0.1427690009
0.1455371905 0.1455833849 0.1430116971
0.1458124697 0.1458592386 0.1432552442
0.1460887505 0.1461361051 0.1434996388
0.1463660282 0.1464139866 0.1437448797
0.1466443154 0.1466928771 0.1439909622
0.1469236347 0.1469727691 0.1442378740
0.1472039674 0.1472536630 0.1444856287
0.1474852906 0.1475355480 0.1447342468
0.1477676201 0.1478184466 0.1449837130
0.1480509714 0.1481023912 0.1452340066
0.1483353378 0.1483873682 0.1454851480
0.1486207168 0.1486733810 0.1457371651
0.1489071073 0.1489604044 0.1459900377
0.1491945100 0.1492483941 0.1462437475
0.1494829146 0.1495373752 0.1464982960
0.1497723916 0.1498274796 0.1467536646
0.1500627137 0.1501184017 0.1470098872
0.1503536124 0.1504097359 0.1472670132
0.1506450112 0.1507015370 0.1475250197
0.1509366443 0.1509937066 0.1477838936
0.1512286245 0.1512862619 0.1480436388
0.1515210129 0.1515791889 0.1483042519
0.1518137815 0.1518724797 0.1485657419
0.1521069182 0.1521661121 0.1488281254
0.1524004163 0.1524600986 0.1490913895
0.1526942511 0.1527544449 0.1493555430
0.1529884500 0.1530491596 0.1496205310
0.1532829907 0.1533442038 0.1498863157
0.1535780104 0.1536397195 0.1501527958
0.1538688597 0.1539310429 0.1504156579
0.1541684068 0.1542310806 0.1506859353
0.1545005134 0.1545637722 0.1509838616
0.1548465299 0.1549103933 0.1512936741
0.1551873816 0.1552517943 0.1515990913
0.1555280762 0.1555929787 0.1519048413
0.1558678318 0.1559331034 0.1522109592
0.1562067870 0.1562723688 0.1525174651
0.1565447669 0.1566106665 0.1528243824
0.1568818079 0.1569480290 0.1531316964
0.1572178740 0.1572844486 0.1534393945
0.1575529998 0.1576199474 0.1537474784
0.1578872199 0.1579545722 0.1540559390
0.1582205363 0.1582882775 0.1543647928
0.1585529780 0.1586209918 0.1546741237
0.1588845146 0.1589527794 0.1549837643
0.1592150993 0.1592837219 0.1552936674
0.1595447698 0.1596137759 0.1556033968
0.1598735666 0.1599429035 0.1559122107
0.1602014760 0.1602711257 0.1562203010
0.1605284936 0.1605984600 0.1565276429
0.1608546228 0.1609248995 0.1568342170
0.1611798625 0.1612504304 0.1571399592
0.1615042229 0.1615750804 0.1574449295
0.1618277232 0.1618988929 0.1577492164
0.1621503519 0.1622218475 0.1580527511
0.1624720938 0.1625439347 0.1583554407
0.1627929651 0.1628651475 0.1586573573
0.1631129818 0.1631854592 0.1589585861
0.1634321490 0.1635049009 0.1592590829
0.1637504917 0.1638235145 0.1595588091
0.1640679830 0.1641412841 0.1598577875
0.1643845745 0.1644582012 0.1601560407
0.1647003153 0.1647742720 0.1604535563
0.1650152758 0.1650895007 0.1607503210
0.1653294121 0.1654038920 0.1610463464
0.1656426792 0.1657174551 0.1613416401
0.1659551015 0.1660301893 0.1616362135
0.1662666934 0.1663421003 0.1619300967
0.1665774646 0.1666531807 0.1622232655
0.1668874443 0.1669634145 0.1625156903
0.1671966102 0.1672728199 0.1628073856
0.1675049323 0.1675814163 0.1630983548
0.1678124348 0.1678892079 0.1633886125
0.1681191388 0.1681962138 0.1636781855
0.1684250517 0.1685024226 0.1639670660
0.1687302120 0.1688078291 0.1642552531
0.1690345738 0.1691124233 0.1645427490
0.1693380531 0.1694161692 0.1648295638
0.1696407282 0.1697191139 0.1651156789
0.1699427093 0.1700213254 0.1654010592
0.1702439281 0.1703227747 0.1656857341
0.1705443144 0.1706234554 0.1659697368
0.1708439019 0.1709233443 0.1662530594
0.1711427084 0.1712223775 0.1665357070
0.1714407425 0.1715206197 0.1668176743
0.1717380301 0.1718181577 0.1670989445
0.1720345580 0.1721149532 0.1673795457
0.1723303116 0.1724109897 0.1676595305
0.1726253049 0.1727062545 0.1679388552
0.1729195579 0.1730007025 0.1682174564
0.1732130574 0.1732943812 0.1684953810
0.1735057871 0.1735873573 0.1687726891
0.1737977574 0.1738795982 0.1690493423
0.1740889734 0.1741710785 0.1693252934
0.1743794454 0.1744618091 0.1696005787
0.1746691960 0.1747517980 0.1698752426
0.1749582128 0.1750410408 0.1701492645
0.1752464716 0.1753295143 0.1704226168
0.1755340119 0.1756172710 0.1706953399
0.1758208845 0.1759043921 0.1709674880
0.1761070903 0.1761908547 0.1712390533
0.1763926684 0.1764766656 0.1715100617
0.1766775790 0.1767618057 0.1717804769
0.1769617737 0.1770462567 0.1720502432
0.1772452605 0.1773299954 0.1723193878
0.1775280270 0.1776129578 0.1725879405
0.1778100825 0.1778951924 0.1728558720
0.1780914355 0.1781767579 0.1731231316
0.1783720874 0.1784576284 0.1733897640
0.1786520466 0.1787377766 0.1736558304
0.1789313069 0.1790172329 0.1739212983
0.1792098492 0.1792960472 0.1741861453
0.1794877073 0.1795741847 0.1744503662
0.1797649428 0.1798516068 0.1747139251
0.1800415139 0.1801283264 0.1749768682
0.1803173430 0.1804043049 0.1752392362
0.1805925274 0.1806796494 0.1755010725
0.1808670018 0.1809543410 0.1757622860
0.1811412465 0.1812288261 0.1760233358
0.1814160505 0.1815038593 0.1762849684
0.1816912953 0.1817793243 0.1765470583
0.1819671850 0.1820554042 0.1768097643
0.1822436120 0.1823320142 0.1770730180
0.1825204798 0.1826090896 0.1773367735
0.1827978302 0.1828866615 0.1776010526
0.1830756789 0.1831647524 0.1778658736
0.1833540496 0.1834433599 0.1781312297
0.1836330150 0.1837225022 0.1783971189
0.1839125058 0.1840021478 0.1786635379
0.1841924161 0.1842822329 0.1789304829
0.1844728137 0.1845628117 0.1791979483
0.1847537828 0.1848439648 0.1794659147
0.1850352686 0.1851256384 0.1797344043
0.1853172118 0.1854077688 0.1800034587
0.1855996316 0.1856903860 0.1802730431
0.1858825183 0.1859735088 0.1805431019
0.1861659082 0.1862571394 0.1808136784
0.1864498843 0.1865413038 0.1810848390
0.1867343752 0.1868259668 0.1813565321
0.1870192773 0.1871110695 0.1816286871
0.1873046509 0.1873966449 0.1819013421
0.1875905616 0.1876827205 0.1821745302
0.1878769763 0.1879692976 0.1824482461
0.1881638697 0.1882564115 0.1827225038
0.1884512431 0.1885440115 0.1829972826
0.1887390841 0.1888319999 0.1832725484
0.1890274017 0.1891204537 0.1835483179
0.1893162088 0.1894094861 0.1838246117
0.1896054961 0.1896990213 0.1841014093
0.1898952485 0.1899889664 0.1843786718
0.1901854812 0.1902793690 0.1846564357
0.1904762199 0.1905702736 0.1849347626
0.1907674465 0.1908616625 0.1852136058
0.1910591435 0.1911535332 0.1854928995
0.1913513080 0.1914458679 0.1857726856
0.1916439243 0.1917386127 0.1860530127
0.1919370021 0.1920318266 0.1863338601
0.1922305545 0.1923256186 0.1866152259
0.1925245724 0.1926199002 0.1868970832
0.1928190446 0.1929145431 0.1871793710
0.1931139759 0.1932096208 0.1874621264
0.1934075477 0.1935033894 0.1877434625
0.1937043599 0.1938004177 0.1880282300
0.1940063451 0.1941026005 0.1883184515
0.1943261035 0.1944225848 0.1886274880
0.1946962403 0.1947930672 0.1889898943
0.1950905017 0.1951877195 0.1893778490
0.1954758449 0.1955733895 0.1897563157
0.1958612313 0.1959591031 0.1901348463
0.1962467213 0.1963450043 0.1905136115
0.1966324233 0.1967311406 0.1908926713
0.1970184654 0.1971175634 0.1912721181
0.1974047928 0.1975042461 0.1916518922
0.1977913783 0.1978911655 0.1920319252
0.1981782022 0.1982783243 0.1924122395
0.1985652061 0.1986657245 0.1927928417
0.1989524204 0.1990533459 0.1931737319
0.1993398339 0.1994410882 0.1935549160
0.1997275380 0.1998291174 0.1939363868
0.2001156427 0.2002176546 0.1943181451
0.2005042532 0.2006067458 0.1947001657
0.2008936305 0.2009965940 0.1950823998
0.2012837010 0.2013871449 0.1954648606
0.2016744481 0.2017783971 0.1958475469
0.2020659009 0.2021703580 0.1962304628
0.2024581212 0.2025630455 0.1966136152
0.2028510636 0.2029564458 0.1969970022
0.2032446709 0.2033505435 0.1973806287
0.2036389604 0.2037453374 0.1977644825
0.2040339368 0.2041408222 0.1981485426
0.2044295973 0.2045369886 0.1985328149
0.2048259316 0.2049338131 0.1989172825
0.2052229569 0.2053313075 0.1993019876
0.2056207188 0.2057294817 0.1996869225
0.2060191660 0.2061283350 0.2000722695
0.2064182063 0.2065278785 0.2004583663
0.2068178846 0.2069280794 0.2008451432
0.2072183035 0.2073289140 0.2012326949
0.2076193975 0.2077304115 0.2016209736
0.2080270300 0.2081385950 0.2020156976
0.2084264867 0.2085386190 0.2024025827
0.2087892748 0.2089017856 0.2027539835
0.2091287130 0.2092415307 0.2030828213
0.2094529014 0.2095660814 0.2033969565
0.2097668590 0.2098804173 0.2037012500
0.2100846879 0.2101986385 0.2040093776
0.2104025825 0.2105169185 0.2043176265
0.2107204901 0.2108351523 0.2046258969
0.2110383607 0.2111533268 0.2049341632
0.2113561296 0.2114714155 0.2052423684
0.2116738088 0.2117894379 0.2055505525
0.2119913690 0.2121074273 0.2058587802
0.2123088605 0.2124253556 0.2061670009
0.2126263864 0.2127431758 0.2064751305
0.2129438786 0.2130609182 0.2067832283
0.2132612607 0.2133786294 0.2070913865
0.2135785409 0.2136962722 0.2073995419
0.2138956840 0.2140137940 0.2077076099
0.2142127240 0.2143312157 0.2080156270
0.2145297141 0.2146485497 0.2083236261
0.2148466328 0.2149657978 0.2086315898
0.2151634743 0.2152829795 0.2089395043
0.2154802210 0.2156000703 0.2092473643
0.2157968239 0.2159170288 0.2095551468
0.2161133186 0.2162338714 0.2098628704
0.2164297634 0.2165506024 0.2101705566
0.2167461167 0.2168672348 0.2104782068
0.2170623204 0.2171838159 0.2107858482
0.2173784003 0.2175002915 0.2110934440
0.2176943795 0.2178165553 0.2114009339
0.2180102486 0.2181326809 0.2117083340
0.2183260036 0.2184487784 0.2120156352
0.2186416385 0.2187647807 0.2123228608
0.2189571368 0.2190806051 0.2126300613
0.2192725080 0.2193962817 0.2129372060
0.2195877718 0.2197118284 0.2132442654
0.2199029039 0.2200272423 0.2135512335
0.2202178573 0.2203425301 0.2138580756
0.2205326616 0.2206576831 0.2141648150
0.2208473551 0.2209726813 0.2144714810
0.2211619227 0.2212875422 0.2147780643
0.2214763582 0.2216023018 0.2150845657
0.2217906525 0.2219169266 0.2153909746
0.2221047831 0.2222313672 0.2156972632
0.2224187593 0.2225456349 0.2160034528
0.2227325948 0.2228597173 0.2163095871
0.2230462726 0.2231736383 0.2166156219
0.2233597542 0.2234874492 0.2169214813
0.2236730705 0.2238011177 0.2172272025
0.2239862770 0.2241146011 0.2175328161
0.2242993318 0.2244279174 0.2178383264
0.2246121687 0.2247410922 0.2181437767
0.2249248239 0.2250540950 0.2184491146
0.2252373411 0.2253668607 0.2187542375
0.2255497004 0.2256794388 0.2190592084
0.2258618866 0.2259919118 0.2193641153
0.2261738968 0.2263042274 0.2196689082
0.2264857186 0.2266163121 0.2199735189
0.2267973518 0.2269282036 0.2202779873
0.2271087904 0.2272399532 0.2205823722
0.2274200340 0.2275515235 0.2208866327
0.2277310731 0.2278628572 0.2211907101
0.2280419237 0.2281739845 0.2214946298
0.2283526185 0.2284849390 0.2217984162
0.2286631404 0.2287957101 0.2221020582
0.2289734807 0.2291062988 0.2224055459
0.2292836213 0.2294166946 0.2227088787
0.2295935069 0.2297268738 0.2230120502
0.2299031789 0.2300368475 0.2233150605
0.2302127100 0.2303466315 0.2236179060
0.2305220494 0.2306562117 0.2239205875
0.2308309925 0.2309654412 0.2242229451
0.2311398846 0.2312746273 0.2245253648
0.2314434034 0.2315784460 0.2248210686
0.2317557097 0.2318909526 0.2251279603
0.2321103019 0.2322453616 0.2254883561
0.2324853323 0.2326200234 0.2258746660
0.2328523163 0.2329867297 0.2262509253
0.2332185921 0.2333527308 0.2266263993
0.2335844578 0.2337182797 0.2270014703
0.2339499011 0.2340833885 0.2273761104
0.2343149078 0.2344480706 0.2277502653
0.2346794732 0.2348123177 0.2281239641
0.2350435725 0.2351761187 0.2284972430
0.2354072271 0.2355394765 0.2288700858
0.2357704760 0.2359023867 0.2292424818
0.2361332957 0.2362648601 0.2296144255
0.2364956547 0.2366269295 0.2299858894
0.2368575662 0.2369885633 0.2303569007
0.2372190482 0.2373497005 0.2307275163
0.2375800812 0.2377103783 0.2310976931
0.2379406257 0.2380706552 0.2314673632
0.2383007067 0.2384304930 0.2318365572
0.2386603608 0.2387898359 0.2322053039
0.2390195705 0.2391487082 0.2325735976
0.2393783168 0.2395071304 0.2329414482
