ACESLooks/LUT/T-SONY_Neutral_Tone.cube
# This file is automagically generated by clfutil 0.1.0 from C-SONY_Neutral.clf
LUT_1D_SIZE 4096
LUT_1D_INPUT_RANGE 0.0 1.4679964
  
0.0000000000 0.0000000000 0.0000000000
0.0004765421 0.0004765421 0.0004765421
0.0009530841 0.0009530841 0.0009530841
0.0014296263 0.0014296263 0.0014296263
0.0019061684 0.0019061684 0.0019061684
0.0023827105 0.0023827105 0.0023827105
0.0028592526 0.0028592526 0.0028592526
0.0033357948 0.0033357948 0.0033357948
0.0038123367 0.0038123367 0.0038123367
0.0042888791 0.0042888791 0.0042888791
0.0047654214 0.0047654214 0.0047654214
0.0052419634 0.0052419634 0.0052419634
0.0057185053 0.0057185053 0.0057185053
0.0061950474 0.0061950474 0.0061950474
0.0066715895 0.0066715895 0.0066715895
0.0071481317 0.0071481317 0.0071481317
0.0076246734 0.0076246734 0.0076246734
0.0081012155 0.0081012155 0.0081012155
0.0085777577 0.0085777577 0.0085777577
0.0090543003 0.0090543003 0.0090543003
0.0095308429 0.0095308429 0.0095308429
0.0100073847 0.0100073847 0.0100073847
0.0104839263 0.0104839263 0.0104839263
0.0109604683 0.0109604683 0.0109604683
0.0114370106 0.0114370106 0.0114370106
0.0119135527 0.0119135527 0.0119135527
0.0123900948 0.0123900948 0.0123900948
0.0128666370 0.0128666370 0.0128666370
0.0133431792 0.0133431792 0.0133431792
0.0138197213 0.0138197213 0.0138197213
0.0142962634 0.0142962634 0.0142962634
0.0147728056 0.0147728056 0.0147728056
0.0152493468 0.0152493468 0.0152493468
0.0157258889 0.0157258889 0.0157258889
0.0162024311 0.0162024311 0.0162024311
0.0166789733 0.0166789733 0.0166789733
0.0171555154 0.0171555154 0.0171555154
0.0176320574 0.0176320574 0.0176320574
0.0181085997 0.0181085997 0.0181085997
0.0185851428 0.0185851428 0.0185851428
0.0190616858 0.0190616858 0.0190616858
0.0195382272 0.0195382272 0.0195382272
0.0200147683 0.0200147683 0.0200147683
0.0204913103 0.0204913103 0.0204913103
0.0209678525 0.0209678525 0.0209678525
0.0214443947 0.0214443947 0.0214443947
0.0219209368 0.0219209368 0.0219209368
0.0223974790 0.0223974790 0.0223974790
0.0228740211 0.0228740211 0.0228740211
0.0233505633 0.0233505633 0.0233505633
0.0238271054 0.0238271054 0.0238271054
0.0243036475 0.0243036475 0.0243036475
0.0247801898 0.0247801898 0.0247801898
0.0252567319 0.0252567319 0.0252567319
0.0257332740 0.0257332740 0.0257332740
0.0262098161 0.0262098161 0.0262098161
0.0266863583 0.0266863583 0.0266863583
0.0271629004 0.0271629004 0.0271629004
0.0276394425 0.0276394425 0.0276394425
0.0281159848 0.0281159848 0.0281159848
0.0285925269 0.0285925269 0.0285925269
0.0290690690 0.0290690690 0.0290690690
0.0295456111 0.0295456111 0.0295456111
0.0300221533 0.0300221533 0.0300221533
0.0304986936 0.0304986936 0.0304986936
0.0309752358 0.0309752358 0.0309752358
0.0314517779 0.0314517779 0.0314517779
0.0319283201 0.0319283201 0.0319283201
0.0324048622 0.0324048622 0.0324048622
0.0328814043 0.0328814043 0.0328814043
0.0333579465 0.0333579465 0.0333579465
0.0338344887 0.0338344887 0.0338344887
0.0343110308 0.0343110308 0.0343110308
0.0347875729 0.0347875729 0.0347875729
0.0352641151 0.0352641151 0.0352641151
0.0357406572 0.0357406572 0.0357406572
0.0362171993 0.0362171993 0.0362171993
0.0366937413 0.0366937413 0.0366937413
0.0371702837 0.0371702837 0.0371702837
0.0376468278 0.0376468278 0.0376468278
0.0381233715 0.0381233715 0.0381233715
0.0385999122 0.0385999122 0.0385999122
0.0390764523 0.0390764523 0.0390764523
0.0395529941 0.0395529941 0.0395529941
0.0400295366 0.0400295366 0.0400295366
0.0405060787 0.0405060787 0.0405060787
0.0409826208 0.0409826208 0.0409826208
0.0414591629 0.0414591629 0.0414591629
0.0419357052 0.0419357052 0.0419357052
0.0424122473 0.0424122473 0.0424122473
0.0428887894 0.0428887894 0.0428887894
0.0433653315 0.0433653315 0.0433653315
0.0438418737 0.0438418737 0.0438418737
0.0443184158 0.0443184158 0.0443184158
0.0447949579 0.0447949579 0.0447949579
0.0452715002 0.0452715002 0.0452715002
0.0457480423 0.0457480423 0.0457480423
0.0462245844 0.0462245844 0.0462245844
0.0467011265 0.0467011265 0.0467011265
0.0471776687 0.0471776687 0.0471776687
0.0476542108 0.0476542108 0.0476542108
0.0481307530 0.0481307530 0.0481307530
0.0486072952 0.0486072952 0.0486072952
0.0490838373 0.0490838373 0.0490838373
0.0495603794 0.0495603794 0.0495603794
0.0500369216 0.0500369216 0.0500369216
0.0505134637 0.0505134637 0.0505134637
0.0509900058 0.0509900058 0.0509900058
0.0514665480 0.0514665480 0.0514665480
0.0519430902 0.0519430902 0.0519430902
0.0524196323 0.0524196323 0.0524196323
0.0528961744 0.0528961744 0.0528961744
0.0533727165 0.0533727165 0.0533727165
0.0538492588 0.0538492588 0.0538492588
0.0543258009 0.0543258009 0.0543258009
0.0548023430 0.0548023430 0.0548023430
0.0552788852 0.0552788852 0.0552788852
0.0557554273 0.0557554273 0.0557554273
0.0562319694 0.0562319694 0.0562319694
0.0567085116 0.0567085116 0.0567085116
0.0571850538 0.0571850538 0.0571850538
0.0576615959 0.0576615959 0.0576615959
0.0581381380 0.0581381380 0.0581381380
0.0586146802 0.0586146802 0.0586146802
0.0590912223 0.0590912223 0.0590912223
0.0595677644 0.0595677644 0.0595677644
0.0600443066 0.0600443066 0.0600443066
0.0605208488 0.0605208488 0.0605208488
0.0609973873 0.0609973873 0.0609973873
0.0614739294 0.0614739294 0.0614739294
0.0619504715 0.0619504715 0.0619504715
0.0624270137 0.0624270137 0.0624270137
0.0629035559 0.0629035559 0.0629035559
0.0633800980 0.0633800980 0.0633800980
0.0638566401 0.0638566401 0.0638566401
0.0643331823 0.0643331823 0.0643331823
0.0648097244 0.0648097244 0.0648097244
0.0652862665 0.0652862665 0.0652862665
0.0657628087 0.0657628087 0.0657628087
0.0662393509 0.0662393509 0.0662393509
0.0667158930 0.0667158930 0.0667158930
0.0671924351 0.0671924351 0.0671924351
0.0676689773 0.0676689773 0.0676689773
0.0681455194 0.0681455194 0.0681455194
0.0686220616 0.0686220616 0.0686220616
0.0690986038 0.0690986038 0.0690986038
0.0695751459 0.0695751459 0.0695751459
0.0700516880 0.0700516880 0.0700516880
0.0705282301 0.0705282301 0.0705282301
0.0710047723 0.0710047723 0.0710047723
0.0714813144 0.0714813144 0.0714813144
0.0719578566 0.0719578566 0.0719578566
0.0724343988 0.0724343988 0.0724343988
0.0729109409 0.0729109409 0.0729109409
0.0733874830 0.0733874830 0.0733874830
0.0738640251 0.0738640251 0.0738640251
0.0743405673 0.0743405673 0.0743405673
0.0748171090 0.0748171090 0.0748171090
0.0752936515 0.0752936515 0.0752936515
0.0757701976 0.0757701976 0.0757701976
0.0762467432 0.0762467432 0.0762467432
0.0767232823 0.0767232823 0.0767232823
0.0771998202 0.0771998202 0.0771998202
0.0776763619 0.0776763619 0.0776763619
0.0781529045 0.0781529045 0.0781529045
0.0786294466 0.0786294466 0.0786294466
0.0791059887 0.0791059887 0.0791059887
0.0795825309 0.0795825309 0.0795825309
0.0800590730 0.0800590730 0.0800590730
0.0805356152 0.0805356152 0.0805356152
0.0810121574 0.0810121574 0.0810121574
0.0814886995 0.0814886995 0.0814886995
0.0819652416 0.0819652416 0.0819652416
0.0824417837 0.0824417837 0.0824417837
0.0829183259 0.0829183259 0.0829183259
0.0833948681 0.0833948681 0.0833948681
0.0838714102 0.0838714102 0.0838714102
0.0843479524 0.0843479524 0.0843479524
0.0848244945 0.0848244945 0.0848244945
0.0853010366 0.0853010366 0.0853010366
0.0857775787 0.0857775787 0.0857775787
0.0862541210 0.0862541210 0.0862541210
0.0867306631 0.0867306631 0.0867306631
0.0872072052 0.0872072052 0.0872072052
0.0876837474 0.0876837474 0.0876837474
0.0881602895 0.0881602895 0.0881602895
0.0886368316 0.0886368316 0.0886368316
0.0891133738 0.0891133738 0.0891133738
0.0895899160 0.0895899160 0.0895899160
0.0900664581 0.0900664581 0.0900664581
0.0905430002 0.0905430002 0.0905430002
0.0910195424 0.0910195424 0.0910195424
0.0914960845 0.0914960845 0.0914960845
0.0919726266 0.0919726266 0.0919726266
0.0924491688 0.0924491688 0.0924491688
0.0929257110 0.0929257110 0.0929257110
0.0934022531 0.0934022531 0.0934022531
0.0938787952 0.0938787952 0.0938787952
0.0943553373 0.0943553373 0.0943553373
0.0948318796 0.0948318796 0.0948318796
0.0953084217 0.0953084217 0.0953084217
0.0957849638 0.0957849638 0.0957849638
0.0962615060 0.0962615060 0.0962615060
0.0967380481 0.0967380481 0.0967380481
0.0972145902 0.0972145902 0.0972145902
0.0976911324 0.0976911324 0.0976911324
0.0981676746 0.0981676746 0.0981676746
0.0986442167 0.0986442167 0.0986442167
0.0991207588 0.0991207588 0.0991207588
0.0995973010 0.0995973010 0.0995973010
0.1000738431 0.1000738431 0.1000738431
0.1005503852 0.1005503852 0.1005503852
0.1010269274 0.1010269274 0.1010269274
0.1015034695 0.1015034695 0.1015034695
0.1019800116 0.1019800116 0.1019800116
0.1024565538 0.1024565538 0.1024565538
0.1029330961 0.1029330961 0.1029330961
0.1034096382 0.1034096382 0.1034096382
0.1038861803 0.1038861803 0.1038861803
0.1043627225 0.1043627225 0.1043627225
0.1048392646 0.1048392646 0.1048392646
0.1053158067 0.1053158067 0.1053158067
0.1057923488 0.1057923488 0.1057923488
0.1062688910 0.1062688910 0.1062688910
0.1067454332 0.1067454332 0.1067454332
0.1072219753 0.1072219753 0.1072219753
0.1076985174 0.1076985174 0.1076985174
0.1081750596 0.1081750596 0.1081750596
0.1086516017 0.1086516017 0.1086516017
0.1091281438 0.1091281438 0.1091281438
0.1096046860 0.1096046860 0.1096046860
0.1100812282 0.1100812282 0.1100812282
0.1105577703 0.1105577703 0.1105577703
0.1110343124 0.1110343124 0.1110343124
0.1115108546 0.1115108546 0.1115108546
0.1119873967 0.1119873967 0.1119873967
0.1124639388 0.1124639388 0.1124639388
0.1129404811 0.1129404811 0.1129404811
0.1134170232 0.1134170232 0.1134170232
0.1138935653 0.1138935653 0.1138935653
0.1143701074 0.1143701074 0.1143701074
0.1148466496 0.1148466496 0.1148466496
0.1153231917 0.1153231917 0.1153231917
0.1157997339 0.1157997339 0.1157997339
0.1162762761 0.1162762761 0.1162762761
0.1167528182 0.1167528182 0.1167528182
0.1172293603 0.1172293603 0.1172293603
0.1177059024 0.1177059024 0.1177059024
0.1181824446 0.1181824446 0.1181824446
0.1186589868 0.1186589868 0.1186589868
0.1191355289 0.1191355289 0.1191355289
0.1196120711 0.1196120711 0.1196120711
0.1200886132 0.1200886132 0.1200886132
0.1205651553 0.1205651553 0.1205651553
0.1210416974 0.1210416974 0.1210416974
0.1215182397 0.1215182397 0.1215182397
0.1219947745 0.1219947745 0.1219947745
0.1224713167 0.1224713167 0.1224713167
0.1229478588 0.1229478588 0.1229478588
0.1234244009 0.1234244009 0.1234244009
0.1239009430 0.1239009430 0.1239009430
0.1243774853 0.1243774853 0.1243774853
0.1248540274 0.1248540274 0.1248540274
0.1253305695 0.1253305695 0.1253305695
0.1258071117 0.1258071117 0.1258071117
0.1262836538 0.1262836538 0.1262836538
0.1267601960 0.1267601960 0.1267601960
0.1272367381 0.1272367381 0.1272367381
0.1277132803 0.1277132803 0.1277132803
0.1281898224 0.1281898224 0.1281898224
0.1286663645 0.1286663645 0.1286663645
0.1291429067 0.1291429067 0.1291429067
0.1296194488 0.1296194488 0.1296194488
0.1300959910 0.1300959910 0.1300959910
0.1305725331 0.1305725331 0.1305725331
0.1310490753 0.1310490753 0.1310490753
0.1315256174 0.1315256174 0.1315256174
0.1320021595 0.1320021595 0.1320021595
0.1324787018 0.1324787018 0.1324787018
0.1329552439 0.1329552439 0.1329552439
0.1334317860 0.1334317860 0.1334317860
0.1339083281 0.1339083281 0.1339083281
0.1343848703 0.1343848703 0.1343848703
0.1348614124 0.1348614124 0.1348614124
0.1353379545 0.1353379545 0.1353379545
0.1358179560 0.1358179560 0.1358179560
0.1362920112 0.1362920112 0.1362920112
0.1367421158 0.1367421158 0.1367421158
0.1371860150 0.1371860150 0.1371860150
0.1376532827 0.1376532827 0.1376532827
0.1381097658 0.1381097658 0.1381097658
0.1385102121 0.1385102121 0.1385102121
0.1388827401 0.1388827401 0.1388827401
0.1392525793 0.1392525793 0.1392525793
0.1396061629 0.1396061629 0.1396061629
0.1399333654 0.1399333654 0.1399333654
0.1402387901 0.1402387901 0.1402387901
0.1405222273 0.1405222273 0.1405222273
0.1407902965 0.1407902965 0.1407902965
0.1410510854 0.1410510854 0.1410510854
0.1413073074 0.1413073074 0.1413073074
0.1415669590 0.1415669590 0.1415669590
0.1418276531 0.1418276531 0.1418276531
0.1420893891 0.1420893891 0.1420893891
0.1423521354 0.1423521354 0.1423521354
0.1426158460 0.1426158460 0.1426158460
0.1428805512 0.1428805512 0.1428805512
0.1431462744 0.1431462744 0.1431462744
0.1434130149 0.1434130149 0.1434130149
0.1436807899 0.1436807899 0.1436807899
0.1439495759 0.1439495759 0.1439495759
0.1442193358 0.1442193358 0.1442193358
0.1444900990 0.1444900990 0.1444900990
0.1447618976 0.1447618976 0.1447618976
0.1450347160 0.1450347160 0.1450347160
0.1453085441 0.1453085441 0.1453085441
0.1455833849 0.1455833849 0.1455833849
0.1458592386 0.1458592386 0.1458592386
0.1461361051 0.1461361051 0.1461361051
0.1464139866 0.1464139866 0.1464139866
0.1466928771 0.1466928771 0.1466928771
0.1469727691 0.1469727691 0.1469727691
0.1472536630 0.1472536630 0.1472536630
0.1475355480 0.1475355480 0.1475355480
0.1478184466 0.1478184466 0.1478184466
0.1481023912 0.1481023912 0.1481023912
0.1483873682 0.1483873682 0.1483873682
0.1486733810 0.1486733810 0.1486733810
0.1489604044 0.1489604044 0.1489604044
0.1492483941 0.1492483941 0.1492483941
0.1495373752 0.1495373752 0.1495373752
0.1498274796 0.1498274796 0.1498274796
0.1501184017 0.1501184017 0.1501184017
0.1504097359 0.1504097359 0.1504097359
0.1507015370 0.1507015370 0.1507015370
0.1509937066 0.1509937066 0.1509937066
0.1512862619 0.1512862619 0.1512862619
0.1515791889 0.1515791889 0.1515791889
0.1518724797 0.1518724797 0.1518724797
0.1521661121 0.1521661121 0.1521661121
0.1524600986 0.1524600986 0.1524600986
0.1527544449 0.1527544449 0.1527544449
0.1530491596 0.1530491596 0.1530491596
0.1533442038 0.1533442038 0.1533442038
0.1536397195 0.1536397195 0.1536397195
0.1539310429 0.1539310429 0.1539310429
0.1542310806 0.1542310806 0.1542310806
0.1545637722 0.1545637722 0.1545637722
0.1549103933 0.1549103933 0.1549103933
0.1552517943 0.1552517943 0.1552517943
0.1555929787 0.1555929787 0.1555929787
0.1559331034 0.1559331034 0.1559331034
0.1562723688 0.1562723688 0.1562723688
0.1566106665 0.1566106665 0.1566106665
0.1569480290 0.1569480290 0.1569480290
0.1572844486 0.1572844486 0.1572844486
0.1576199474 0.1576199474 0.1576199474
0.1579545722 0.1579545722 0.1579545722
0.1582882775 0.1582882775 0.1582882775
0.1586209918 0.1586209918 0.1586209918
0.1589527794 0.1589527794 0.1589527794
0.1592837219 0.1592837219 0.1592837219
0.1596137759 0.1596137759 0.1596137759
0.1599429035 0.1599429035 0.1599429035
0.1602711257 0.1602711257 0.1602711257
0.1605984600 0.1605984600 0.1605984600
0.1609248995 0.1609248995 0.1609248995
0.1612504304 0.1612504304 0.1612504304
0.1615750804 0.1615750804 0.1615750804
0.1618988929 0.1618988929 0.1618988929
0.1622218475 0.1622218475 0.1622218475
0.1625439347 0.1625439347 0.1625439347
0.1628651475 0.1628651475 0.1628651475
0.1631854592 0.1631854592 0.1631854592
0.1635049009 0.1635049009 0.1635049009
0.1638235145 0.1638235145 0.1638235145
0.1641412841 0.1641412841 0.1641412841
0.1644582012 0.1644582012 0.1644582012
0.1647742720 0.1647742720 0.1647742720
0.1650895007 0.1650895007 0.1650895007
0.1654038920 0.1654038920 0.1654038920
0.1657174551 0.1657174551 0.1657174551
0.1660301893 0.1660301893 0.1660301893
0.1663421003 0.1663421003 0.1663421003
0.1666531807 0.1666531807 0.1666531807
0.1669634145 0.1669634145 0.1669634145
0.1672728199 0.1672728199 0.1672728199
0.1675814163 0.1675814163 0.1675814163
0.1678892079 0.1678892079 0.1678892079
0.1681962138 0.1681962138 0.1681962138
0.1685024226 0.1685024226 0.1685024226
0.1688078291 0.1688078291 0.1688078291
0.1691124233 0.1691124233 0.1691124233
0.1694161692 0.1694161692 0.1694161692
0.1697191139 0.1697191139 0.1697191139
0.1700213254 0.1700213254 0.1700213254
0.1703227747 0.1703227747 0.1703227747
0.1706234554 0.1706234554 0.1706234554
0.1709233443 0.1709233443 0.1709233443
0.1712223775 0.1712223775 0.1712223775
0.1715206197 0.1715206197 0.1715206197
0.1718181577 0.1718181577 0.1718181577
0.1721149532 0.1721149532 0.1721149532
0.1724109897 0.1724109897 0.1724109897
0.1727062545 0.1727062545 0.1727062545
0.1730007025 0.1730007025 0.1730007025
0.1732943812 0.1732943812 0.1732943812
0.1735873573 0.1735873573 0.1735873573
0.1738795982 0.1738795982 0.1738795982
0.1741710785 0.1741710785 0.1741710785
0.1744618091 0.1744618091 0.1744618091
0.1747517980 0.1747517980 0.1747517980
0.1750410408 0.1750410408 0.1750410408
0.1753295143 0.1753295143 0.1753295143
0.1756172710 0.1756172710 0.1756172710
0.1759043921 0.1759043921 0.1759043921
0.1761908547 0.1761908547 0.1761908547
0.1764766656 0.1764766656 0.1764766656
0.1767618057 0.1767618057 0.1767618057
0.1770462567 0.1770462567 0.1770462567
0.1773299954 0.1773299954 0.1773299954
0.1776129578 0.1776129578 0.1776129578
0.1778951924 0.1778951924 0.1778951924
0.1781767579 0.1781767579 0.1781767579
0.1784576284 0.1784576284 0.1784576284
0.1787377766 0.1787377766 0.1787377766
0.1790172329 0.1790172329 0.1790172329
0.1792960472 0.1792960472 0.1792960472
0.1795741847 0.1795741847 0.1795741847
0.1798516068 0.1798516068 0.1798516068
0.1801283264 0.1801283264 0.1801283264
0.1804043049 0.1804043049 0.1804043049
0.1806796494 0.1806796494 0.1806796494
0.1809543410 0.1809543410 0.1809543410
0.1812288261 0.1812288261 0.1812288261
0.1815038593 0.1815038593 0.1815038593
0.1817793243 0.1817793243 0.1817793243
0.1820554042 0.1820554042 0.1820554042
0.1823320142 0.1823320142 0.1823320142
0.1826090896 0.1826090896 0.1826090896
0.1828866615 0.1828866615 0.1828866615
0.1831647524 0.1831647524 0.1831647524
0.1834433599 0.1834433599 0.1834433599
0.1837225022 0.1837225022 0.1837225022
0.1840021478 0.1840021478 0.1840021478
0.1842822329 0.1842822329 0.1842822329
0.1845628117 0.1845628117 0.1845628117
0.1848439648 0.1848439648 0.1848439648
0.1851256384 0.1851256384 0.1851256384
0.1854077688 0.1854077688 0.1854077688
0.1856903860 0.1856903860 0.1856903860
0.1859735088 0.1859735088 0.1859735088
0.1862571394 0.1862571394 0.1862571394
0.1865413038 0.1865413038 0.1865413038
0.1868259668 0.1868259668 0.1868259668
0.1871110695 0.1871110695 0.1871110695
0.1873966449 0.1873966449 0.1873966449
0.1876827205 0.1876827205 0.1876827205
0.1879692976 0.1879692976 0.1879692976
0.1882564115 0.1882564115 0.1882564115
0.1885440115 0.1885440115 0.1885440115
0.1888319999 0.1888319999 0.1888319999
0.1891204537 0.1891204537 0.1891204537
0.1894094861 0.1894094861 0.1894094861
0.1896990213 0.1896990213 0.1896990213
0.1899889664 0.1899889664 0.1899889664
0.1902793690 0.1902793690 0.1902793690
0.1905702736 0.1905702736 0.1905702736
0.1908616625 0.1908616625 0.1908616625
0.1911535332 0.1911535332 0.1911535332
0.1914458679 0.1914458679 0.1914458679
0.1917386127 0.1917386127 0.1917386127
0.1920318266 0.1920318266 0.1920318266
0.1923256186 0.1923256186 0.1923256186
0.1926199002 0.1926199002 0.1926199002
0.1929145431 0.1929145431 0.1929145431
0.1932096208 0.1932096208 0.1932096208
0.1935033894 0.1935033894 0.1935033894
0.1938004177 0.1938004177 0.1938004177
0.1941026005 0.1941026005 0.1941026005
0.1944225848 0.1944225848 0.1944225848
0.1947930672 0.1947930672 0.1947930672
0.1951877195 0.1951877195 0.1951877195
0.1955733895 0.1955733895 0.1955733895
0.1959591031 0.1959591031 0.1959591031
0.1963450043 0.1963450043 0.1963450043
0.1967311406 0.1967311406 0.1967311406
0.1971175634 0.1971175634 0.1971175634
0.1975042461 0.1975042461 0.1975042461
0.1978911655 0.1978911655 0.1978911655
0.1982783243 0.1982783243 0.1982783243
0.1986657245 0.1986657245 0.1986657245
0.1990533459 0.1990533459 0.1990533459
0.1994410882 0.1994410882 0.1994410882
0.1998291174 0.1998291174 0.1998291174
0.2002176546 0.2002176546 0.2002176546
0.2006067458 0.2006067458 0.2006067458
0.2009965940 0.2009965940 0.2009965940
0.2013871449 0.2013871449 0.2013871449
0.2017783971 0.2017783971 0.2017783971
0.2021703580 0.2021703580 0.2021703580
0.2025630455 0.2025630455 0.2025630455
0.2029564458 0.2029564458 0.2029564458
0.2033505435 0.2033505435 0.2033505435
0.2037453374 0.2037453374 0.2037453374
0.2041408222 0.2041408222 0.2041408222
0.2045369886 0.2045369886 0.2045369886
0.2049338131 0.2049338131 0.2049338131
0.2053313075 0.2053313075 0.2053313075
0.2057294817 0.2057294817 0.2057294817
0.2061283350 0.2061283350 0.2061283350
0.2065278785 0.2065278785 0.2065278785
0.2069280794 0.2069280794 0.2069280794
0.2073289140 0.2073289140 0.2073289140
0.2077304115 0.2077304115 0.2077304115
0.2081385950 0.2081385950 0.2081385950
0.2085386190 0.2085386190 0.2085386190
0.2089017856 0.2089017856 0.2089017856
0.2092415307 0.2092415307 0.2092415307
0.2095660814 0.2095660814 0.2095660814
0.2098804173 0.2098804173 0.2098804173
0.2101986385 0.2101986385 0.2101986385
0.2105169185 0.2105169185 0.2105169185
0.2108351523 0.2108351523 0.2108351523
0.2111533268 0.2111533268 0.2111533268
0.2114714155 0.2114714155 0.2114714155
0.2117894379 0.2117894379 0.2117894379
0.2121074273 0.2121074273 0.2121074273
0.2124253556 0.2124253556 0.2124253556
0.2127431758 0.2127431758 0.2127431758
0.2130609182 0.2130609182 0.2130609182
0.2133786294 0.2133786294 0.2133786294
0.2136962722 0.2136962722 0.2136962722
0.2140137940 0.2140137940 0.2140137940
0.2143312157 0.2143312157 0.2143312157
0.2146485497 0.2146485497 0.2146485497
0.2149657978 0.2149657978 0.2149657978
0.2152829795 0.2152829795 0.2152829795
0.2156000703 0.2156000703 0.2156000703
0.2159170288 0.2159170288 0.2159170288
0.2162338714 0.2162338714 0.2162338714
0.2165506024 0.2165506024 0.2165506024
0.2168672348 0.2168672348 0.2168672348
0.2171838159 0.2171838159 0.2171838159
0.2175002915 0.2175002915 0.2175002915
0.2178165553 0.2178165553 0.2178165553
0.2181326809 0.2181326809 0.2181326809
0.2184487784 0.2184487784 0.2184487784
0.2187647807 0.2187647807 0.2187647807
0.2190806051 0.2190806051 0.2190806051
0.2193962817 0.2193962817 0.2193962817
0.2197118284 0.2197118284 0.2197118284
0.2200272423 0.2200272423 0.2200272423
0.2203425301 0.2203425301 0.2203425301
0.2206576831 0.2206576831 0.2206576831
0.2209726813 0.2209726813 0.2209726813
0.2212875422 0.2212875422 0.2212875422
0.2216023018 0.2216023018 0.2216023018
0.2219169266 0.2219169266 0.2219169266
0.2222313672 0.2222313672 0.2222313672
0.2225456349 0.2225456349 0.2225456349
0.2228597173 0.2228597173 0.2228597173
0.2231736383 0.2231736383 0.2231736383
0.2234874492 0.2234874492 0.2234874492
0.2238011177 0.2238011177 0.2238011177
0.2241146011 0.2241146011 0.2241146011
0.2244279174 0.2244279174 0.2244279174
0.2247410922 0.2247410922 0.2247410922
0.2250540950 0.2250540950 0.2250540950
0.2253668607 0.2253668607 0.2253668607
0.2256794388 0.2256794388 0.2256794388
0.2259919118 0.2259919118 0.2259919118
0.2263042274 0.2263042274 0.2263042274
0.2266163121 0.2266163121 0.2266163121
0.2269282036 0.2269282036 0.2269282036
0.2272399532 0.2272399532 0.2272399532
0.2275515235 0.2275515235 0.2275515235
0.2278628572 0.2278628572 0.2278628572
0.2281739845 0.2281739845 0.2281739845
0.2284849390 0.2284849390 0.2284849390
0.2287957101 0.2287957101 0.2287957101
0.2291062988 0.2291062988 0.2291062988
0.2294166946 0.2294166946 0.2294166946
0.2297268738 0.2297268738 0.2297268738
0.2300368475 0.2300368475 0.2300368475
0.2303466315 0.2303466315 0.2303466315
0.2306562117 0.2306562117 0.2306562117
0.2309654412 0.2309654412 0.2309654412
0.2312746273 0.2312746273 0.2312746273
0.2315784460 0.2315784460 0.2315784460
0.2318909526 0.2318909526 0.2318909526
0.2322453616 0.2322453616 0.2322453616
0.2326200234 0.2326200234 0.2326200234
0.2329867297 0.2329867297 0.2329867297
0.2333527308 0.2333527308 0.2333527308
0.2337182797 0.2337182797 0.2337182797
0.2340833885 0.2340833885 0.2340833885
0.2344480706 0.2344480706 0.2344480706
0.2348123177 0.2348123177 0.2348123177
0.2351761187 0.2351761187 0.2351761187
0.2355394765 0.2355394765 0.2355394765
0.2359023867 0.2359023867 0.2359023867
0.2362648601 0.2362648601 0.2362648601
0.2366269295 0.2366269295 0.2366269295
0.2369885633 0.2369885633 0.2369885633
0.2373497005 0.2373497005 0.2373497005
0.2377103783 0.2377103783 0.2377103783
0.2380706552 0.2380706552 0.2380706552
0.2384304930 0.2384304930 0.2384304930
0.2387898359 0.2387898359 0.2387898359
0.2391487082 0.2391487082 0.2391487082
